agx_srgb_img.cube
# Created by DaVinci Flow AgX Pipeline Generator
# Mode: AgX Image Stills (sRGB to Rec709)
LUT_3D_SIZE 65
0.000000 0.000000 0.000000
0.000000 0.000000 0.000000
0.000735 0.000000 0.000000
0.005334 0.000000 0.000000
0.008790 0.000000 0.000000
0.011608 0.000000 0.000000
0.014159 0.000000 0.000000
0.016720 0.000000 0.000000
0.019473 0.000000 0.000000
0.022525 0.000000 0.000000
0.025936 0.001863 0.000000
0.029728 0.003779 0.000000
0.033904 0.005505 0.000000
0.038453 0.007053 0.000000
0.043354 0.008449 0.000162
0.048584 0.009722 0.001671
0.054115 0.010904 0.003091
0.059920 0.012023 0.004413
0.065973 0.013105 0.005634
0.072247 0.014172 0.006763
0.078717 0.015242 0.007809
0.085362 0.016330 0.008782
0.092159 0.017449 0.009696
0.099088 0.018610 0.010562
0.106132 0.019821 0.011390
0.113273 0.021087 0.012191
0.120496 0.022415 0.012975
0.127788 0.023806 0.013749
0.135135 0.025264 0.014521
0.142525 0.026790 0.015298
0.149949 0.028385 0.016086
0.157396 0.030050 0.016888
0.164858 0.031783 0.017709
0.172327 0.033584 0.018554
0.179795 0.035452 0.019424
0.187257 0.037385 0.020323
0.194706 0.039383 0.021252
0.202137 0.041443 0.022214
0.209545 0.043563 0.023209
0.216926 0.045742 0.024239
0.224275 0.047977 0.025303
0.231590 0.050267 0.026404
0.238868 0.052609 0.027541
0.246104 0.055002 0.028714
0.253297 0.057443 0.029924
0.260445 0.059930 0.031170
0.267545 0.062462 0.032451
0.274596 0.065036 0.033768
0.281596 0.067650 0.035121
0.288543 0.070302 0.036507
0.295437 0.072991 0.037928
0.302276 0.075715 0.039383
0.309060 0.078471 0.040870
0.315787 0.081259 0.042389
0.322456 0.084076 0.043939
0.329068 0.086921 0.045520
0.335622 0.089793 0.047131
0.342118 0.092689 0.048771
0.348554 0.095609 0.050439
0.354931 0.098551 0.052134
0.361250 0.101514 0.053857
0.367508 0.104496 0.055605
0.373708 0.107496 0.057378
0.379848 0.110513 0.059176
0.385929 0.113546 0.060997
0.000000 0.000000 0.000000
0.000000 0.000000 0.000000
0.004179 0.000000 0.000000
0.007526 0.000000 0.000000
0.010267 0.000376 0.000000
0.012716 0.001430 0.000000
0.015094 0.002555 0.000000
0.017583 0.003716 0.000000
0.020312 0.004882 0.000000
0.023361 0.006030 0.000000
0.026773 0.007145 0.000000
0.030567 0.008218 0.000000
0.034741 0.009251 0.000000
0.039283 0.010245 0.000788
0.044174 0.011210 0.002117
0.049389 0.012155 0.003386
0.054902 0.013091 0.004584
0.060688 0.014029 0.005709
0.066719 0.014980 0.006762
0.072971 0.015954 0.007748
0.079419 0.016960 0.008676
0.086040 0.018006 0.009552
0.092814 0.019099 0.010387
0.099720 0.020244 0.011190
0.106741 0.021447 0.011967
0.113860 0.022710 0.012728
0.121061 0.024037 0.013481
0.128332 0.025430 0.014230
0.135658 0.026890 0.014984
0.143029 0.028418 0.015747
0.150433 0.030014 0.016523
0.157862 0.031678 0.017318
0.165307 0.033410 0.018134
0.172758 0.035208 0.018975
0.180211 0.037072 0.019843
0.187657 0.038999 0.020740
0.195091 0.040989 0.021669
0.202508 0.043041 0.022630
0.209902 0.045151 0.023625
0.217270 0.047319 0.024655
0.224607 0.049542 0.025720
0.231910 0.051818 0.026821
0.239176 0.054146 0.027959
0.246401 0.056524 0.029132
0.253584 0.058949 0.030342
0.260722 0.061420 0.031587
0.267812 0.063934 0.032868
0.274854 0.066490 0.034185
0.281845 0.069086 0.035537
0.288784 0.071720 0.036923
0.295670 0.074391 0.038342
0.302501 0.077096 0.039795
0.309277 0.079833 0.041281
0.315997 0.082602 0.042798
0.322660 0.085400 0.044347
0.329265 0.088226 0.045926
0.335813 0.091079 0.047534
0.342302 0.093956 0.049172
0.348733 0.096857 0.050837
0.355104 0.099780 0.052530
0.361417 0.102724 0.054250
0.367671 0.105687 0.055995
0.373865 0.108669 0.057765
0.380000 0.111667 0.059560
0.386077 0.114682 0.061378
0.000000 0.004474 0.000000
0.002975 0.004953 0.000000
0.006662 0.005406 0.000000
0.009234 0.005846 0.000000
0.011525 0.006346 0.000000
0.013732 0.006910 0.000000
0.015994 0.007525 0.000000
0.018435 0.008182 0.000000
0.021149 0.008869 0.000000
0.024196 0.009579 0.000000
0.027611 0.010306 0.000000
0.031405 0.011046 0.000319
0.035576 0.011798 0.001490
0.040111 0.012562 0.002643
0.044991 0.013343 0.003761
0.050191 0.014143 0.004833
0.055687 0.014967 0.005856
0.061453 0.015822 0.006826
0.067464 0.016712 0.007747
0.073693 0.017643 0.008622
0.080118 0.018620 0.009456
0.086716 0.019647 0.010255
0.093467 0.020729 0.011027
0.100350 0.021868 0.011778
0.107348 0.023069 0.012515
0.114445 0.024333 0.013243
0.121625 0.025661 0.013970
0.128874 0.027056 0.014699
0.136180 0.028518 0.015438
0.143531 0.030047 0.016189
0.150917 0.031643 0.016956
0.158327 0.033306 0.017745
0.165754 0.035034 0.018556
0.173189 0.036829 0.019394
0.180625 0.038687 0.020260
0.188056 0.040608 0.021156
0.195475 0.042590 0.022085
0.202878 0.044631 0.023046
0.210259 0.046731 0.024041
0.217613 0.048887 0.025071
0.224938 0.051097 0.026137
0.232229 0.053360 0.027239
0.239484 0.055673 0.028376
0.246698 0.058035 0.029550
0.253870 0.060445 0.030759
0.260998 0.062899 0.032005
0.268079 0.065396 0.033286
0.275111 0.067935 0.034602
0.282094 0.070513 0.035952
0.289024 0.073129 0.037337
0.295902 0.075781 0.038756
0.302725 0.078467 0.040207
0.309494 0.081186 0.041691
0.316207 0.083936 0.043207
0.322863 0.086715 0.044754
0.329462 0.089522 0.046331
0.336003 0.092356 0.047937
0.342486 0.095214 0.049572
0.348911 0.098097 0.051235
0.355277 0.101001 0.052925
0.361585 0.103926 0.054642
0.367833 0.106871 0.056384
0.374022 0.109834 0.058152
0.380153 0.112815 0.059943
0.386225 0.115811 0.061758
0.001698 0.008711 0.000000
0.005845 0.008995 0.000000
0.008594 0.009269 0.000000
0.010674 0.009541 0.000000
0.012670 0.009856 0.000000
0.014712 0.010221 0.000000
0.016894 0.010632 0.000000
0.019302 0.011085 0.000000
0.022007 0.011577 0.000000
0.025055 0.012104 0.000350
0.028472 0.012666 0.001315
0.032266 0.013260 0.002296
0.036433 0.013887 0.003276
0.040960 0.014547 0.004243
0.045828 0.015242 0.005187
0.051013 0.015973 0.006101
0.056491 0.016745 0.006982
0.062237 0.017560 0.007829
0.068225 0.018422 0.008643
0.074432 0.019333 0.009427
0.080834 0.020297 0.010185
0.087408 0.021317 0.010921
0.094135 0.022395 0.011641
0.100995 0.023534 0.012350
0.107970 0.024736 0.013052
0.115044 0.026001 0.013753
0.122201 0.027331 0.014458
0.129429 0.028728 0.015171
0.136714 0.030190 0.015896
0.144045 0.031719 0.016637
0.151412 0.033314 0.017397
0.158804 0.034974 0.018180
0.166213 0.036699 0.018988
0.173631 0.038488 0.019824
0.181050 0.040339 0.020688
0.188465 0.042252 0.021584
0.195869 0.044225 0.022512
0.203257 0.046256 0.023473
0.210624 0.048345 0.024469
0.217965 0.050488 0.025499
0.225277 0.052685 0.026565
0.232556 0.054933 0.027667
0.239799 0.057231 0.028805
0.247003 0.059578 0.029979
0.254164 0.061970 0.031188
0.261282 0.064407 0.032433
0.268353 0.066887 0.033714
0.275376 0.069408 0.035029
0.282349 0.071968 0.036379
0.289271 0.074565 0.037763
0.296140 0.077198 0.039180
0.302956 0.079866 0.040630
0.309717 0.082565 0.042113
0.316422 0.085296 0.043626
0.323071 0.088056 0.045171
0.329663 0.090844 0.046746
0.336198 0.093659 0.048350
0.342675 0.096498 0.049982
0.349094 0.099361 0.051643
0.355455 0.102247 0.053330
0.361756 0.105153 0.055044
0.368000 0.108079 0.056784
0.374184 0.111024 0.058548
0.380310 0.113986 0.060336
0.386376 0.116964 0.062148
0.005471 0.011932 0.000000
0.008333 0.012130 0.000000
0.010424 0.012324 0.000000
0.012147 0.012520 0.000000
0.013920 0.012752 0.000000
0.015836 0.013025 0.000000
0.017955 0.013340 0.000546
0.020339 0.013697 0.001213
0.023039 0.014095 0.001929
0.026089 0.014534 0.002683
0.029508 0.015014 0.003462
0.033302 0.015535 0.004256
0.037463 0.016099 0.005053
0.041980 0.016705 0.005847
0.046832 0.017356 0.006631
0.051998 0.018053 0.007400
0.057454 0.018798 0.008151
0.063176 0.019594 0.008884
0.069138 0.020442 0.009600
0.075318 0.021345 0.010300
0.081691 0.022304 0.010987
0.088238 0.023322 0.011664
0.094936 0.024401 0.012334
0.101768 0.025541 0.013002
0.108715 0.026745 0.013671
0.115762 0.028012 0.014346
0.122893 0.029344 0.015030
0.130095 0.030741 0.015726
0.137356 0.032203 0.016439
0.144663 0.033730 0.017170
0.152006 0.035322 0.017924
0.159376 0.036978 0.018702
0.166763 0.038697 0.019507
0.174161 0.040478 0.020340
0.181560 0.042320 0.021203
0.188956 0.044222 0.022098
0.196342 0.046183 0.023026
0.203713 0.048201 0.023987
0.211063 0.050275 0.024983
0.218389 0.052402 0.026014
0.225685 0.054582 0.027081
0.232950 0.056813 0.028183
0.240178 0.059093 0.029321
0.247368 0.061420 0.030495
0.254517 0.063793 0.031704
0.261622 0.066209 0.032949
0.268681 0.068668 0.034229
0.275693 0.071167 0.035543
0.282656 0.073706 0.036892
0.289567 0.076281 0.038275
0.296426 0.078892 0.039690
0.303233 0.081536 0.041139
0.309984 0.084214 0.042619
0.316681 0.086921 0.044131
0.323322 0.089659 0.045673
0.329906 0.092424 0.047245
0.336433 0.095215 0.048846
0.342902 0.098032 0.050476
0.349314 0.100873 0.052133
0.355668 0.103735 0.053817
0.361963 0.106619 0.055528
0.368200 0.109523 0.057263
0.374378 0.112446 0.059024
0.380498 0.115386 0.060809
0.386559 0.118343 0.062616
0.008502 0.014850 0.001074
0.010554 0.015012 0.001392
0.012215 0.015173 0.001701
0.013696 0.015338 0.002009
0.015314 0.015535 0.002368
0.017140 0.015770 0.002785
0.019216 0.016045 0.003254
0.021585 0.016361 0.003769
0.024284 0.016719 0.004324
0.027337 0.017120 0.004911
0.030758 0.017564 0.005522
0.034548 0.018054 0.006150
0.038701 0.018590 0.006789
0.043204 0.019174 0.007433
0.048037 0.019807 0.008078
0.053180 0.020490 0.008721
0.058610 0.021225 0.009359
0.064302 0.022015 0.009993
0.070233 0.022859 0.010622
0.076380 0.023761 0.011246
0.082720 0.024721 0.011869
0.089232 0.025741 0.012492
0.095897 0.026822 0.013117
0.102695 0.027964 0.013748
0.109609 0.029170 0.014387
0.116624 0.030438 0.015037
0.123724 0.031770 0.015701
0.130895 0.033166 0.016383
0.138126 0.034625 0.017084
0.145404 0.036148 0.017807
0.152720 0.037734 0.018554
0.160063 0.039382 0.019327
0.167424 0.041091 0.020129
0.174797 0.042862 0.020960
0.182173 0.044691 0.021823
0.189547 0.046580 0.022718
0.196911 0.048525 0.023645
0.204261 0.050526 0.024607
0.211591 0.052581 0.025604
0.218897 0.054689 0.026636
0.226176 0.056849 0.027703
0.233422 0.059058 0.028805
0.240634 0.061315 0.029943
0.247808 0.063619 0.031117
0.254941 0.065968 0.032326
0.262032 0.068360 0.033570
0.269077 0.070794 0.034849
0.276075 0.073267 0.036163
0.283024 0.075780 0.037510
0.289924 0.078329 0.038891
0.296771 0.080913 0.040304
0.303566 0.083531 0.041750
0.310306 0.086181 0.043228
0.316993 0.088862 0.044737
0.323623 0.091572 0.046276
0.330198 0.094310 0.047845
0.336715 0.097075 0.049443
0.343176 0.099864 0.051069
0.349579 0.102678 0.052722
0.355924 0.105514 0.054402
0.362212 0.108371 0.056109
0.368441 0.111249 0.057840
0.374612 0.114146 0.059596
0.380724 0.117060 0.061376
0.386779 0.119991 0.063179
0.011020 0.017853 0.004059
0.012611 0.018004 0.004294
0.014016 0.018154 0.004523
0.015347 0.018307 0.004752
0.016867 0.018492 0.005020
0.018638 0.018714 0.005332
0.020689 0.018975 0.005685
0.023051 0.019278 0.006076
0.025752 0.019622 0.006500
0.028809 0.020010 0.006952
0.032230 0.020444 0.007429
0.036015 0.020924 0.007926
0.040157 0.021452 0.008438
0.044642 0.022029 0.008963
0.049452 0.022658 0.009496
0.054567 0.023339 0.010037
0.059964 0.024074 0.010583
0.065622 0.024864 0.011135
0.071516 0.025710 0.011691
0.077624 0.026613 0.012253
0.083925 0.027576 0.012822
0.090398 0.028598 0.013399
0.097023 0.029680 0.013986
0.103782 0.030824 0.014585
0.110658 0.032029 0.015198
0.117635 0.033296 0.015827
0.124698 0.034625 0.016475
0.131834 0.036017 0.017143
0.139029 0.037470 0.017834
0.146274 0.038985 0.018550
0.153557 0.040562 0.019292
0.160869 0.042198 0.020062
0.168201 0.043895 0.020861
0.175545 0.045651 0.021691
0.182893 0.047464 0.022553
0.190240 0.049334 0.023448
0.197579 0.051260 0.024376
0.204904 0.053240 0.025339
0.212211 0.055273 0.026336
0.219495 0.057358 0.027368
0.226752 0.059493 0.028435
0.233978 0.061676 0.029538
0.241170 0.063907 0.030676
0.248325 0.066183 0.031850
0.255440 0.068504 0.033058
0.262513 0.070867 0.034302
0.269542 0.073271 0.035580
0.276524 0.075715 0.036892
0.283458 0.078197 0.038237
0.290343 0.080715 0.039616
0.297176 0.083269 0.041027
0.303958 0.085856 0.042470
0.310685 0.088474 0.043945
0.317359 0.091124 0.045450
0.323978 0.093803 0.046986
0.330541 0.096510 0.048551
0.337048 0.099243 0.050144
0.343498 0.102002 0.051766
0.349891 0.104784 0.053415
0.356226 0.107589 0.055090
0.362504 0.110416 0.056791
0.368724 0.113263 0.058518
0.374887 0.116130 0.060269
0.380991 0.119014 0.062043
0.387037 0.121915 0.063841
0.013279 0.021179 0.006600
0.014627 0.021326 0.006774
0.015891 0.021473 0.006944
0.017140 0.021625 0.007114
0.018607 0.021807 0.007314
0.020348 0.022026 0.007549
0.022389 0.022284 0.007817
0.024751 0.022584 0.008116
0.027456 0.022926 0.008444
0.030514 0.023312 0.008798
0.033933 0.023744 0.009176
0.037710 0.024224 0.009576
0.041836 0.024752 0.009994
0.046299 0.025331 0.010429
0.051081 0.025960 0.010878
0.056163 0.026643 0.011341
0.061524 0.027380 0.011817
0.067141 0.028171 0.012305
0.072992 0.029020 0.012805
0.079057 0.029925 0.013317
0.085313 0.030888 0.013843
0.091740 0.031910 0.014384
0.098320 0.032992 0.014940
0.105034 0.034133 0.015513
0.111866 0.035335 0.016106
0.118799 0.036597 0.016718
0.125820 0.037920 0.017353
0.132915 0.039303 0.018011
0.140071 0.040746 0.018694
0.147277 0.042250 0.019404
0.154523 0.043812 0.020142
0.161799 0.045434 0.020910
0.169097 0.047113 0.021708
0.176408 0.048850 0.022537
0.183724 0.050642 0.023399
0.191041 0.052490 0.024294
0.198350 0.054392 0.025223
0.205647 0.056347 0.026186
0.212927 0.058354 0.027184
0.220185 0.060411 0.028217
0.227417 0.062517 0.029285
0.234620 0.064671 0.030388
0.241789 0.066871 0.031526
0.248923 0.069115 0.032699
0.256017 0.071404 0.033906
0.263070 0.073734 0.035149
0.270080 0.076104 0.036425
0.277044 0.078514 0.037735
0.283960 0.080961 0.039078
0.290828 0.083445 0.040454
0.297645 0.085963 0.041862
0.304411 0.088515 0.043302
0.311124 0.091098 0.044773
0.317783 0.093712 0.046274
0.324388 0.096356 0.047806
0.330938 0.099027 0.049366
0.337432 0.101725 0.050955
0.343870 0.104448 0.052571
0.350251 0.107196 0.054215
0.356576 0.109966 0.055885
0.362843 0.112758 0.057580
0.369053 0.115571 0.059301
0.375205 0.118403 0.061046
0.381300 0.121253 0.062814
0.387337 0.124121 0.064605
0.015482 0.024949 0.008761
0.016712 0.025097 0.008893
0.017908 0.025244 0.009022
0.019118 0.025396 0.009153
0.020560 0.025578 0.009307
0.022291 0.025798 0.009490
0.024330 0.026057 0.009699
0.026696 0.026357 0.009935
0.029404 0.026700 0.010197
0.032462 0.027087 0.010484
0.035875 0.027521 0.010793
0.039639 0.028002 0.011124
0.043745 0.028531 0.011476
0.048181 0.029111 0.011847
0.052930 0.029742 0.012236
0.057973 0.030426 0.012643
0.063291 0.031164 0.013068
0.068863 0.031956 0.013509
0.074666 0.032803 0.013967
0.080681 0.033707 0.014444
0.086886 0.034668 0.014938
0.093262 0.035687 0.015451
0.099791 0.036763 0.015984
0.106455 0.037899 0.016539
0.113236 0.039092 0.017115
0.120121 0.040345 0.017715
0.127094 0.041657 0.018340
0.134143 0.043027 0.018991
0.141254 0.044456 0.019669
0.148417 0.045942 0.020375
0.155621 0.047487 0.021111
0.162857 0.049088 0.021877
0.170115 0.050746 0.022674
0.177388 0.052459 0.023504
0.184669 0.054226 0.024366
0.191951 0.056048 0.025262
0.199227 0.057922 0.026192
0.206493 0.059847 0.027156
0.213742 0.061823 0.028154
0.220971 0.063848 0.029187
0.228175 0.065921 0.030255
0.235351 0.068041 0.031358
0.242494 0.070206 0.032496
0.249603 0.072415 0.033668
0.256674 0.074667 0.034874
0.263704 0.076960 0.036115
0.270692 0.079292 0.037389
0.277635 0.081664 0.038697
0.284532 0.084073 0.040037
0.291380 0.086517 0.041410
0.298179 0.088996 0.042814
0.304927 0.091509 0.044250
0.311623 0.094053 0.045717
0.318266 0.096627 0.047213
0.324856 0.099231 0.048739
0.331391 0.101863 0.050294
0.337870 0.104521 0.051877
0.344294 0.107205 0.053488
0.350662 0.109914 0.055125
0.356974 0.112645 0.056789
0.363229 0.115398 0.058478
0.369427 0.118173 0.060192
0.375568 0.120967 0.061930
0.381652 0.123779 0.063691
0.387678 0.126610 0.065475
0.017775 0.029218 0.010649
0.018954 0.029366 0.010754
0.020123 0.029514 0.010857
0.021317 0.029666 0.010963
0.022753 0.029849 0.011087
0.024483 0.030069 0.011236
0.026525 0.030328 0.011408
0.028895 0.030629 0.011603
0.031604 0.030972 0.011822
0.034659 0.031360 0.012063
0.038061 0.031794 0.012327
0.041807 0.032275 0.012613
0.045887 0.032804 0.012920
0.050291 0.033383 0.013247
0.055001 0.034013 0.013596
0.060000 0.034695 0.013964
0.065270 0.035430 0.014353
0.070790 0.036219 0.014762
0.076539 0.037062 0.015192
0.082498 0.037960 0.015643
0.088647 0.038914 0.016115
0.094966 0.039925 0.016609
0.101439 0.040992 0.017126
0.108046 0.042116 0.017667
0.114772 0.043297 0.018233
0.121603 0.044536 0.018825
0.128523 0.045831 0.019443
0.135520 0.047184 0.020089
0.142581 0.048593 0.020764
0.149696 0.050058 0.021468
0.156853 0.051580 0.022202
0.164044 0.053156 0.022968
0.171259 0.054788 0.023766
0.178490 0.056473 0.024596
0.185731 0.058211 0.025459
0.192974 0.060001 0.026356
0.200213 0.061843 0.027286
0.207443 0.063735 0.028251
0.214658 0.065676 0.029250
0.221854 0.067665 0.030283
0.229027 0.069701 0.031351
0.236173 0.071782 0.032453
0.243288 0.073908 0.033590
0.250369 0.076078 0.034761
0.257413 0.078289 0.035966
0.264418 0.080541 0.037204
0.271381 0.082832 0.038476
0.278301 0.085162 0.039780
0.285175 0.087528 0.041117
0.292002 0.089930 0.042486
0.298780 0.092366 0.043886
0.305508 0.094835 0.045317
0.312186 0.097335 0.046779
0.318811 0.099867 0.048270
0.325382 0.102427 0.049790
0.331900 0.105016 0.051339
0.338364 0.107631 0.052915
0.344773 0.110272 0.054519
0.351126 0.112937 0.056150
0.357423 0.115626 0.057806
0.363664 0.118337 0.059488
0.369849 0.121069 0.061194
0.375977 0.123821 0.062924
0.382048 0.126593 0.064677
0.388063 0.129382 0.066453
0.020252 0.033995 0.012373
0.021415 0.034143 0.012461
0.022576 0.034290 0.012549
0.023769 0.034441 0.012638
0.025205 0.034624 0.012744
0.026939 0.034843 0.012872
0.028985 0.035102 0.013020
0.031356 0.035401 0.013190
0.034062 0.035743 0.013381
0.037108 0.036129 0.013594
0.040494 0.036561 0.013829
0.044216 0.037039 0.014086
0.048265 0.037565 0.014364
0.052630 0.038140 0.014664
0.057296 0.038765 0.014986
0.062246 0.039442 0.015330
0.067462 0.040170 0.015695
0.072924 0.040951 0.016084
0.078614 0.041785 0.016494
0.084511 0.042673 0.016928
0.090598 0.043616 0.017386
0.096855 0.044613 0.017868
0.103264 0.045666 0.018375
0.109810 0.046774 0.018908
0.116476 0.047938 0.019467
0.123247 0.049157 0.020054
0.130109 0.050432 0.020669
0.137049 0.051762 0.021312
0.144055 0.053147 0.021985
0.151116 0.054587 0.022689
0.158222 0.056081 0.023423
0.165363 0.057628 0.024189
0.172530 0.059229 0.024987
0.179715 0.060882 0.025818
0.186911 0.062586 0.026682
0.194112 0.064341 0.027580
0.201310 0.066147 0.028511
0.208500 0.068001 0.029476
0.215678 0.069903 0.030475
0.222838 0.071852 0.031509
0.229976 0.073847 0.032576
0.237088 0.075887 0.033677
0.244171 0.077970 0.034813
0.251221 0.080096 0.035982
0.258236 0.082263 0.037184
0.265213 0.084470 0.038420
0.272149 0.086716 0.039688
0.279043 0.089000 0.040989
0.285892 0.091320 0.042321
0.292695 0.093676 0.043685
0.299451 0.096065 0.045080
0.306157 0.098488 0.046506
0.312813 0.100941 0.047962
0.319417 0.103426 0.049446
0.325970 0.105939 0.050960
0.332469 0.108481 0.052502
0.338915 0.111050 0.054071
0.345306 0.113644 0.055667
0.351642 0.116263 0.057290
0.357924 0.118905 0.058938
0.364149 0.121571 0.060611
0.370319 0.124257 0.062309
0.376433 0.126964 0.064030
0.382491 0.129690 0.065774
0.388492 0.132435 0.067541
0.022972 0.039263 0.014025
0.024134 0.039409 0.014103
0.025296 0.039555 0.014181
0.026491 0.039705 0.014261
0.027931 0.039886 0.014357
0.029668 0.040103 0.014471
0.031714 0.040359 0.014605
0.034083 0.040656 0.014760
0.036781 0.040994 0.014934
0.039812 0.041376 0.015131
0.043175 0.041802 0.015348
0.046867 0.042274 0.015587
0.050879 0.042794 0.015848
0.055200 0.043362 0.016131
0.059815 0.043978 0.016437
0.064710 0.044645 0.016766
0.069866 0.045363 0.017117
0.075265 0.046132 0.017493
0.080890 0.046953 0.017892
0.086720 0.047826 0.018316
0.092739 0.048753 0.018766
0.098928 0.049734 0.019241
0.105269 0.050767 0.019742
0.111748 0.051855 0.020270
0.118347 0.052997 0.020826
0.125053 0.054193 0.021410
0.131852 0.055442 0.022023
0.138730 0.056745 0.022666
0.145676 0.058102 0.023339
0.152679 0.059512 0.024043
0.159729 0.060974 0.024778
0.166815 0.062488 0.025545
0.173930 0.064054 0.026344
0.181065 0.065671 0.027176
0.188212 0.067338 0.028041
0.195366 0.069055 0.028939
0.202519 0.070820 0.029870
0.209667 0.072633 0.030836
0.216803 0.074492 0.031835
0.223923 0.076398 0.032867
0.231023 0.078349 0.033933
0.238099 0.080343 0.035033
0.245146 0.082380 0.036166
0.252163 0.084459 0.037333
0.259145 0.086579 0.038532
0.266091 0.088738 0.039764
0.272998 0.090936 0.041028
0.279863 0.093171 0.042324
0.286685 0.095442 0.043652
0.293461 0.097747 0.045011
0.300192 0.100087 0.046400
0.306874 0.102459 0.047819
0.313506 0.104863 0.049268
0.320088 0.107297 0.050746
0.326619 0.109761 0.052252
0.333098 0.112252 0.053786
0.339524 0.114771 0.055347
0.345896 0.117315 0.056934
0.352214 0.119885 0.058548
0.358478 0.122478 0.060187
0.364686 0.125094 0.061851
0.370840 0.127732 0.063539
0.376938 0.130390 0.065250
0.382981 0.133069 0.066984
0.388968 0.135766 0.068741
0.025969 0.044992 0.015677
0.027133 0.045136 0.015750
0.028298 0.045279 0.015823
0.029496 0.045427 0.015897
0.030937 0.045604 0.015987
0.032673 0.045818 0.016094
0.034716 0.046070 0.016220
0.037076 0.046361 0.016366
0.039759 0.046694 0.016532
0.042769 0.047069 0.016718
0.046104 0.047488 0.016925
0.049759 0.047952 0.017155
0.053728 0.048462 0.017406
0.057998 0.049019 0.017680
0.062557 0.049624 0.017976
0.067391 0.050278 0.018296
0.072481 0.050981 0.018641
0.077812 0.051735 0.019009
0.083366 0.052539 0.019403
0.089124 0.053394 0.019822
0.095069 0.054301 0.020266
0.101185 0.055261 0.020738
0.107453 0.056272 0.021237
0.113859 0.057335 0.021763
0.120387 0.058451 0.022318
0.127023 0.059619 0.022901
0.133753 0.060840 0.023514
0.140565 0.062112 0.024157
0.147446 0.063437 0.024831
0.154386 0.064813 0.025535
0.161375 0.066240 0.026271
0.168402 0.067718 0.027039
0.175460 0.069245 0.027839
0.182540 0.070823 0.028672
0.189635 0.072449 0.029537
0.196738 0.074124 0.030436
0.203843 0.075846 0.031367
0.210943 0.077614 0.032332
0.218034 0.079428 0.033330
0.225111 0.081288 0.034361
0.232170 0.083191 0.035426
0.239205 0.085137 0.036523
0.246215 0.087125 0.037654
0.253195 0.089155 0.038817
0.260142 0.091224 0.040012
0.267054 0.093332 0.041240
0.273928 0.095478 0.042499
0.280762 0.097661 0.043790
0.287554 0.099880 0.045112
0.294302 0.102133 0.046464
0.301004 0.104420 0.047846
0.307660 0.106740 0.049258
0.314267 0.109091 0.050699
0.320825 0.111472 0.052169
0.327332 0.113882 0.053666
0.333788 0.116321 0.055191
0.340192 0.118787 0.056743
0.346544 0.121279 0.058322
0.352842 0.123796 0.059926
0.359086 0.126337 0.061555
0.365276 0.128901 0.063208
0.371412 0.131487 0.064885
0.377493 0.134094 0.066586
0.383519 0.136721 0.068309
0.389490 0.139368 0.070055
0.029256 0.051143 0.017387
0.030422 0.051284 0.017456
0.031588 0.051424 0.017526
0.032785 0.051569 0.017598
0.034223 0.051742 0.017684
0.035954 0.051951 0.017788
0.037987 0.052197 0.017910
0.040332 0.052482 0.018051
0.042994 0.052807 0.018212
0.045976 0.053174 0.018393
0.049275 0.053583 0.018595
0.052888 0.054036 0.018819
0.056807 0.054534 0.019066
0.061022 0.055078 0.019335
0.065519 0.055669 0.019627
0.070286 0.056307 0.019943
0.075306 0.056993 0.020284
0.080563 0.057728 0.020649
0.086040 0.058513 0.021040
0.091721 0.059347 0.021457
0.097588 0.060231 0.021900
0.103625 0.061166 0.022370
0.109815 0.062151 0.022868
0.116143 0.063187 0.023395
0.122595 0.064274 0.023949
0.129156 0.065412 0.024533
0.135812 0.066600 0.025147
0.142553 0.067839 0.025791
0.149364 0.069128 0.026466
0.156237 0.070467 0.027171
0.163160 0.071856 0.027908
0.170125 0.073295 0.028677
0.177121 0.074782 0.029477
0.184143 0.076317 0.030310
0.191181 0.077899 0.031176
0.198229 0.079529 0.032074
0.205281 0.081205 0.033005
0.212331 0.082927 0.033968
0.219373 0.084693 0.034964
