agx_acescct_to_rec709.cube
# Created by DaVinci Flow AgX Pipeline Generator
# Mode: AgX EXR (ACEScct Log to Rec709)
LUT_3D_SIZE 9
0.000000 0.000000 0.000000
0.011806 0.000000 0.000000
0.042265 0.000000 0.000000
0.146155 0.000000 0.000000
0.353615 0.000112 0.000000
0.621817 0.052832 0.036110
0.852313 0.189414 0.148438
0.968245 0.424051 0.363750
0.998580 0.693719 0.633984
0.000000 0.009476 0.000000
0.014212 0.009960 0.000000
0.044173 0.010725 0.000000
0.147302 0.013616 0.000000
0.354019 0.023879 0.000000
0.621911 0.067527 0.038105
0.852326 0.196848 0.149605
0.968246 0.426372 0.364146
0.998580 0.694202 0.634074
0.000000 0.038242 0.000000
0.017740 0.038521 0.000000
0.047392 0.038995 0.000000
0.149238 0.041150 0.000000
0.354705 0.050813 0.006203
0.622072 0.090367 0.041481
0.852350 0.208888 0.151576
0.968248 0.430259 0.364818
0.998580 0.695019 0.634227
0.015212 0.136597 0.015879
0.032874 0.136772 0.016089
0.061600 0.137068 0.016444
0.157833 0.138414 0.018028
0.357808 0.144441 0.025057
0.622803 0.169776 0.056438
0.852457 0.256103 0.160324
0.968256 0.447070 0.367858
0.998580 0.698688 0.634926
0.080434 0.338680 0.082688
0.094502 0.338743 0.082851
0.116305 0.338850 0.083128
0.192842 0.339337 0.084387
0.371384 0.341548 0.090033
0.626098 0.351336 0.113877
0.852944 0.390764 0.195890
0.968295 0.509186 0.381169
0.998580 0.714295 0.638072
0.246001 0.605861 0.250332
0.252136 0.605876 0.250401
0.262164 0.605902 0.250518
0.302469 0.606018 0.251052
0.423707 0.606550 0.253472
0.640321 0.608954 0.264155
0.855128 0.619497 0.306770
0.968470 0.660315 0.432597
0.998580 0.768343 0.651676
0.499014 0.841522 0.504451
0.500730 0.841524 0.504470
0.503615 0.841528 0.504502
0.516235 0.841546 0.504649
0.564724 0.841626 0.505318
0.692311 0.841992 0.508340
0.864379 0.843642 0.521531
0.969253 0.850780 0.571820
0.998580 0.876927 0.701634
0.760357 0.964332 0.764882
0.760673 0.964332 0.764886
0.761208 0.964333 0.764891
0.763620 0.964334 0.764918
0.774030 0.964341 0.765040
0.811924 0.964370 0.765594
0.895735 0.964504 0.768088
0.972560 0.965107 0.778826
0.998580 0.967694 0.817531
0.930914 0.998580 0.933008
0.930946 0.998580 0.933008
0.931001 0.998580 0.933009
0.931251 0.998580 0.933012
0.932369 0.998580 0.933024
0.937101 0.998580 0.933080
0.953067 0.998580 0.933334
0.984114 0.998580 0.934473
0.998580 0.998580 0.939278
0.000000 0.000000 0.012761
0.013081 0.000000 0.013008
0.043234 0.000000 0.013417
0.146738 0.000000 0.015167
0.353820 0.011133 0.022326
0.621865 0.056741 0.053870
0.852320 0.191372 0.158815
0.968245 0.424656 0.367327
0.998580 0.693845 0.634803
0.000000 0.015001 0.015092
0.015307 0.015307 0.015307
0.045136 0.015821 0.015670
0.147881 0.018080 0.017281
0.354224 0.028038 0.024327
0.621959 0.071184 0.055754
0.852333 0.198733 0.159922
0.968246 0.426970 0.367716
0.998580 0.694327 0.634893
0.000000 0.042351 0.018643
0.018742 0.042627 0.018843
0.048345 0.043096 0.019183
0.149811 0.045227 0.020725
0.354910 0.054753 0.027739
0.622120 0.093630 0.058927
0.852357 0.210662 0.161791
0.968248 0.430845 0.368377
0.998580 0.695143 0.635045
0.016266 0.139164 0.034224
0.033861 0.139336 0.034422
0.062498 0.139628 0.034759
0.158381 0.140957 0.036294
0.358009 0.146906 0.043238
0.622851 0.171940 0.072844
0.852464 0.257504 0.170098
0.968257 0.447608 0.371363
0.998580 0.698809 0.635740
0.081254 0.339610 0.097157
0.095265 0.339672 0.097308
0.116986 0.339779 0.097565
0.193301 0.340264 0.098734
0.371572 0.342465 0.103980
0.626144 0.352210 0.126240
0.852951 0.391480 0.204072
0.968295 0.509573 0.384449
0.998580 0.714403 0.638871
0.246352 0.606084 0.256584
0.252476 0.606099 0.256651
0.262488 0.606124 0.256765
0.302734 0.606241 0.257282
0.423852 0.606772 0.259628
0.640363 0.609173 0.269996
0.855135 0.619702 0.311509
0.968470 0.660472 0.435126
0.998580 0.768413 0.652407
0.499111 0.841556 0.506187
0.500826 0.841558 0.506206
0.503709 0.841562 0.506238
0.516323 0.841579 0.506383
0.564791 0.841660 0.507046
0.692341 0.842025 0.510040
0.864385 0.843675 0.523113
0.969254 0.850810 0.573013
0.998580 0.876948 0.702153
0.760375 0.964335 0.765198
0.760690 0.964335 0.765202
0.761225 0.964335 0.765208
0.763637 0.964337 0.765234
0.774046 0.964343 0.765356
0.811935 0.964373 0.765908
0.895738 0.964507 0.768396
0.972560 0.965109 0.779106
0.998580 0.967696 0.817723
0.930916 0.998580 0.933040
0.930948 0.998580 0.933040
0.931003 0.998580 0.933041
0.931252 0.998580 0.933044
0.932371 0.998580 0.933056
0.937103 0.998580 0.933112
0.953068 0.998580 0.933366
0.984114 0.998580 0.934504
0.998580 0.998580 0.939305
0.000000 0.000000 0.044198
0.015018 0.000000 0.044391
0.044877 0.000000 0.044720
0.147725 0.005238 0.046218
0.354169 0.019102 0.052952
0.621946 0.063243 0.081371
0.852332 0.194659 0.175290
0.968246 0.425682 0.373272
0.998580 0.694058 0.636188
0.000000 0.022232 0.046151
0.017079 0.022512 0.046343
0.046768 0.022989 0.046670
0.148862 0.025166 0.048158
0.354572 0.035123 0.054843
0.622041 0.077262 0.083026
0.852345 0.201901 0.176306
0.968247 0.427984 0.373650
0.998580 0.694539 0.636277
0.000000 0.049232 0.049446
0.020428 0.049501 0.049636
0.049959 0.049959 0.049959
0.150783 0.052040 0.051429
0.355256 0.061313 0.058028
0.622201 0.099058 0.085809
0.852369 0.213645 0.178025
0.968249 0.431839 0.374291
0.998580 0.695354 0.636428
0.017999 0.143454 0.063951
0.035539 0.143623 0.064130
0.064019 0.143909 0.064434
0.159311 0.145208 0.065815
0.358351 0.151029 0.072002
0.622932 0.175567 0.098027
0.852476 0.259866 0.185681
0.968258 0.448520 0.377191
0.998580 0.699015 0.637116
0.082642 0.341183 0.119521
0.096556 0.341245 0.119656
0.118139 0.341351 0.119884
0.194078 0.341832 0.120925
0.371891 0.344016 0.125602
0.626224 0.353687 0.145600
0.852963 0.392694 0.217261
0.968296 0.510229 0.389910
0.998580 0.714587 0.640220
0.246947 0.606462 0.266796
0.253054 0.606477 0.266859
0.263037 0.606502 0.266967
0.303183 0.606619 0.267459
0.424096 0.607148 0.269689
0.640436 0.609544 0.279563
0.855146 0.620050 0.319326
0.968471 0.660740 0.439358
0.998580 0.768532 0.653644
0.499276 0.841613 0.509104
0.500990 0.841615 0.509123
0.503871 0.841619 0.509154
0.516473 0.841636 0.509298
0.564906 0.841717 0.509950
0.692392 0.842082 0.512897
0.864396 0.843730 0.525775
0.969255 0.850861 0.575023
0.998580 0.876984 0.703033
0.760405 0.964340 0.765735
0.760721 0.964340 0.765738
0.761256 0.964340 0.765744
0.763666 0.964341 0.765771
0.774073 0.964348 0.765891
0.811954 0.964377 0.766441
0.895745 0.964511 0.768918
0.972561 0.965114 0.779580
0.998580 0.967700 0.818050
0.930919 0.998580 0.933094
0.930951 0.998580 0.933095
0.931006 0.998580 0.933095
0.931256 0.998580 0.933098
0.932374 0.998580 0.933110
0.937106 0.998580 0.933166
0.953070 0.998580 0.933419
0.984115 0.998580 0.934556
0.998580 0.998580 0.939350
0.000000 0.038502 0.150617
0.022832 0.038780 0.150732
0.052256 0.039254 0.150926
0.152167 0.041408 0.151811
0.355753 0.051062 0.155799
0.622318 0.090574 0.173022
0.852386 0.209000 0.236696
0.968250 0.430296 0.398346
0.998580 0.695027 0.642355
0.000000 0.054029 0.151772
0.024775 0.054294 0.151885
0.054097 0.054743 0.152079
0.153279 0.056784 0.152959
0.356153 0.065868 0.156923
0.622412 0.102832 0.174051
0.852400 0.215743 0.237441
0.968252 0.432544 0.398679
0.998580 0.695505 0.642441
0.008679 0.078334 0.153721
0.028087 0.078570 0.153833
0.057198 0.078971 0.154025
0.155156 0.080791 0.154896
0.356832 0.088888 0.158822
0.622572 0.122042 0.175789
0.852423 0.226716 0.238704
0.968253 0.436311 0.399244
0.998580 0.696314 0.642586
0.025673 0.161903 0.162374
0.043127 0.162056 0.162481
0.070822 0.162316 0.162664
0.163497 0.163497 0.163497
0.359902 0.168800 0.167254
0.623301 0.191315 0.183531
0.852530 0.270305 0.244365
0.968262 0.452625 0.401803
0.998580 0.699950 0.643248
0.088852 0.348208 0.197600
0.102340 0.348268 0.197690
0.123313 0.348370 0.197843
0.197587 0.348835 0.198539
0.373341 0.350944 0.201684
0.626586 0.360294 0.215432
0.853016 0.398141 0.268341
0.968300 0.513196 0.413075
0.998580 0.715421 0.646233
0.249641 0.608177 0.307754
0.255667 0.608192 0.307805
0.265525 0.608217 0.307893
0.305223 0.608332 0.308295
0.425210 0.608856 0.310117
0.640767 0.611227 0.318229
0.855199 0.621629 0.351578
0.968475 0.661957 0.457568
0.998580 0.769074 0.659162
0.500027 0.841873 0.521857
0.501734 0.841876 0.521875
0.504604 0.841879 0.521904
0.517158 0.841897 0.522038
0.565428 0.841977 0.522646
0.692625 0.842341 0.525397
0.864442 0.843984 0.537444
0.969259 0.851094 0.583910
0.998580 0.877148 0.706976
0.760543 0.964361 0.768151
0.760858 0.964361 0.768155
0.761393 0.964361 0.768160
0.763801 0.964362 0.768186
0.774195 0.964369 0.768305
0.812039 0.964398 0.768843
0.895774 0.964532 0.771269
0.972565 0.965134 0.781721
0.998580 0.967719 0.819526
0.930933 0.998580 0.933341
0.930965 0.998580 0.933341
0.931020 0.998580 0.933342
0.931270 0.998580 0.933344
0.932387 0.998580 0.933356
0.937118 0.998580 0.933412
0.953077 0.998580 0.933664
0.984117 0.998580 0.934794
0.998580 0.998580 0.939559
0.040257 0.150530 0.360464
0.057101 0.150692 0.360504
0.083191 0.150968 0.360571
0.171234 0.152221 0.360880
0.362826 0.157836 0.362284
0.624003 0.181579 0.368566
0.852633 0.263816 0.394956
0.968270 0.450058 0.483915
0.998580 0.699364 0.667728
0.042176 0.159569 0.360867
0.058905 0.159724 0.360906
0.084782 0.159987 0.360974
0.172242 0.161183 0.361282
0.363212 0.166548 0.362683
0.624096 0.189310 0.368953
0.852647 0.268959 0.395294
0.968271 0.452089 0.484128
0.998580 0.699827 0.667800
0.045416 0.174044 0.361550
0.061942 0.174188 0.361590
0.087459 0.174432 0.361657
0.173945 0.175542 0.361964
0.363868 0.180530 0.363360
0.624254 0.201805 0.369610
0.852671 0.277421 0.395869
0.968273 0.455496 0.484492
0.998580 0.700612 0.667923
0.059734 0.229176 0.364640
0.075274 0.229285 0.364679
0.099229 0.229470 0.364745
0.181532 0.230310 0.365048
0.366832 0.234101 0.366422
0.624976 0.250537 0.372578
0.852777 0.312067 0.398472
0.968281 0.470318 0.486141
0.998580 0.704139 0.668483
0.114893 0.377461 0.378160
0.126715 0.377513 0.378197
0.145294 0.377601 0.378259
0.212852 0.378003 0.378541
0.379826 0.379826 0.379826
0.628226 0.387940 0.385586
0.853262 0.421243 0.409931
0.968320 0.526155 0.493485
0.998580 0.719165 0.671014
0.261495 0.615783 0.430284
0.267180 0.615797 0.430312
0.276500 0.615821 0.430359
0.314276 0.615931 0.430576
0.430214 0.616431 0.431564
0.642267 0.618695 0.436005
0.855437 0.628640 0.455072
0.968495 0.667388 0.523735
0.998580 0.771514 0.682038
0.503419 0.843052 0.570736
0.505095 0.843054 0.570749
0.507913 0.843058 0.570772
0.520251 0.843075 0.570873
0.567791 0.843154 0.571335
0.693685 0.843514 0.573429
0.864654 0.845134 0.582669
0.969278 0.852149 0.619375
0.998580 0.877891 0.723638
0.761171 0.964456 0.778572
0.761485 0.964456 0.778575
0.762016 0.964456 0.778581
0.764412 0.964458 0.778604
0.774754 0.964464 0.778712
0.812429 0.964494 0.779204
0.895906 0.964627 0.781418
0.972581 0.965227 0.790990
0.998580 0.967803 0.825983
0.930998 0.998580 0.934446
0.931030 0.998580 0.934446
0.931085 0.998580 0.934447
0.931333 0.998580 0.934449
0.932450 0.998580 0.934461
0.937172 0.998580 0.934515
0.953111 0.998580 0.934760
0.984128 0.998580 0.935858
0.998580 0.998580 0.940497
0.158451 0.365534 0.629010
0.167933 0.365589 0.629019
0.183077 0.365683 0.629035
0.240372 0.366109 0.629106
0.392251 0.368044 0.629432
0.631473 0.376643 0.630909
0.853753 0.411743 0.637478
0.968359 0.520753 0.664356
0.998580 0.717585 0.746949
0.159527 0.368649 0.629103
0.168958 0.368703 0.629112
0.184025 0.368795 0.629128
0.241082 0.369215 0.629199
0.392584 0.371121 0.629525
0.631562 0.379590 0.631001
0.853767 0.414214 0.637566
0.968360 0.522148 0.664430
0.998580 0.717990 0.746990
0.161345 0.373841 0.629261
0.170689 0.373893 0.629271
0.185629 0.373983 0.629286
0.242285 0.374392 0.629358
0.393149 0.376249 0.629683
0.631713 0.384508 0.631157
0.853790 0.418348 0.637716
0.968362 0.524498 0.664556
0.998580 0.718677 0.747059
0.169429 0.395948 0.629982
0.178402 0.395995 0.629991
0.192784 0.396075 0.630006
0.247685 0.396441 0.630077
0.395710 0.398103 0.630401
0.632401 0.405515 0.631869
0.853895 0.436175 0.638399
0.968370 0.534849 0.665129
0.998580 0.721768 0.747372
0.202582 0.473655 0.633228
0.210186 0.473686 0.633237
0.222491 0.473740 0.633252
0.270629 0.473986 0.633322
0.406992 0.475101 0.633639
0.635505 0.480109 0.635077
0.854373 0.501403 0.641478
0.968409 0.575661 0.667717
0.998580 0.735010 0.748791
0.308153 0.646532 0.647243
0.312674 0.646544 0.647251
0.320142 0.646564 0.647265
0.351082 0.646654 0.647329
0.451536 0.647067 0.647619
0.648934 0.648934 0.648934
0.856518 0.657177 0.654797
0.968583 0.689902 0.678983
0.998580 0.782026 0.755064
0.518150 0.848229 0.698497
0.519697 0.848231 0.698503
0.522301 0.848235 0.698513
0.533730 0.848251 0.698558
0.578182 0.848325 0.698762
0.698420 0.848663 0.699691
0.865612 0.850186 0.703854
0.969363 0.856791 0.721383
0.998580 0.881180 0.780082
0.763996 0.964887 0.816375
0.764302 0.964887 0.816377
0.764821 0.964887 0.816381
0.767160 0.964889 0.816397
0.777266 0.964895 0.816472
0.814189 0.964924 0.816814
0.896504 0.965055 0.818356
0.972657 0.965646 0.825088
0.998580 0.968183 0.850641
0.931290 0.998580 0.939116
0.931322 0.998580 0.939116
0.931376 0.998580 0.939117
0.931623 0.998580 0.939119
0.932731 0.998580 0.939130
0.937422 0.998580 0.939177
0.953266 0.998580 0.939394
0.984181 0.998580 0.940364
0.998580 0.998580 0.944483
0.378759 0.635506 0.857061
0.381947 0.635518 0.857062
0.387258 0.635539 0.857064
0.409833 0.635637 0.857075
0.488689 0.636079 0.857121
0.661649 0.638082 0.857335
0.858670 0.646910 0.858302
0.968761 0.681728 0.862565
0.998580 0.778135 0.879367
0.379115 0.636218 0.857074
0.382298 0.636230 0.857075
0.387600 0.636252 0.857078
0.410138 0.636348 0.857088
0.488892 0.636789 0.857135
0.661722 0.638783 0.857348
0.858682 0.647572 0.858315
0.968762 0.682253 0.862578
0.998580 0.778382 0.879377
0.379721 0.637423 0.857097
0.382894 0.637435 0.857098
0.388180 0.637456 0.857101
0.410655 0.637552 0.857111
0.489235 0.637989 0.857158
0.661847 0.639968 0.857371
0.858704 0.648693 0.858337
0.968764 0.683141 0.862599
0.998580 0.778802 0.879394
0.382460 0.642805 0.857201
0.385590 0.642817 0.857202
0.390806 0.642838 0.857204
0.413000 0.642930 0.857215
0.490796 0.643353 0.857261
0.662413 0.645265 0.857475
0.858803 0.653703 0.858440
0.968772 0.687127 0.862695
0.998580 0.780695 0.879470
0.394500 0.665227 0.857673
0.397447 0.665237 0.857674
0.402363 0.665255 0.857677
0.423356 0.665335 0.857687
0.497755 0.665699 0.857733
0.664971 0.667352 0.857945
0.859252 0.674666 0.858905
0.968810 0.704013 0.863135
0.998580 0.788945 0.879817
0.441660 0.737958 0.859792
0.443979 0.737964 0.859794
0.447863 0.737975 0.859796
0.464651 0.738022 0.859806
0.526553 0.738237 0.859851
0.676114 0.739214 0.860057
0.861268 0.743581 0.860990
0.968982 0.761739 0.865108
0.998580 0.819993 0.881378
0.573305 0.868322 0.868770
0.574440 0.868324 0.868771
0.576355 0.868326 0.868773
0.584830 0.868339 0.868781
0.618844 0.868396 0.868822
0.718174 0.868656 0.869004
0.869832 0.869832 0.869832
0.969751 0.874961 0.873490
0.998580 0.894361 0.888060
0.776075 0.966769 0.899201
0.776350 0.966769 0.899202
0.776818 0.966769 0.899203
0.778925 0.966771 0.899208
0.788060 0.966776 0.899233
0.821834 0.966803 0.899347
0.899157 0.966925 0.899863
0.972999 0.967475 0.902161
0.998580 0.969848 0.911559
0.932597 0.998580 0.954820
0.932628 0.998580 0.954820
0.932681 0.998580 0.954820
0.932920 0.998580 0.954822
0.933993 0.998580 0.954828
0.938539 0.998580 0.954858
0.953961 0.998580 0.954991
0.984418 0.998580 0.955592
0.998580 0.998580 0.958187
0.649326 0.861460 0.969947
0.650039 0.861461 0.969947
0.651245 0.861464 0.969947
0.656630 0.861478 0.969948
0.679009 0.861541 0.969952
0.751047 0.861826 0.969969
0.877721 0.863115 0.970045
0.970522 0.868728 0.970391
0.998580 0.889784 0.971913
0.649406 0.861560 0.969948
0.650118 0.861562 0.969948
0.651323 0.861565 0.969948
0.656705 0.861579 0.969949
0.679074 0.861642 0.969953
0.751085 0.861927 0.969970
0.877731 0.863214 0.970046
0.970523 0.868820 0.970392
0.998580 0.889851 0.971914
0.649541 0.861732 0.969950
0.650253 0.861734 0.969950
0.651457 0.861737 0.969950
0.656834 0.861750 0.969951
0.679185 0.861813 0.969955
0.751150 0.862097 0.969971
0.877748 0.863382 0.970048
0.970525 0.868975 0.970394
0.998580 0.889965 0.971916
0.650155 0.862510 0.969958
0.650864 0.862511 0.969958
0.652063 0.862514 0.969958
0.657419 0.862528 0.969959
0.679688 0.862590 0.969963
0.751444 0.862871 0.969980
0.877824 0.864142 0.970056
0.970533 0.869680 0.970402
0.998580 0.890480 0.971924
0.652926 0.865958 0.969995
0.653623 0.865960 0.969995
0.654801 0.865963 0.969995
0.660063 0.865976 0.969996
0.681965 0.866035 0.970000
0.752776 0.866304 0.970017
0.878169 0.867518 0.970093
0.970568 0.872811 0.970438
0.998580 0.892776 0.971958
0.664968 0.879879 0.970164
0.665611 0.879880 0.970164
0.666700 0.879882 0.970164
0.671566 0.879893 0.970165
0.691920 0.879941 0.970169
0.758675 0.880162 0.970185
0.879721 0.881158 0.970261
0.970728 0.885521 0.970604
0.998580 0.902248 0.972115
0.709987 0.920035 0.970922
0.710457 0.920036 0.970922
0.711251 0.920037 0.970922
0.714820 0.920042 0.970923
0.729985 0.920065 0.970926
0.782345 0.920173 0.970942
0.886375 0.920660 0.971016
0.971448 0.922817 0.971349
0.998580 0.931494 0.972819
0.818605 0.973967 0.974127
0.818788 0.973967 0.974127
0.819098 0.973967 0.974127
0.820501 0.973968 0.974128
0.826645 0.973973 0.974131
0.850285 0.973993 0.974145
0.909872 0.974086 0.974211
0.974507 0.974507 0.974507
0.998580 0.976348 0.975819
0.938060 0.998580 0.985501
0.938087 0.998580 0.985501
0.938133 0.998580 0.985502
0.938340 0.998580 0.985502
0.939271 0.998580 0.985504
0.943236 0.998580 0.985514
0.956939 0.998580 0.985561
0.985483 0.998580 0.985771
0.998580 0.998580 0.986721
0.870281 0.971532 0.998580
0.870379 0.971532 0.998580
0.870545 0.971532 0.998580
0.871300 0.971533 0.998580
0.874643 0.971538 0.998580
0.888090 0.971561 0.998580
0.926450 0.971662 0.998580
0.977347 0.972122 0.998580
0.998580 0.974125 0.998580
0.870292 0.971540 0.998580
0.870390 0.971540 0.998580
0.870556 0.971540 0.998580
0.871310 0.971541 0.998580
0.874653 0.971546 0.998580
0.888099 0.971568 0.998580
0.926454 0.971670 0.998580
0.977348 0.972130 0.998580
0.998580 0.974133 0.998580
0.870310 0.971553 0.998580
0.870408 0.971553 0.998580
0.870575 0.971554 0.998580
0.871329 0.971555 0.998580
0.874670 0.971560 0.998580
0.888113 0.971582 0.998580
0.926461 0.971684 0.998580
0.977349 0.972143 0.998580
0.998580 0.974145 0.998580
0.870395 0.971614 0.998580
0.870493 0.971615 0.998580
0.870659 0.971615 0.998580
0.871412 0.971616 0.998580
0.874749 0.971621 0.998580
0.888178 0.971643 0.998580
0.926492 0.971745 0.998580
0.977355 0.972203 0.998580
0.998580 0.974200 0.998580
0.870779 0.971892 0.998580
0.870876 0.971892 0.998580
0.871041 0.971892 0.998580
0.871790 0.971893 0.998580
0.875110 0.971898 0.998580
0.888472 0.971920 0.998580
0.926633 0.972021 0.998580
0.977383 0.972474 0.998580
0.998580 0.974452 0.998580
0.872505 0.973123 0.998580
0.872600 0.973123 0.998580
0.872761 0.973123 0.998580
0.873492 0.973124 0.998580
0.876734 0.973129 0.998580
0.889798 0.973150 0.998580
0.927271 0.973246 0.998580
0.977508 0.973679 0.998580
0.998580 0.975575 0.998580
0.879878 0.978130 0.998580
0.879964 0.978130 0.998580
0.880109 0.978130 0.998580
0.880765 0.978131 0.998580
0.883681 0.978135 0.998580
0.895506 0.978153 0.998580
0.930064 0.978233 0.998580
0.978073 0.978597 0.998580
0.998580 0.980207 0.998580
0.905604 0.995101 0.998580
0.905659 0.995101 0.998580
0.905753 0.995101 0.998580
0.906182 0.995102 0.998580
0.908093 0.995105 0.998580
0.916007 0.995117 0.998580
0.940769 0.995175 0.998580
0.980526 0.995439 0.998580
0.998580 0.996636 0.998580
0.955719 0.998580 0.998580
0.955734 0.998580 0.998580
0.955761 0.998580 0.998580
0.955881 0.998580 0.998580
0.956425 0.998580 0.998580
0.958780 0.998580 0.998580
0.967511 0.998580 0.998580
0.990083 0.998580 0.998580
0.998580 0.998580 0.998580
