agx_acescct_to_rec709.cube
# Created by DaVinci Flow AgX Pipeline Generator
# Mode: AgX EXR (ACEScct Log to Rec709)
LUT_3D_SIZE 65
0.000000 0.000000 0.000000
0.000000 0.000000 0.000000
0.000000 0.000000 0.000000
0.000000 0.000000 0.000000
0.000000 0.000000 0.000000
0.004318 0.000000 0.000000
0.007140 0.000000 0.000000
0.009583 0.000000 0.000000
0.011806 0.000000 0.000000
0.013986 0.000000 0.000000
0.016299 0.000000 0.000000
0.018918 0.000000 0.000000
0.022011 0.000000 0.000000
0.025741 0.000000 0.000000
0.030263 0.000000 0.000000
0.035725 0.000000 0.000000
0.042265 0.000000 0.000000
0.050013 0.000000 0.000000
0.059086 0.000000 0.000000
0.069588 0.000000 0.000000
0.081611 0.000000 0.000000
0.095230 0.000000 0.000000
0.110502 0.000000 0.000000
0.127470 0.000000 0.000000
0.146155 0.000000 0.000000
0.166560 0.000000 0.000000
0.188669 0.000000 0.000000
0.212444 0.000000 0.000000
0.237829 0.000000 0.000000
0.264744 0.000000 0.000000
0.293095 0.000000 0.000000
0.322763 0.000000 0.000000
0.353615 0.000112 0.000000
0.385497 0.008601 0.000000
0.418242 0.013394 0.001812
0.451667 0.017617 0.009430
0.485576 0.022342 0.014030
0.519763 0.028025 0.018292
0.554013 0.034907 0.023151
0.588106 0.043140 0.029016
0.621817 0.052832 0.036110
0.654921 0.064066 0.044575
0.687198 0.076907 0.054514
0.718430 0.091404 0.066008
0.748414 0.107593 0.079118
0.776956 0.125492 0.093891
0.803884 0.145107 0.110360
0.829044 0.166424 0.128542
0.852313 0.189414 0.148438
0.873596 0.214030 0.170032
0.892838 0.240205 0.193294
0.910023 0.267856 0.218171
0.925185 0.296881 0.244595
0.938410 0.327158 0.272479
0.949842 0.358551 0.301718
0.959693 0.390905 0.332188
0.968245 0.424051 0.363750
0.975859 0.457805 0.396246
0.982982 0.491973 0.429505
0.990154 0.526348 0.463342
0.998013 0.560717 0.497558
0.998580 0.594860 0.531948
0.998580 0.628556 0.566296
0.998580 0.661582 0.600382
0.998580 0.693719 0.633984
0.000000 0.000000 0.000000
0.000000 0.000000 0.000000
0.000000 0.000000 0.000000
0.000000 0.000000 0.000000
0.000000 0.000000 0.000000
0.005142 0.000000 0.000000
0.007728 0.000000 0.000000
0.010018 0.000000 0.000000
0.012149 0.000000 0.000000
0.014278 0.000000 0.000000
0.016565 0.000000 0.000000
0.019174 0.000000 0.000000
0.022265 0.000000 0.000000
0.025996 0.000000 0.000000
0.030519 0.000000 0.000000
0.035979 0.000000 0.000000
0.042516 0.000000 0.000000
0.050257 0.000000 0.000000
0.059321 0.000000 0.000000
0.069812 0.000000 0.000000
0.081822 0.000000 0.000000
0.095426 0.000000 0.000000
0.110684 0.000000 0.000000
0.127636 0.000000 0.000000
0.146306 0.000000 0.000000
0.166696 0.000000 0.000000
0.188790 0.000000 0.000000
0.212551 0.000000 0.000000
0.237923 0.000000 0.000000
0.264827 0.000000 0.000000
0.293166 0.000000 0.000000
0.322825 0.000000 0.000000
0.353668 0.007385 0.000000
0.385542 0.011973 0.000000
0.418280 0.015747 0.002911
0.451699 0.019735 0.009886
0.485603 0.024434 0.014329
0.519785 0.030125 0.018557
0.554032 0.036997 0.023413
0.588121 0.045189 0.029279
0.621829 0.054810 0.036371
0.654931 0.065948 0.044831
0.687206 0.078675 0.054761
0.718437 0.093047 0.066242
0.748419 0.109103 0.079337
0.776960 0.126867 0.094095
0.803887 0.146349 0.110547
0.829046 0.167536 0.128712
0.852314 0.190403 0.148591
0.873597 0.214903 0.170170
0.892839 0.240971 0.193415
0.910024 0.268523 0.218278
0.925186 0.297458 0.244689
0.938410 0.327655 0.272560
0.949842 0.358976 0.301788
0.959693 0.391266 0.332249
0.968245 0.424356 0.363802
0.975859 0.458062 0.396290
0.982982 0.492187 0.429542
0.990154 0.526526 0.463373
0.998013 0.560864 0.497584
0.998580 0.594980 0.531969
0.998580 0.628654 0.566313
0.998580 0.661661 0.600396
0.998580 0.693783 0.633996
0.000000 0.000000 0.000000
0.000000 0.000000 0.000000
0.000000 0.000000 0.000000
0.000000 0.000000 0.000000
0.000000 0.000000 0.000000
0.005892 0.000000 0.000000
0.008275 0.000000 0.000000
0.010431 0.000000 0.000000
0.012481 0.000000 0.000000
0.014565 0.000000 0.000000
0.016830 0.000000 0.000000
0.019430 0.000000 0.000000
0.022520 0.000000 0.000000
0.026251 0.000000 0.000000
0.030774 0.000000 0.000000
0.036233 0.000000 0.000000
0.042766 0.000000 0.000000
0.050500 0.000000 0.000000
0.059555 0.000000 0.000000
0.070035 0.000000 0.000000
0.082032 0.000000 0.000000
0.095622 0.000000 0.000000
0.110865 0.000000 0.000000
0.127802 0.000000 0.000000
0.146456 0.000000 0.000000
0.166831 0.000000 0.000000
0.188911 0.000000 0.000000
0.212658 0.000000 0.000000
0.238017 0.000000 0.000000
0.264909 0.000000 0.000000
0.293238 0.000946 0.000000
0.322887 0.007135 0.000000
0.353721 0.011181 0.000000
0.385587 0.014521 0.000000
0.418318 0.017924 0.003897
0.451731 0.021831 0.010318
0.485630 0.026529 0.014624
0.519808 0.032224 0.018822
0.554050 0.039079 0.023675
0.588136 0.047224 0.029542
0.621841 0.056771 0.036633
0.654941 0.067814 0.045087
0.687214 0.080428 0.055007
0.718443 0.094675 0.066476
0.748424 0.110601 0.079557
0.776964 0.128233 0.094298
0.803890 0.147582 0.110734
0.829049 0.168642 0.128882
0.852316 0.191387 0.148744
0.873599 0.215772 0.170306
0.892840 0.241734 0.193537
0.910025 0.269188 0.218385
0.925186 0.298034 0.244782
0.938410 0.328151 0.272642
0.949842 0.359400 0.301859
0.959693 0.391627 0.332310
0.968245 0.424661 0.363854
0.975859 0.458318 0.396334
0.982983 0.492401 0.429580
0.990154 0.526703 0.463404
0.998013 0.561010 0.497610
0.998580 0.595100 0.531991
0.998580 0.628751 0.566331
0.998580 0.661740 0.600411
0.998580 0.693846 0.634007
0.000000 0.000000 0.000000
0.000000 0.000000 0.000000
0.000000 0.000000 0.000000
0.000000 0.000000 0.000000
0.000000 0.000000 0.000000
0.006578 0.000000 0.000000
0.008785 0.000000 0.000000
0.010825 0.000000 0.000000
0.012804 0.000000 0.000000
0.014848 0.000000 0.000000
0.017094 0.000000 0.000000
0.019686 0.000000 0.000000
0.022774 0.000000 0.000000
0.026505 0.000000 0.000000
0.031029 0.000000 0.000000
0.036487 0.000000 0.000000
0.043015 0.000000 0.000000
0.050744 0.000000 0.000000
0.059790 0.000000 0.000000
0.070258 0.000000 0.000000
0.082242 0.000000 0.000000
0.095818 0.000000 0.000000
0.111046 0.000000 0.000000
0.127967 0.000000 0.000000
0.146606 0.000000 0.000000
0.166966 0.000000 0.000000
0.189032 0.000000 0.000000
0.212765 0.000000 0.000000
0.238111 0.000000 0.000000
0.264992 0.003445 0.000000
0.293310 0.007767 0.000000
0.322948 0.011025 0.000000
0.353773 0.013875 0.000000
0.385632 0.016771 0.000000
0.418357 0.020037 0.004786
0.451763 0.023922 0.010729
0.485657 0.028627 0.014915
0.519830 0.034321 0.019087
0.554069 0.041151 0.023937
0.588151 0.049245 0.029805
0.621854 0.058716 0.036894
0.654951 0.069662 0.045342
0.687222 0.082165 0.055254
0.718450 0.096290 0.066710
0.748429 0.112087 0.079776
0.776968 0.129588 0.094502
0.803893 0.148808 0.110920
0.829051 0.169742 0.129051
0.852318 0.192366 0.148897
0.873600 0.216638 0.170443
0.892841 0.242494 0.193658
0.910026 0.269851 0.218492
0.925187 0.298608 0.244876
0.938411 0.328645 0.272724
0.949843 0.359823 0.301930
0.959693 0.391987 0.332370
0.968245 0.424965 0.363905
0.975859 0.458574 0.396378
0.982983 0.492615 0.429617
0.990154 0.526881 0.463435
0.998013 0.561156 0.497636
0.998580 0.595220 0.532013
0.998580 0.628849 0.566349
0.998580 0.661818 0.600425
0.998580 0.693909 0.634019
0.000000 0.000000 0.000000
0.000000 0.000000 0.000000
0.000000 0.000000 0.000000
0.000000 0.000000 0.000000
0.000000 0.000000 0.000000
0.007208 0.000000 0.000000
0.009264 0.000000 0.000000
0.011203 0.000000 0.000000
0.013119 0.000000 0.000000
0.015128 0.000000 0.000000
0.017356 0.000000 0.000000
0.019941 0.000000 0.000000
0.023028 0.000000 0.000000
0.026760 0.000000 0.000000
0.031284 0.000000 0.000000
0.036740 0.000000 0.000000
0.043265 0.000000 0.000000
0.050987 0.000000 0.000000
0.060024 0.000000 0.000000
0.070481 0.000000 0.000000
0.082452 0.000000 0.000000
0.096014 0.000000 0.000000
0.111227 0.000000 0.000000
0.128133 0.000000 0.000000
0.146756 0.000000 0.000000
0.167101 0.000000 0.000000
0.189152 0.000000 0.000000
0.212872 0.002741 0.000000
0.238205 0.006157 0.000000
0.265074 0.008972 0.000000
0.293381 0.011423 0.000000
0.323010 0.013751 0.000000
0.353826 0.016179 0.000000
0.385677 0.018910 0.000000
0.418395 0.022131 0.005590
0.451795 0.026017 0.011123
0.485683 0.030727 0.015203
0.519852 0.036413 0.019351
0.554087 0.043211 0.024199
0.588167 0.051251 0.030068
0.621866 0.060645 0.037155
0.654961 0.071495 0.045598
0.687230 0.083887 0.055500
0.718456 0.097891 0.066944
0.748434 0.113562 0.079995
0.776972 0.130934 0.094705
0.803896 0.150026 0.111107
0.829054 0.170836 0.129221
0.852320 0.193341 0.149050
0.873602 0.217500 0.170580
0.892842 0.243251 0.193780
0.910026 0.270512 0.218599
0.925187 0.299181 0.244970
0.938411 0.329139 0.272805
0.949843 0.360245 0.302000
0.959693 0.392346 0.332431
0.968245 0.425269 0.363957
0.975859 0.458829 0.396422
0.982983 0.492828 0.429654
0.990154 0.527058 0.463466
0.998013 0.561302 0.497662
0.998580 0.595340 0.532034
0.998580 0.628946 0.566367
0.998580 0.661897 0.600440
0.998580 0.693972 0.634031
0.000000 0.000000 0.000000
0.000000 0.000000 0.000000
0.000000 0.000000 0.000000
0.000000 0.000000 0.000000
0.000000 0.000000 0.000000
0.008364 0.000266 0.000000
0.010168 0.000346 0.000000
0.011936 0.000442 0.000000
0.013746 0.000557 0.000000
0.015693 0.000695 0.000000
0.017891 0.000859 0.000000
0.020466 0.001055 0.000000
0.023550 0.001287 0.000000
0.027284 0.001561 0.000000
0.031808 0.001884 0.000000
0.037261 0.002261 0.000000
0.043778 0.002699 0.000000
0.051486 0.003204 0.000000
0.060504 0.003780 0.000000
0.070939 0.004430 0.000000
0.082883 0.005156 0.000000
0.096416 0.005957 0.000000
0.111598 0.006828 0.000000
0.128473 0.007767 0.000000
0.147065 0.008767 0.000000
0.167379 0.009827 0.000000
0.189400 0.010950 0.000000
0.213092 0.012147 0.000000
0.238399 0.013440 0.000000
0.265243 0.014867 0.000000
0.293528 0.016481 0.000000
0.323137 0.018351 0.000000
0.353935 0.020564 0.000000
0.385770 0.023222 0.000000
0.418473 0.026437 0.007028
0.451862 0.030334 0.011883
0.485739 0.035041 0.015784
0.519898 0.040689 0.019893
0.554125 0.047410 0.024738
0.588198 0.055327 0.030609
0.621892 0.064560 0.037692
0.654982 0.075213 0.046122
0.687246 0.087382 0.056005
0.718469 0.101144 0.067423
0.748445 0.116560 0.080445
0.776980 0.133674 0.095122
0.803902 0.152508 0.111490
0.829058 0.173066 0.129569
0.852324 0.195330 0.149364
0.873604 0.219261 0.170861
0.892844 0.244799 0.194029
0.910028 0.271863 0.218819
0.925188 0.300354 0.245163
0.938412 0.330149 0.272973
0.949843 0.361111 0.302145
0.959694 0.393083 0.332556
0.968246 0.425893 0.364064
0.975860 0.459353 0.396513
0.982983 0.493266 0.429730
0.990154 0.527421 0.463531
0.998014 0.561602 0.497716
0.998580 0.595586 0.532078
0.998580 0.629146 0.566403
0.998580 0.662059 0.600470
0.998580 0.694102 0.634055
0.000000 0.003274 0.000000
0.000000 0.003413 0.000000
0.000000 0.003550 0.000000
0.000000 0.003685 0.000000
0.000000 0.003818 0.000000
0.008586 0.004086 0.000000
0.010346 0.004141 0.000000
0.012084 0.004207 0.000000
0.013874 0.004287 0.000000
0.015810 0.004382 0.000000
0.018003 0.004495 0.000000
0.020576 0.004630 0.000000
0.023660 0.004791 0.000000
0.027395 0.004981 0.000000
0.031919 0.005206 0.000000
0.037371 0.005469 0.000000
0.043886 0.005777 0.000000
0.051591 0.006134 0.000000
0.060605 0.006545 0.000000
0.071035 0.007014 0.000000
0.082974 0.007547 0.000000
0.096500 0.008145 0.000000
0.111676 0.008811 0.000000
0.128544 0.009548 0.000000
0.147129 0.010357 0.000000
0.167437 0.011243 0.000000
0.189452 0.012215 0.000000
0.213138 0.013288 0.000000
0.238440 0.014487 0.000000
0.265279 0.015846 0.000000
0.293559 0.017417 0.000000
0.323164 0.019264 0.000000
0.353958 0.021468 0.000000
0.385790 0.024125 0.000000
0.418490 0.027343 0.007299
0.451875 0.031240 0.012036
0.485750 0.035943 0.015904
0.519908 0.041581 0.020006
0.554133 0.048283 0.024851
0.588204 0.056174 0.030722
0.621897 0.065372 0.037804
0.654986 0.075985 0.046232
0.687250 0.088107 0.056111
0.718472 0.101819 0.067524
0.748447 0.117183 0.080539
0.776982 0.134244 0.095209
0.803904 0.153025 0.111570
0.829059 0.173531 0.129642
0.852324 0.195745 0.149430
0.873605 0.219628 0.170920
0.892844 0.245122 0.194082
0.910028 0.272146 0.218865
0.925189 0.300599 0.245203
0.938412 0.330361 0.273009
0.949844 0.361293 0.302176
0.959694 0.393238 0.332582
0.968246 0.426023 0.364086
0.975860 0.459463 0.396532
0.982983 0.493358 0.429746
0.990155 0.527498 0.463544
0.998014 0.561665 0.497727
0.998580 0.595637 0.532088
0.998580 0.629188 0.566411
0.998580 0.662093 0.600476
0.998580 0.694129 0.634060
0.000000 0.006680 0.000000
0.000000 0.006773 0.000000
0.000000 0.006865 0.000000
0.000000 0.006956 0.000000
0.000000 0.007046 0.000000
0.008846 0.007227 0.000000
0.010556 0.007265 0.000000
0.012260 0.007310 0.000000
0.014028 0.007364 0.000000
0.015952 0.007429 0.000000
0.018138 0.007507 0.000000
0.020708 0.007600 0.000000
0.023793 0.007711 0.000000
0.027528 0.007844 0.000000
0.032052 0.008001 0.000000
0.037503 0.008186 0.000000
0.044016 0.008405 0.000000
0.051717 0.008661 0.000000
0.060727 0.008960 0.000000
0.071151 0.009307 0.000000
0.083083 0.009707 0.000000
0.096602 0.010166 0.000000
0.111770 0.010689 0.000000
0.128630 0.011283 0.000000
0.147207 0.011955 0.000000
0.167507 0.012715 0.000000
0.189515 0.013577 0.000000
0.213194 0.014557 0.000000
0.238489 0.015683 0.000000
0.265322 0.016992 0.000000
0.293596 0.018530 0.000000
0.323196 0.020361 0.000000
0.353986 0.022560 0.000000
0.385813 0.025217 0.000000
0.418510 0.028438 0.007615
0.451892 0.032336 0.012218
0.485764 0.037033 0.016049
0.519920 0.042657 0.020143
0.554143 0.049336 0.024988
0.588212 0.057194 0.030859
0.621903 0.066350 0.037940
0.654991 0.076914 0.046365
0.687254 0.088981 0.056239
0.718475 0.102633 0.067645
0.748449 0.117934 0.080653
0.776984 0.134930 0.095315
0.803905 0.153647 0.111667
0.829061 0.174091 0.129730
0.852325 0.196245 0.149509
0.873606 0.220072 0.170991
0.892845 0.245512 0.194145
0.910028 0.272487 0.218921
0.925189 0.300895 0.245252
0.938412 0.330616 0.273051
0.949844 0.361511 0.302213
0.959694 0.393424 0.332614
0.968246 0.426181 0.364113
0.975860 0.459596 0.396555
0.982983 0.493469 0.429766
0.990155 0.527590 0.463560
0.998014 0.561741 0.497741
0.998580 0.595700 0.532099
0.998580 0.629239 0.566420
0.998580 0.662134 0.600484
0.998580 0.694162 0.634067
0.000000 0.009476 0.000000
0.000000 0.009541 0.000000
0.000000 0.009606 0.000000
0.000000 0.009670 0.000000
0.000000 0.009733 0.000000
0.009149 0.009862 0.000000
0.010803 0.009889 0.000000
0.012468 0.009922 0.000000
0.014212 0.009960 0.000000
0.016122 0.010007 0.000000
0.018301 0.010064 0.000000
0.020869 0.010131 0.000000
0.023953 0.010212 0.000000
0.027688 0.010309 0.000000
0.032212 0.010424 0.000000
0.037663 0.010562 0.000000
0.044173 0.010725 0.000000
0.051870 0.010919 0.000000
0.060874 0.011148 0.000000
0.071291 0.011417 0.000000
0.083215 0.011733 0.000000
0.096725 0.012103 0.000000
0.111883 0.012534 0.000000
0.128734 0.013035 0.000000
0.147302 0.013616 0.000000
0.167592 0.014291 0.000000
0.189591 0.015077 0.000000
0.213261 0.015993 0.000000
0.238548 0.017070 0.000000
0.265373 0.018343 0.000000
0.293641 0.019861 0.000000
0.323235 0.021682 0.000000
0.354019 0.023879 0.000000
0.385842 0.026539 0.000567
0.418534 0.029762 0.007980
0.451912 0.033659 0.012434
0.485781 0.038347 0.016224
0.519934 0.043953 0.020309
0.554154 0.050602 0.025153
0.588222 0.058420 0.031025
0.621911 0.067527 0.038105
0.654998 0.078031 0.046526
0.687259 0.090031 0.056393
0.718479 0.103611 0.067792
0.748453 0.118837 0.080791
0.776987 0.135757 0.095442
0.803907 0.154398 0.111784
0.829062 0.174766 0.129837
0.852326 0.196848 0.149605
0.873607 0.220606 0.171077
0.892846 0.245983 0.194221
0.910029 0.272899 0.218989
0.925189 0.301252 0.245311
0.938412 0.330925 0.273102
0.949844 0.361776 0.302257
0.959694 0.393649 0.332652
0.968246 0.426372 0.364146
0.975860 0.459756 0.396583
0.982983 0.493603 0.429789
0.990155 0.527701 0.463580
0.998014 0.561833 0.497757
0.998580 0.595775 0.532113
0.998580 0.629300 0.566431
0.998580 0.662183 0.600493
0.998580 0.694202 0.634074
0.000000 0.011931 0.000000
0.000000 0.011980 0.000000
0.000000 0.012030 0.000000
0.000000 0.012079 0.000000
0.000000 0.012128 0.000000
0.009501 0.012227 0.000000
0.011093 0.012248 0.000000
0.012716 0.012273 0.000000
0.014432 0.012304 0.000000
0.016326 0.012340 0.000000
0.018498 0.012384 0.000000
0.021063 0.012437 0.000000
0.024147 0.012501 0.000000
0.027883 0.012578 0.000000
0.032407 0.012670 0.000000
0.037856 0.012780 0.000000
0.044362 0.012912 0.000000
0.052055 0.013070 0.000000
0.061051 0.013258 0.000000
0.071460 0.013483 0.000000
0.083374 0.013749 0.000000
0.096874 0.014066 0.000000
0.112021 0.014442 0.000000
0.128860 0.014887 0.000000
0.147416 0.015413 0.000000
0.167695 0.016036 0.000000
0.189683 0.016775 0.000000
0.213343 0.017653 0.000000
0.238620 0.018700 0.000000
0.265436 0.019953 0.000000
0.293696 0.021459 0.000000
0.323282 0.023276 0.000000
0.354059 0.025476 0.000000
0.385876 0.028140 0.001516
0.418563 0.031364 0.008399
0.451937 0.035256 0.012689
0.485802 0.039931 0.016434
0.519951 0.045512 0.020509
0.554169 0.052125 0.025353
0.588233 0.059895 0.031225
0.621921 0.068940 0.038304
0.655005 0.079373 0.046720
0.687265 0.091294 0.056580
0.718484 0.104788 0.067969
0.748456 0.119924 0.080957
0.776990 0.136752 0.095596
0.803910 0.155301 0.111925
0.829064 0.175580 0.129965
0.852328 0.197575 0.149721
0.873608 0.221251 0.171181
0.892846 0.246551 0.194314
0.910030 0.273395 0.219070
0.925190 0.301684 0.245383
0.938413 0.331297 0.273165
0.949844 0.362095 0.302311
0.959694 0.393921 0.332698
0.968246 0.426602 0.364185
0.975860 0.459950 0.396616
0.982983 0.493765 0.429817
0.990155 0.527836 0.463604
0.998014 0.561944 0.497777
0.998580 0.595866 0.532129
0.998580 0.629374 0.566445
0.998580 0.662243 0.600504
0.998580 0.694250 0.634083
0.000000 0.014301 0.000000
0.000000 0.014343 0.000000
0.000000 0.014384 0.000000
0.000000 0.014426 0.000000
0.000000 0.014467 0.000000
0.009907 0.014552 0.000000
0.011432 0.014570 0.000000
0.013008 0.014591 0.000000
0.014695 0.014617 0.000000
0.016571 0.014648 0.000000
0.018735 0.014686 0.000000
0.021297 0.014731 0.000000
0.024381 0.014786 0.000000
0.028118 0.014853 0.000000
0.032642 0.014932 0.000000
0.038089 0.015028 0.000000
0.044592 0.015144 0.000000
0.052278 0.015283 0.000000
0.061266 0.015450 0.000000
0.071664 0.015651 0.000000
0.083567 0.015892 0.000000
0.097053 0.016181 0.000000
0.112186 0.016527 0.000000
0.129011 0.016942 0.000000
0.147554 0.017439 0.000000
0.167819 0.018035 0.000000
0.189794 0.018749 0.000000
0.213441 0.019607 0.000000
0.238706 0.020639 0.000000
0.265512 0.021884 0.000000
0.293761 0.023387 0.000000
0.323339 0.025206 0.000000
0.354108 0.027409 0.000000
0.385917 0.030076 0.002562
0.418598 0.033298 0.008877
0.451967 0.037181 0.012991
0.485827 0.041837 0.016686
0.519972 0.047387 0.020751
0.554186 0.053954 0.025595
0.588247 0.061664 0.031468
0.621932 0.070636 0.038544
0.655015 0.080984 0.046954
0.687273 0.092810 0.056805
0.718490 0.106201 0.068183
0.748461 0.121230 0.081158
0.776993 0.137948 0.095783
0.803912 0.156387 0.112096
0.829066 0.176558 0.130121
0.852329 0.198450 0.149862
0.873609 0.222027 0.171307
0.892847 0.247235 0.194425
0.910030 0.273993 0.219169
0.925190 0.302204 0.245469
0.938413 0.331745 0.273240
0.949844 0.362480 0.302376
0.959694 0.394249 0.332754
0.968246 0.426880 0.364233
0.975860 0.460184 0.396657
0.982983 0.493960 0.429852
0.990155 0.527998 0.463632
0.998014 0.562078 0.497801
0.998580 0.595976 0.532149
0.998580 0.629464 0.566461
0.998580 0.662316 0.600517
0.998580 0.694308 0.634094
0.000000 0.016818 0.000000
0.000000 0.016856 0.000000
0.000000 0.016894 0.000000
0.000000 0.016932 0.000000
0.000000 0.016970 0.000000
0.010372 0.017048 0.000000
0.011827 0.017064 0.000000
0.013354 0.017084 0.000000
0.015008 0.017108 0.000000
0.016867 0.017137 0.000000
0.019021 0.017172 0.000000
0.021581 0.017214 0.000000
0.024665 0.017265 0.000000
0.028402 0.017326 0.000000
0.032926 0.017401 0.000000
0.038371 0.017490 0.000000
0.044869 0.017599 0.000000
0.052547 0.017729 0.000000
0.061525 0.017887 0.000000
0.071911 0.018077 0.000000
0.083799 0.018306 0.000000
0.097270 0.018583 0.000000
0.112387 0.018916 0.000000
0.129195 0.019318 0.000000
0.147720 0.019802 0.000000
0.167969 0.020387 0.000000
0.189927 0.021092 0.000000
0.213560 0.021943 0.000000
0.238811 0.022971 0.000000
0.265603 0.024215 0.000000
0.293841 0.025721 0.000000
0.323407 0.027543 0.000000
0.354167 0.029749 0.000000
0.385968 0.032416 0.003694
0.418641 0.035632 0.009419
0.452002 0.039500 0.013348
0.485857 0.044129 0.016990
0.519996 0.049637 0.021043
0.554206 0.056148 0.025887
0.588264 0.063784 0.031761
0.621946 0.072668 0.038834
0.655026 0.082914 0.047237
0.687282 0.094626 0.057078
0.718497 0.107895 0.068442
0.748467 0.122796 0.081400
0.776998 0.139384 0.096008
0.803916 0.157692 0.112303
0.829069 0.177735 0.130309
0.852331 0.199502 0.150031
0.873610 0.222962 0.171458
0.892848 0.248059 0.194560
0.910031 0.274714 0.219288
0.925191 0.302830 0.245573
0.938414 0.332287 0.273330
0.949845 0.362944 0.302454
0.959695 0.394645 0.332821
0.968246 0.427215 0.364291
0.975860 0.460466 0.396706
0.982983 0.494196 0.429893
0.990155 0.528194 0.463667
0.998014 0.562240 0.497830
0.998580 0.596109 0.532173
0.998580 0.629572 0.566481
0.998580 0.662403 0.600533
0.998580 0.694378 0.634107
0.000000 0.019688 0.000000
0.000000 0.019724 0.000000
0.000000 0.019761 0.000000
0.000000 0.019798 0.000000
0.000000 0.019835 0.000000
0.010903 0.019911 0.000000
0.012286 0.019927 0.000000
0.013761 0.019946 0.000000
0.015382 0.019969 0.000000
0.017221 0.019997 0.000000
0.019366 0.020031 0.000000
0.021923 0.020072 0.000000
0.025008 0.020122 0.000000
0.028746 0.020182 0.000000
0.033269 0.020254 0.000000
0.038711 0.020341 0.000000
0.045203 0.020447 0.000000
0.052872 0.020575 0.000000
0.061838 0.020730 0.000000
0.072209 0.020916 0.000000
0.084080 0.021142 0.000000
0.097532 0.021415 0.000000
0.112628 0.021744 0.000000
0.129416 0.022143 0.000000
0.147921 0.022624 0.000000
0.168150 0.023206 0.000000
0.190089 0.023910 0.000000
0.213704 0.024762 0.000000
0.238937 0.025792 0.000000
0.265714 0.027039 0.000000
0.293937 0.028548 0.000000
0.323490 0.030372 0.000000
0.354238 0.032578 0.000000
0.386028 0.035239 0.004897
0.418692 0.038443 0.010029
0.452046 0.042287 0.013767
0.485893 0.046878 0.017354
0.520027 0.052332 0.021396
0.554231 0.058772 0.026241
0.588285 0.066319 0.032115
0.621962 0.075097 0.039184
0.655039 0.085222 0.047579
0.687292 0.096799 0.057407
0.718506 0.109924 0.068754
0.748474 0.124673 0.081693
0.777003 0.141105 0.096279
0.803920 0.159258 0.112552
0.829072 0.179148 0.130536
0.852334 0.200768 0.150236
0.873612 0.224086 0.171642
0.892850 0.249050 0.194723
0.910032 0.275583 0.219431
0.925191 0.303586 0.245699
0.938414 0.332939 0.273440
0.949845 0.363504 0.302549
0.959695 0.395122 0.332903
0.968246 0.427620 0.364361
0.975860 0.460806 0.396765
0.982983 0.494481 0.429943
0.990155 0.528431 0.463709
0.998014 0.562436 0.497865
0.998580 0.596269 0.532202
0.998580 0.629703 0.566505
0.998580 0.662509 0.600553
0.998580 0.694463 0.634123
0.000000 0.023099 0.000000
0.000000 0.023135 0.000000
0.000000 0.023172 0.000000
0.000000 0.023209 0.000000
0.000000 0.023245 0.000000
0.011506 0.023321 0.000000
0.012816 0.023337 0.000000
0.014240 0.023356 0.000000
0.015827 0.023379 0.000000
0.017646 0.023407 0.000000
0.019783 0.023441 0.000000
0.022337 0.023482 0.000000
0.025422 0.023531 0.000000
0.029161 0.023591 0.000000
0.033684 0.023663 0.000000
0.039122 0.023750 0.000000
0.045607 0.023856 0.000000
0.053265 0.023984 0.000000
0.062216 0.024138 0.000000
0.072568 0.024324 0.000000
0.084418 0.024550 0.000000
0.097848 0.024823 0.000000
0.112920 0.025153 0.000000
0.129684 0.025552 0.000000
0.148164 0.026034 0.000000
0.168369 0.026618 0.000000
0.190285 0.027324 0.000000
0.213877 0.028178 0.000000
0.239090 0.029210 0.000000
0.265848 0.030459 0.000000
0.294053 0.031968 0.000000
0.323590 0.033791 0.000000
0.354324 0.035990 0.000000
0.386102 0.038637 0.006153
0.418754 0.041818 0.010711
0.452098 0.045626 0.014260
0.485937 0.050166 0.017791
0.520063 0.055552 0.021823
0.554261 0.061904 0.026668
0.588309 0.069344 0.032543
