agx_rec709_proxy.cube
# Created by DaVinci Flow AgX Pipeline Generator
# Mode: AgX Video Proxy (Rec709 to Rec709)
LUT_3D_SIZE 65
0.000000 0.000000 0.000000
0.000000 0.000000 0.000000
0.000000 0.000000 0.000000
0.000000 0.000000 0.000000
0.000000 0.000000 0.000000
0.000000 0.000000 0.000000
0.004573 0.000000 0.000000
0.008369 0.000000 0.000000
0.011397 0.000000 0.000000
0.014096 0.000000 0.000000
0.016800 0.000000 0.000000
0.019719 0.000000 0.000000
0.022980 0.000077 0.000000
0.026645 0.002251 0.000000
0.030736 0.004229 0.000000
0.035253 0.005995 0.000000
0.040178 0.007572 0.000000
0.045486 0.008990 0.000798
0.051147 0.010287 0.002350
0.057130 0.011498 0.003798
0.063402 0.012654 0.005133
0.069932 0.013783 0.006361
0.076692 0.014909 0.007493
0.083652 0.016050 0.008540
0.090788 0.017222 0.009518
0.098076 0.018439 0.010439
0.105494 0.019710 0.011317
0.113022 0.021042 0.012163
0.120642 0.022442 0.012990
0.128337 0.023913 0.013807
0.136093 0.025459 0.014622
0.143896 0.027080 0.015443
0.151734 0.028778 0.016277
0.159596 0.030554 0.017128
0.167472 0.032405 0.018002
0.175352 0.034332 0.018903
0.183229 0.036333 0.019834
0.191095 0.038406 0.020798
0.198944 0.040549 0.021796
0.206770 0.042761 0.022832
0.214567 0.045038 0.023905
0.222331 0.047379 0.025018
0.230057 0.049782 0.026170
0.237742 0.052243 0.027363
0.245382 0.054761 0.028595
0.252975 0.057332 0.029869
0.260516 0.059956 0.031182
0.268005 0.062628 0.032536
0.275439 0.065347 0.033929
0.282815 0.068111 0.035361
0.290134 0.070917 0.036831
0.297392 0.073764 0.038339
0.304589 0.076648 0.039885
0.311723 0.079569 0.041466
0.318795 0.082523 0.043083
0.325803 0.085510 0.044734
0.332746 0.088526 0.046419
0.339624 0.091571 0.048136
0.346437 0.094643 0.049885
0.353184 0.097740 0.051666
0.359865 0.100860 0.053476
0.366480 0.104003 0.055315
0.373029 0.107165 0.057182
0.379512 0.110347 0.059076
0.385929 0.113546 0.060997
0.000000 0.000000 0.000000
0.000000 0.000000 0.000000
0.000000 0.000000 0.000000
0.000000 0.000000 0.000000
0.000000 0.000000 0.000000
0.000000 0.000000 0.000000
0.004678 0.000000 0.000000
0.008435 0.000000 0.000000
0.011443 0.000000 0.000000
0.014133 0.000000 0.000000
0.016833 0.000000 0.000000
0.019752 0.000000 0.000000
0.023012 0.000392 0.000000
0.026677 0.002512 0.000000
0.030768 0.004439 0.000000
0.035285 0.006166 0.000000
0.040210 0.007712 0.000000
0.045517 0.009107 0.000874
0.051178 0.010387 0.002417
0.057160 0.011585 0.003855
0.063431 0.012733 0.005182
0.069961 0.013856 0.006404
0.076719 0.014977 0.007529
0.083679 0.016115 0.008572
0.090814 0.017286 0.009546
0.098100 0.018502 0.010464
0.105517 0.019772 0.011339
0.113044 0.021104 0.012185
0.120663 0.022504 0.013010
0.128358 0.023975 0.013826
0.136113 0.025521 0.014640
0.143915 0.027142 0.015460
0.151753 0.028841 0.016293
0.159614 0.030616 0.017144
0.167489 0.032467 0.018018
0.175368 0.034394 0.018919
0.183244 0.036395 0.019850
0.191110 0.038468 0.020814
0.198958 0.040611 0.021812
0.206784 0.042822 0.022848
0.214580 0.045099 0.023921
0.222344 0.047440 0.025034
0.230070 0.049841 0.026186
0.237754 0.052302 0.027378
0.245394 0.054819 0.028611
0.252986 0.057390 0.029885
0.260527 0.060013 0.031198
0.268015 0.062684 0.032552
0.275449 0.065403 0.033945
0.282825 0.068166 0.035377
0.290143 0.070972 0.036847
0.297401 0.073817 0.038355
0.304597 0.076701 0.039900
0.311732 0.079621 0.041482
0.318803 0.082574 0.043098
0.325810 0.085560 0.044749
0.332753 0.088576 0.046434
0.339631 0.091620 0.048151
0.346444 0.094691 0.049901
0.353190 0.097788 0.051681
0.359871 0.100907 0.053491
0.366486 0.104048 0.055330
0.373035 0.107210 0.057197
0.379518 0.110391 0.059091
0.385934 0.113589 0.061011
0.000000 0.000000 0.000000
0.000000 0.000000 0.000000
0.000000 0.000000 0.000000
0.000000 0.000000 0.000000
0.000000 0.000000 0.000000
0.000538 0.000000 0.000000
0.005113 0.000000 0.000000
0.008708 0.000000 0.000000
0.011635 0.000000 0.000000
0.014289 0.000000 0.000000
0.016975 0.000000 0.000000
0.019889 0.000000 0.000000
0.023149 0.001654 0.000000
0.026814 0.003552 0.000000
0.030906 0.005287 0.000000
0.035422 0.006858 0.000000
0.040345 0.008283 0.000000
0.045651 0.009587 0.001198
0.051309 0.010800 0.002698
0.057287 0.011950 0.004096
0.063555 0.013063 0.005389
0.070081 0.014162 0.006581
0.076835 0.015267 0.007683
0.083791 0.016395 0.008707
0.090922 0.017559 0.009665
0.098204 0.018771 0.010571
0.105617 0.020039 0.011437
0.113140 0.021370 0.012274
0.120756 0.022769 0.013094
0.128447 0.024241 0.013905
0.136198 0.025787 0.014716
0.143997 0.027409 0.015534
0.151831 0.029107 0.016365
0.159689 0.030882 0.017215
0.167561 0.032734 0.018088
0.175438 0.034660 0.018988
0.183311 0.036660 0.019918
0.191174 0.038732 0.020882
0.199020 0.040873 0.021880
0.206843 0.043083 0.022916
0.214637 0.045358 0.023989
0.222399 0.047697 0.025102
0.230122 0.050096 0.026254
0.237805 0.052555 0.027447
0.245443 0.055069 0.028680
0.253033 0.057637 0.029953
0.260572 0.060257 0.031267
0.268059 0.062926 0.032620
0.275491 0.065641 0.034013
0.282865 0.068401 0.035445
0.290182 0.071204 0.036915
0.297438 0.074046 0.038423
0.304634 0.076926 0.039968
0.311767 0.079843 0.041549
0.318837 0.082793 0.043165
0.325843 0.085776 0.044816
0.332785 0.088788 0.046500
0.339662 0.091829 0.048217
0.346473 0.094897 0.049966
0.353219 0.097990 0.051746
0.359899 0.101106 0.053555
0.366513 0.104244 0.055394
0.373061 0.107403 0.057260
0.379543 0.110580 0.059154
0.385959 0.113775 0.061074
0.000000 0.000000 0.000000
0.000000 0.000000 0.000000
0.000000 0.000000 0.000000
0.000000 0.000000 0.000000
0.000000 0.000000 0.000000
0.001839 0.000000 0.000000
0.005931 0.000000 0.000000
0.009235 0.000000 0.000000
0.012015 0.000000 0.000000
0.014603 0.000000 0.000000
0.017261 0.000532 0.000000
0.020168 0.002207 0.000000
0.023427 0.003826 0.000000
0.027092 0.005354 0.000000
0.031184 0.006778 0.000000
0.035699 0.008098 0.000000
0.040620 0.009328 0.000332
0.045921 0.010484 0.001828
0.051574 0.011587 0.003243
0.057546 0.012656 0.004566
0.063806 0.013712 0.005793
0.070324 0.014770 0.006931
0.077071 0.015848 0.007987
0.084018 0.016957 0.008974
0.091141 0.018110 0.009902
0.098416 0.019315 0.010784
0.105821 0.020579 0.011631
0.113336 0.021909 0.012454
0.120943 0.023308 0.013263
0.128627 0.024780 0.014065
0.136372 0.026327 0.014869
0.144164 0.027950 0.015682
0.151991 0.029649 0.016510
0.159842 0.031424 0.017357
0.167708 0.033274 0.018228
0.175579 0.035199 0.019127
0.183447 0.037198 0.020057
0.191305 0.039267 0.021020
0.199145 0.041406 0.022019
0.206963 0.043612 0.023054
0.214753 0.045884 0.024128
0.222510 0.048218 0.025240
0.230229 0.050613 0.026393
0.237908 0.053066 0.027585
0.245542 0.055576 0.028818
0.253128 0.058138 0.030092
0.260664 0.060752 0.031405
0.268147 0.063415 0.032759
0.275576 0.066124 0.034151
0.282948 0.068878 0.035583
0.290261 0.071674 0.037053
0.297515 0.074510 0.038560
0.304708 0.077384 0.040105
0.311838 0.080293 0.041685
0.318906 0.083237 0.043301
0.325910 0.086213 0.044951
0.332849 0.089219 0.046635
0.339724 0.092253 0.048351
0.346533 0.095314 0.050099
0.353277 0.098400 0.051877
0.359955 0.101510 0.053686
0.366567 0.104642 0.055523
0.373113 0.107794 0.057389
0.379593 0.110965 0.059282
0.386008 0.114153 0.061200
0.000000 0.000000 0.000000
0.000000 0.000000 0.000000
0.000000 0.000000 0.000000
0.000000 0.000000 0.000000
0.000000 0.000000 0.000000
0.003630 0.000000 0.000000
0.007088 0.000000 0.000000
0.010011 0.000769 0.000000
0.012596 0.001823 0.000000
0.015094 0.002956 0.000000
0.017717 0.004128 0.000000
0.020613 0.005309 0.000000
0.023870 0.006472 0.000000
0.027538 0.007602 0.000000
0.031630 0.008692 0.000000
0.036143 0.009743 0.000000
0.041059 0.010760 0.001398
0.046353 0.011752 0.002762
0.051997 0.012730 0.004054
0.057958 0.013708 0.005267
0.064207 0.014697 0.006400
0.070713 0.015709 0.007459
0.077447 0.016755 0.008450
0.084381 0.017844 0.009382
0.091491 0.018984 0.010268
0.098753 0.020181 0.011115
0.106145 0.021442 0.011935
0.113648 0.022771 0.012736
0.121243 0.024171 0.013528
0.128915 0.025644 0.014318
0.136648 0.027191 0.015112
0.144429 0.028815 0.015918
0.152246 0.030514 0.016741
0.160087 0.032289 0.017584
0.167943 0.034138 0.018453
0.175805 0.036061 0.019350
0.183664 0.038056 0.020279
0.191513 0.040122 0.021241
0.199346 0.042256 0.022240
0.207156 0.044457 0.023275
0.214938 0.046722 0.024349
0.222688 0.049050 0.025462
0.230400 0.051437 0.026614
0.238072 0.053883 0.027807
0.245700 0.056383 0.029040
0.253281 0.058937 0.030314
0.260811 0.061542 0.031627
0.268289 0.064195 0.032980
0.275712 0.066894 0.034373
0.283079 0.069638 0.035804
0.290388 0.072424 0.037273
0.297637 0.075249 0.038780
0.304826 0.078112 0.040324
0.311952 0.081012 0.041903
0.319016 0.083945 0.043518
0.326016 0.086910 0.045167
0.332952 0.089905 0.046849
0.339823 0.092929 0.048564
0.346629 0.095979 0.050311
0.353370 0.099055 0.052088
0.360044 0.102154 0.053895
0.366654 0.105275 0.055731
0.373197 0.108417 0.057595
0.379675 0.111577 0.059486
0.386086 0.114756 0.061403
0.000000 0.003441 0.000000
0.000000 0.003462 0.000000
0.000000 0.003552 0.000000
0.000000 0.003731 0.000000
0.002678 0.004012 0.000000
0.005686 0.004395 0.000000
0.008481 0.004878 0.000000
0.011003 0.005450 0.000000
0.013376 0.006100 0.000000
0.015776 0.006810 0.000000
0.018360 0.007565 0.000000
0.021244 0.008351 0.000000
0.024501 0.009157 0.000000
0.028170 0.009975 0.000000
0.032262 0.010799 0.000238
0.036772 0.011631 0.001509
0.041681 0.012471 0.002753
0.046966 0.013324 0.003950
0.052597 0.014196 0.005091
0.058544 0.015095 0.006171
0.064776 0.016026 0.007190
0.071264 0.016997 0.008151
0.077980 0.018015 0.009062
0.084896 0.019086 0.009929
0.091987 0.020215 0.010761
0.099231 0.021408 0.011566
0.106605 0.022667 0.012352
0.114090 0.023996 0.013127
0.121668 0.025396 0.013898
0.129323 0.026871 0.014671
0.137040 0.028420 0.015454
0.144805 0.030044 0.016251
0.152607 0.031743 0.017066
0.160434 0.033517 0.017905
0.168277 0.035364 0.018771
0.176125 0.037283 0.019666
0.183971 0.039273 0.020594
0.191808 0.041333 0.021556
0.199630 0.043460 0.022554
0.207429 0.045653 0.023589
0.215200 0.047909 0.024663
0.222940 0.050227 0.025776
0.230643 0.052603 0.026929
0.238306 0.055037 0.028122
0.245925 0.057526 0.029356
0.253497 0.060067 0.030629
0.261020 0.062658 0.031942
0.268490 0.065298 0.033295
0.275906 0.067984 0.034687
0.283266 0.070713 0.036118
0.290568 0.073484 0.037586
0.297811 0.076295 0.039092
0.304993 0.079143 0.040634
0.312114 0.082027 0.042213
0.319172 0.084945 0.043826
0.326167 0.087895 0.045473
0.333097 0.090876 0.047154
0.339964 0.093884 0.048867
0.346765 0.096920 0.050612
0.353501 0.099980 0.052387
0.360172 0.103065 0.054192
0.366777 0.106171 0.056025
0.373316 0.109298 0.057887
0.379790 0.112444 0.059775
0.386198 0.115609 0.061690
0.000893 0.008021 0.000000
0.001105 0.008033 0.000000
0.001969 0.008085 0.000000
0.003525 0.008188 0.000000
0.005564 0.008351 0.000000
0.007793 0.008576 0.000000
0.010010 0.008864 0.000000
0.012172 0.009214 0.000000
0.014350 0.009622 0.000000
0.016656 0.010082 0.000000
0.019204 0.010589 0.000000
0.022079 0.011139 0.000000
0.025337 0.011726 0.000046
0.029008 0.012349 0.001105
0.033100 0.013004 0.002179
0.037604 0.013693 0.003248
0.042504 0.014416 0.004296
0.047775 0.015176 0.005313
0.053388 0.015976 0.006291
0.059316 0.016819 0.007228
0.065527 0.017711 0.008124
0.071992 0.018654 0.008982
0.078684 0.019654 0.009806
0.085576 0.020715 0.010602
0.092643 0.021838 0.011376
0.099862 0.023029 0.012133
0.107212 0.024288 0.012882
0.114674 0.025618 0.013627
0.122229 0.027021 0.014374
0.129862 0.028497 0.015130
0.137558 0.030047 0.015899
0.145303 0.031671 0.016686
0.153085 0.033369 0.017495
0.160893 0.035140 0.018328
0.168717 0.036983 0.019191
0.176548 0.038896 0.020084
0.184378 0.040879 0.021010
0.192199 0.042930 0.021971
0.200005 0.045047 0.022969
0.207789 0.047229 0.024005
0.215547 0.049473 0.025079
0.223274 0.051777 0.026193
0.230964 0.054139 0.027346
0.238615 0.056557 0.028540
0.246222 0.059030 0.029773
0.253783 0.061554 0.031046
0.261295 0.064128 0.032359
0.268756 0.066750 0.033712
0.276162 0.069417 0.035103
0.283513 0.072127 0.036533
0.290806 0.074879 0.038000
0.298040 0.077671 0.039505
0.305215 0.080500 0.041045
0.312328 0.083364 0.042622
0.319378 0.086262 0.044233
0.326366 0.089193 0.045878
0.333290 0.092153 0.047557
0.340150 0.095142 0.049267
0.346945 0.098158 0.051009
0.353675 0.101199 0.052782
0.360340 0.104264 0.054584
0.366940 0.107351 0.056414
0.373474 0.110459 0.058273
0.379942 0.113586 0.060158
0.386346 0.116732 0.062069
0.005009 0.011526 0.000000
0.005147 0.011534 0.000000
0.005714 0.011568 0.000000
0.006755 0.011636 0.000000
0.008176 0.011745 0.000000
0.009831 0.011897 0.000000
0.011613 0.012095 0.000000
0.013494 0.012340 0.000000
0.015513 0.012633 0.000000
0.017744 0.012972 0.000150
0.020264 0.013358 0.000875
0.023133 0.013790 0.001658
0.026394 0.014267 0.002482
0.030067 0.014788 0.003334
0.034156 0.015355 0.004198
0.038653 0.015968 0.005064
0.043540 0.016628 0.005922
0.048793 0.017337 0.006764
0.054385 0.018098 0.007586
0.060287 0.018912 0.008385
0.066471 0.019784 0.009163
0.072907 0.020714 0.009920
0.079569 0.021706 0.010659
0.086431 0.022763 0.011385
0.093467 0.023886 0.012100
0.100656 0.025078 0.012811
0.107976 0.026339 0.013521
0.115408 0.027672 0.014236
0.122935 0.029076 0.014961
0.130541 0.030553 0.015698
0.138210 0.032103 0.016454
0.145929 0.033725 0.017230
0.153686 0.035419 0.018032
0.161471 0.037185 0.018860
0.169272 0.039021 0.019719
0.177081 0.040926 0.020610
0.184890 0.042898 0.021535
0.192691 0.044937 0.022496
0.200478 0.047041 0.023494
0.208244 0.049207 0.024530
0.215985 0.051435 0.025605
0.223694 0.053721 0.026719
0.231369 0.056065 0.027873
0.239004 0.058464 0.029067
0.246597 0.060915 0.030300
0.254144 0.063418 0.031573
0.261643 0.065970 0.032886
0.269091 0.068569 0.034238
0.276485 0.071213 0.035628
0.283824 0.073900 0.037057
0.291106 0.076628 0.038522
0.298330 0.079395 0.040025
0.305494 0.082200 0.041564
0.312597 0.085040 0.043138
0.319639 0.087914 0.044747
0.326618 0.090819 0.046390
0.333533 0.093755 0.048065
0.340385 0.096719 0.049772
0.347172 0.099711 0.051511
0.353895 0.102727 0.053280
0.360553 0.105768 0.055078
0.367145 0.108831 0.056905
0.373673 0.111915 0.058759
0.380135 0.115019 0.060641
0.386532 0.118141 0.062548
0.008282 0.014617 0.000817
0.008374 0.014623 0.000830
0.008754 0.014650 0.000883
0.009473 0.014705 0.000992
0.010505 0.014792 0.001163
0.011790 0.014915 0.001402
0.013280 0.015077 0.001710
0.014966 0.015280 0.002088
0.016874 0.015525 0.002531
0.019052 0.015815 0.003034
0.021553 0.016151 0.003589
0.024421 0.016533 0.004190
0.027686 0.016963 0.004825
0.031360 0.017442 0.005486
0.035445 0.017971 0.006165
0.039932 0.018552 0.006853
0.044802 0.019185 0.007544
0.050032 0.019874 0.008234
0.055597 0.020620 0.008920
0.061469 0.021424 0.009599
0.067619 0.022289 0.010272
0.074020 0.023216 0.010939
0.080645 0.024208 0.011601
0.087470 0.025266 0.012263
0.094469 0.026391 0.012925
0.101621 0.027585 0.013592
0.108905 0.028849 0.014268
0.116302 0.030183 0.014955
0.123795 0.031588 0.015657
0.131367 0.033064 0.016378
0.139003 0.034611 0.017121
0.146691 0.036228 0.017888
0.154419 0.037916 0.018683
0.162174 0.039673 0.019507
0.169948 0.041498 0.020363
0.177730 0.043391 0.021252
0.185514 0.045349 0.022177
0.193291 0.047372 0.023138
0.201054 0.049458 0.024136
0.208798 0.051605 0.025173
0.216518 0.053812 0.026248
0.224207 0.056076 0.027363
0.231862 0.058397 0.028517
0.239479 0.060771 0.029711
0.247054 0.063197 0.030944
0.254585 0.065674 0.032217
0.262067 0.068199 0.033529
0.269499 0.070771 0.034880
0.276879 0.073386 0.036269
0.284204 0.076045 0.037696
0.291473 0.078744 0.039160
0.298683 0.081482 0.040660
0.305835 0.084257 0.042197
0.312927 0.087068 0.043768
0.319957 0.089912 0.045374
0.326925 0.092788 0.047013
0.333830 0.095694 0.048684
0.340671 0.098629 0.050388
0.347449 0.101591 0.052122
0.354163 0.104578 0.053887
0.360812 0.107590 0.055681
0.367396 0.110624 0.057503
0.373915 0.113679 0.059352
0.380370 0.116755 0.061229
0.386760 0.119849 0.063131
0.010961 0.017775 0.003989
0.011027 0.017781 0.003999
0.011305 0.017805 0.004038
0.011846 0.017855 0.004117
0.012658 0.017935 0.004242
0.013727 0.018049 0.004417
0.015042 0.018198 0.004642
0.016607 0.018387 0.004919
0.018446 0.018617 0.005246
0.020594 0.018891 0.005619
0.023088 0.019210 0.006034
0.025958 0.019576 0.006486
0.029226 0.019991 0.006970
0.032900 0.020457 0.007480
0.036978 0.020974 0.008011
0.041450 0.021546 0.008558
0.046298 0.022173 0.009117
0.051501 0.022858 0.009686
0.057033 0.023601 0.010261
0.062868 0.024405 0.010842
0.068978 0.025271 0.011429
0.075338 0.026200 0.012021
0.081920 0.027194 0.012620
0.088701 0.028254 0.013227
0.095657 0.029382 0.013844
0.102765 0.030577 0.014475
0.110007 0.031841 0.015120
0.117362 0.033174 0.015783
0.124814 0.034576 0.016467
0.132346 0.036047 0.017174
0.139945 0.037587 0.017906
0.147596 0.039196 0.018665
0.155288 0.040873 0.019454
0.163009 0.042617 0.020275
0.170750 0.044428 0.021128
0.178501 0.046304 0.022017
0.186255 0.048243 0.022941
0.194003 0.050246 0.023902
0.201739 0.052309 0.024901
0.209456 0.054432 0.025938
0.217151 0.056613 0.027014
0.224816 0.058851 0.028129
0.232448 0.061143 0.029284
0.240043 0.063489 0.030478
0.247598 0.065885 0.031711
0.255108 0.068331 0.032984
0.262571 0.070824 0.034295
0.269985 0.073363 0.035644
0.277347 0.075946 0.037032
0.284655 0.078571 0.038456
0.291908 0.081236 0.039918
0.299104 0.083940 0.041416
0.306241 0.086681 0.042949
0.313318 0.089456 0.044517
0.320335 0.092266 0.046118
0.327290 0.095107 0.047753
0.334183 0.097979 0.049421
0.341012 0.100879 0.051119
0.347779 0.103807 0.052849
0.354482 0.106760 0.054608
0.361120 0.109738 0.056397
0.367694 0.112738 0.058213
0.374204 0.115760 0.060057
0.380650 0.118803 0.061927
0.387030 0.121864 0.063823
0.013345 0.021285 0.006670
0.013398 0.021290 0.006677
0.013625 0.021315 0.006705
0.014075 0.021364 0.006763
0.014772 0.021442 0.006853
0.015727 0.021553 0.006981
0.016948 0.021700 0.007146
0.018449 0.021886 0.007349
0.020253 0.022113 0.007591
0.022388 0.022384 0.007870
0.024882 0.022700 0.008183
0.027756 0.023063 0.008528
0.031026 0.023476 0.008902
0.034696 0.023940 0.009302
0.038763 0.024458 0.009726
0.043216 0.025029 0.010170
0.048037 0.025658 0.010631
0.053207 0.026344 0.011109
0.058700 0.027089 0.011601
0.064491 0.027895 0.012108
0.070555 0.028763 0.012628
0.076866 0.029694 0.013162
0.083399 0.030690 0.013711
0.090129 0.031751 0.014276
0.097035 0.032877 0.014858
0.104093 0.034070 0.015459
0.111286 0.035331 0.016080
0.118593 0.036658 0.016725
0.125997 0.038053 0.017393
0.133484 0.039515 0.018089
0.141039 0.041043 0.018812
0.148647 0.042639 0.019566
0.156298 0.044300 0.020351
0.163980 0.046026 0.021169
0.171683 0.047817 0.022022
0.179398 0.049671 0.022910
0.187116 0.051587 0.023834
0.194831 0.053564 0.024796
0.202535 0.055600 0.025795
0.210223 0.057694 0.026833
0.217888 0.059845 0.027910
0.225525 0.062051 0.029026
0.233131 0.064310 0.030181
0.240700 0.066621 0.031374
0.248230 0.068983 0.032607
0.255717 0.071392 0.033879
0.263158 0.073849 0.035188
0.270551 0.076350 0.036536
0.277893 0.078895 0.037921
0.285181 0.081482 0.039344
0.292416 0.084108 0.040802
0.299593 0.086773 0.042296
0.306713 0.089474 0.043825
0.313774 0.092211 0.045389
0.320776 0.094981 0.046986
0.327716 0.097782 0.048616
0.334594 0.100614 0.050278
0.341410 0.103475 0.051971
0.348163 0.106364 0.053695
0.354853 0.109278 0.055448
0.361480 0.112217 0.057230
0.368043 0.115179 0.059040
0.374541 0.118163 0.060877
0.380976 0.121168 0.062741
0.387346 0.124191 0.064630
0.015672 0.025292 0.008931
0.015720 0.025298 0.008936
0.015922 0.025322 0.008957
0.016330 0.025371 0.009000
0.016974 0.025449 0.009068
0.017875 0.025561 0.009163
0.019053 0.025708 0.009288
0.020526 0.025894 0.009444
0.022318 0.026122 0.009629
0.024451 0.026393 0.009845
0.026949 0.026710 0.010089
0.029827 0.027075 0.010363
0.033096 0.027489 0.010663
0.036758 0.027955 0.010988
0.040808 0.028473 0.011338
0.045236 0.029047 0.011710
0.050025 0.029677 0.012103
0.055154 0.030364 0.012517
0.060602 0.031110 0.012950
0.066344 0.031916 0.013403
0.072355 0.032784 0.013875
0.078611 0.033714 0.014368
0.085087 0.034707 0.014880
0.091760 0.035764 0.015414
0.098608 0.036885 0.015970
0.105610 0.038071 0.016549
0.112746 0.039323 0.017153
0.119999 0.040639 0.017784
0.127350 0.042022 0.018442
0.134785 0.043469 0.019129
0.142289 0.044981 0.019847
0.149849 0.046557 0.020597
0.157454 0.048197 0.021380
0.165091 0.049900 0.022197
0.172751 0.051666 0.023049
0.180424 0.053493 0.023937
0.188103 0.055380 0.024862
0.195780 0.057326 0.025825
0.203448 0.059330 0.026825
0.211101 0.061390 0.027864
0.218732 0.063506 0.028941
0.226338 0.065675 0.030057
0.233913 0.067896 0.031212
0.241454 0.070168 0.032405
0.248956 0.072490 0.033637
0.256416 0.074858 0.034907
0.263832 0.077273 0.036215
0.271200 0.079733 0.037561
0.278519 0.082235 0.038943
0.285785 0.084778 0.040362
0.292998 0.087361 0.041817
0.300155 0.089981 0.043307
0.307256 0.092639 0.044831
0.314298 0.095331 0.046390
0.321281 0.098057 0.047981
0.328204 0.100814 0.049605
0.335066 0.103602 0.051261
0.341867 0.106419 0.052948
0.348605 0.109264 0.054665
0.355280 0.112134 0.056411
0.361893 0.115030 0.058186
0.368442 0.117949 0.059988
0.374928 0.120890 0.061818
0.381350 0.123852 0.063673
0.387709 0.126834 0.065554
0.018109 0.029857 0.010898
0.018154 0.029862 0.010902
0.018347 0.029886 0.010919
0.018738 0.029936 0.010953
0.019361 0.030014 0.011007
0.020242 0.030126 0.011083
0.021404 0.030273 0.011183
0.022870 0.030460 0.011307
0.024661 0.030688 0.011457
0.026799 0.030960 0.011633
0.029300 0.031277 0.011834
0.032179 0.031642 0.012062
0.035442 0.032056 0.012314
0.039090 0.032522 0.012591
0.043118 0.033040 0.012892
0.047514 0.033613 0.013217
0.052263 0.034241 0.013565
0.057347 0.034927 0.013937
0.062743 0.035670 0.014331
0.068428 0.036472 0.014748
0.074380 0.037335 0.015188
0.080573 0.038259 0.015651
0.086986 0.039244 0.016139
0.093595 0.040292 0.016651
0.100379 0.041402 0.017189
0.107318 0.042576 0.017754
0.114392 0.043813 0.018347
0.121583 0.045113 0.018968
0.128875 0.046476 0.019620
0.136252 0.047903 0.020302
0.143700 0.049393 0.021017
0.151206 0.050944 0.021765
0.158758 0.052558 0.022546
0.166345 0.054233 0.023363
0.173956 0.055968 0.024216
0.181584 0.057762 0.025105
0.189218 0.059615 0.026031
0.196852 0.061526 0.026994
0.204479 0.063492 0.027995
0.212093 0.065514 0.029035
0.219687 0.067589 0.030112
0.227257 0.069717 0.031228
0.234798 0.071896 0.032383
0.242306 0.074124 0.033575
0.249777 0.076401 0.034806
0.257207 0.078724 0.036074
0.264594 0.081093 0.037379
0.271935 0.083505 0.038721
0.279227 0.085960 0.040100
0.286469 0.088455 0.041515
0.293657 0.090990 0.042965
0.300792 0.093562 0.044450
0.307870 0.096171 0.045969
0.314892 0.098815 0.047522
0.321854 0.101492 0.049107
0.328758 0.104201 0.050725
0.335601 0.106940 0.052373
0.342384 0.109708 0.054053
0.349105 0.112505 0.055762
0.355764 0.115327 0.057500
0.362361 0.118175 0.059266
0.368895 0.121047 0.061060
0.375367 0.123941 0.062880
0.381775 0.126857 0.064727
0.388120 0.129792 0.066598
0.020762 0.034985 0.012698
0.020806 0.034990 0.012702
0.020996 0.035014 0.012716
0.021383 0.035063 0.012744
0.022000 0.035142 0.012790
0.022876 0.035253 0.012854
0.024037 0.035400 0.012939
0.025504 0.035586 0.013045
0.027299 0.035813 0.013174
0.029441 0.036083 0.013325
0.031943 0.036399 0.013501
0.034817 0.036761 0.013700
0.038069 0.037173 0.013923
0.041696 0.037636 0.014170
0.045695 0.038150 0.014441
0.050053 0.038719 0.014737
0.054756 0.039341 0.015057
0.059786 0.040020 0.015402
0.065124 0.040756 0.015771
0.070746 0.041550 0.016165
0.076631 0.042403 0.016585
0.082756 0.043315 0.017030
0.089098 0.044287 0.017502
0.095637 0.045320 0.018002
0.102350 0.046414 0.018529
0.109219 0.047569 0.019085
0.116224 0.048786 0.019671
0.123348 0.050064 0.020287
0.130574 0.051404 0.020935
0.137887 0.052804 0.021615
0.145273 0.054266 0.022328
0.152719 0.055788 0.023076
0.160213 0.057370 0.023858
0.167744 0.059011 0.024675
0.175302 0.060710 0.025528
0.182878 0.062468 0.026418
0.190464 0.064282 0.027345
0.198050 0.066151 0.028310
0.205632 0.068076 0.029312
