agx_rec709_proxy.cube
# Created by DaVinci Flow AgX Pipeline Generator
# Mode: AgX Video Proxy (Rec709 to Rec709)
LUT_3D_SIZE 5
0.000000 0.000000 0.000000
0.040178 0.007572 0.000000
0.151734 0.028778 0.016277
0.275439 0.065347 0.033929
0.385929 0.113546 0.060997
0.030512 0.053453 0.018024
0.063743 0.057556 0.020063
0.165499 0.074297 0.028715
0.282925 0.104513 0.046149
0.390276 0.144688 0.072025
0.119840 0.189389 0.069023
0.141939 0.191450 0.070798
0.215395 0.200032 0.078220
0.312137 0.216390 0.092488
0.407867 0.240028 0.113309
0.228847 0.327018 0.146200
0.241801 0.328056 0.147392
0.289345 0.332436 0.152410
0.360925 0.341048 0.162217
0.439368 0.354092 0.176932
0.331298 0.444024 0.227943
0.339174 0.444599 0.228729
0.369758 0.447041 0.232057
0.420319 0.451906 0.238650
0.481006 0.459437 0.248758
0.009658 0.017836 0.055497
0.045510 0.022232 0.057385
0.154830 0.040932 0.065289
0.277100 0.075996 0.080480
0.386888 0.121904 0.102569
0.035947 0.064694 0.066802
0.068596 0.068596 0.068596
0.168384 0.084495 0.076098
0.284526 0.113267 0.090516
0.391215 0.151815 0.111541
0.123491 0.195072 0.109094
0.145195 0.197075 0.110540
0.217636 0.205420 0.116607
0.313523 0.221356 0.128364
0.408725 0.244444 0.145778
0.230942 0.329893 0.173913
0.243765 0.330916 0.174947
0.290895 0.335235 0.179307
0.362012 0.343730 0.187874
0.440099 0.356606 0.200837
0.332558 0.445621 0.246664
0.340385 0.446191 0.247380
0.370798 0.448612 0.250413
0.421125 0.453439 0.256436
0.481594 0.460911 0.265705
0.034352 0.068162 0.194738
0.067181 0.072001 0.195668
0.167540 0.087640 0.199595
0.284057 0.115978 0.207337
0.390939 0.154034 0.219118
0.058387 0.106822 0.200354
0.088139 0.109976 0.201257
0.180263 0.122910 0.205075
0.291235 0.146757 0.212610
0.395180 0.179644 0.224091
0.138366 0.217690 0.222724
0.158533 0.219477 0.223530
0.226946 0.226946 0.226946
0.319344 0.241303 0.233708
0.412356 0.262307 0.244063
0.239662 0.341747 0.261629
0.251954 0.342712 0.262293
0.297399 0.346786 0.265111
0.366598 0.354815 0.270714
0.443194 0.367018 0.279360
0.337860 0.452305 0.311437
0.345487 0.452856 0.311956
0.375187 0.455195 0.314160
0.424535 0.459860 0.318564
0.484088 0.467090 0.325410
0.078148 0.144670 0.334097
0.105260 0.147261 0.334561
0.191050 0.157970 0.336532
0.297486 0.178050 0.340476
0.398921 0.206399 0.346625
0.098026 0.171464 0.336915
0.122634 0.173723 0.337372
0.202373 0.183098 0.339316
0.304209 0.200861 0.343206
0.402995 0.226304 0.349273
0.165436 0.256957 0.348542
0.183088 0.258426 0.348973
0.244611 0.264591 0.350808
0.330672 0.276559 0.354483
0.419530 0.294324 0.360223
0.256282 0.363859 0.370260
0.267622 0.364722 0.370647
0.309993 0.368376 0.372294
0.375597 0.375598 0.375598
0.449332 0.386624 0.380768
0.348215 0.465203 0.400705
0.355466 0.465718 0.401037
0.383815 0.467906 0.402451
0.431283 0.472274 0.405291
0.489054 0.479054 0.409749
0.133104 0.225929 0.451821
0.153802 0.227644 0.452076
0.223619 0.234818 0.453165
0.317252 0.248638 0.455358
0.411047 0.268924 0.458811
0.148213 0.244054 0.453378
0.167425 0.245620 0.453631
0.233266 0.252186 0.454711
0.323355 0.264893 0.456886
0.414880 0.283672 0.460312
0.202139 0.307128 0.459897
0.216890 0.308274 0.460142
0.269965 0.313101 0.461186
0.347552 0.322563 0.463289
0.430479 0.336822 0.466603
0.280285 0.394793 0.472490
0.290379 0.395532 0.472719
0.328620 0.398665 0.473697
0.389190 0.404879 0.475666
0.458756 0.414423 0.478773
0.363733 0.484163 0.491029
0.370451 0.484629 0.491237
0.396874 0.486609 0.492123
0.441606 0.490569 0.493910
0.496730 0.496731 0.496731
