agx_srgb_img.cube
# Created by DaVinci Flow AgX Pipeline Generator
# Mode: AgX Image Stills (sRGB to Rec709)
LUT_3D_SIZE 5
0.000000 0.000000 0.000000
0.054115 0.010904 0.003091
0.164858 0.031783 0.017709
0.281596 0.067650 0.035121
0.385929 0.113546 0.060997
0.040842 0.071722 0.023199
0.084992 0.077048 0.026063
0.182889 0.093221 0.035269
0.291816 0.120520 0.052254
0.392063 0.156323 0.076459
0.131042 0.204429 0.076352
0.160047 0.207131 0.078774
0.231577 0.215556 0.086348
0.321478 0.230567 0.099905
0.410542 0.251779 0.119164
0.234444 0.333665 0.150464
0.252085 0.335087 0.152114
0.300028 0.339579 0.157314
0.367828 0.347807 0.166779
0.441332 0.359912 0.180576
0.331298 0.444024 0.227943
0.342371 0.444839 0.229056
0.374245 0.447429 0.232584
0.423322 0.452232 0.239090
0.481006 0.459437 0.248758
0.012930 0.022937 0.074380
0.061263 0.029145 0.076826
0.168947 0.048814 0.084473
0.283876 0.082419 0.098159
0.387287 0.125286 0.117586
0.048358 0.086204 0.088885
0.091158 0.091158 0.091158
0.186621 0.106236 0.098271
0.293984 0.131851 0.111039
0.393380 0.165775 0.129257
0.135906 0.211859 0.129176
0.164238 0.214462 0.131019
0.234499 0.222587 0.136813
0.323350 0.237095 0.147312
0.411741 0.257659 0.162510
0.237325 0.337597 0.187911
0.254724 0.338991 0.189273
0.302110 0.343398 0.193579
0.369315 0.351474 0.201472
0.442356 0.363364 0.213097
0.333081 0.446283 0.253985
0.344059 0.447088 0.254963
0.375685 0.449648 0.258066
0.424445 0.454397 0.263804
0.481838 0.461522 0.272374
0.038060 0.075414 0.210024
0.082693 0.080644 0.211242
0.181510 0.096534 0.215099
0.291020 0.123395 0.222191
0.391580 0.158712 0.232693
0.071049 0.126457 0.217358
0.109696 0.130481 0.218532
0.198129 0.142843 0.222251
0.300784 0.164244 0.229097
0.397544 0.193318 0.239249
0.150722 0.233966 0.239203
0.177098 0.236297 0.240255
0.243593 0.243593 0.243593
0.329239 0.256699 0.249755
0.415539 0.275432 0.258933
0.246293 0.349710 0.274931
0.262961 0.351022 0.275812
0.308644 0.355175 0.278611
0.374010 0.362798 0.283798
0.445606 0.374051 0.291572
0.338695 0.453353 0.320110
0.349379 0.454129 0.320814
0.380234 0.456598 0.323055
0.428006 0.461179 0.327224
0.484484 0.468061 0.333512
0.080828 0.148903 0.340802
0.117741 0.152487 0.341437
0.203260 0.163551 0.343461
0.303869 0.182887 0.347231
0.399451 0.209493 0.352930
0.108077 0.185142 0.344655
0.140479 0.188121 0.345278
0.218207 0.197379 0.347263
0.313042 0.213775 0.350963
0.405186 0.236748 0.356558
0.175959 0.270060 0.356532
0.199316 0.272008 0.357119
0.259731 0.278130 0.358991
0.339923 0.289220 0.362482
0.422523 0.305263 0.367768
0.262223 0.370781 0.377225
0.277666 0.371963 0.377754
0.320447 0.375706 0.379442
0.382595 0.382596 0.382596
0.451603 0.392809 0.387380
0.348899 0.466047 0.405527
0.359065 0.466773 0.405986
0.388560 0.469085 0.407451
0.434565 0.473379 0.410190
0.489387 0.479839 0.414357
0.133104 0.225929 0.451821
0.161821 0.228355 0.452183
0.232812 0.235942 0.453339
0.322268 0.249542 0.455505
0.411047 0.268924 0.458811
0.154183 0.251156 0.454023
0.180123 0.253295 0.454381
0.245759 0.260007 0.455524
0.330656 0.272112 0.457666
0.416458 0.289520 0.460935
0.209541 0.315611 0.460920
0.229419 0.317166 0.461265
0.282400 0.322072 0.462368
0.355412 0.331033 0.464435
0.432864 0.344160 0.467591
0.284628 0.399548 0.473315
0.298496 0.400571 0.473638
0.337449 0.403814 0.474672
0.395192 0.409805 0.476610
0.460533 0.418732 0.479571
0.363733 0.484163 0.491029
0.373189 0.484823 0.491324
0.400794 0.486925 0.492264
0.444300 0.490835 0.494030
0.496730 0.496731 0.496731
