agx_srgb_img.cube
# Created by DaVinci Flow AgX Pipeline Generator
# Mode: AgX Image Stills (sRGB to Rec709)
LUT_3D_SIZE 9
0.000000 0.000000 0.000000
0.019473 0.000000 0.000000
0.054115 0.010904 0.003091
0.106132 0.019821 0.011390
0.164858 0.031783 0.017709
0.224275 0.047977 0.025303
0.281596 0.067650 0.035121
0.335622 0.089793 0.047131
0.385929 0.113546 0.060997
0.015482 0.024949 0.008761
0.029404 0.026700 0.010197
0.063291 0.031164 0.013068
0.113236 0.039092 0.017115
0.170115 0.050746 0.022674
0.228175 0.065921 0.030255
0.284532 0.084073 0.040037
0.337870 0.104521 0.051877
0.387678 0.126610 0.065475
0.040842 0.071722 0.023199
0.054178 0.073238 0.024006
0.084992 0.077048 0.026063
0.130210 0.083666 0.029740
0.182889 0.093221 0.035269
0.237770 0.105603 0.042778
0.291816 0.120520 0.052254
0.343481 0.137573 0.063558
0.392063 0.156323 0.076459
0.081820 0.135970 0.045523
0.092913 0.137058 0.046309
0.118559 0.139801 0.048301
0.157184 0.144596 0.051817
0.203787 0.151595 0.057017
0.253814 0.160799 0.063965
0.304187 0.172096 0.072634
0.353113 0.185283 0.082920
0.399649 0.200104 0.094659
0.131042 0.204429 0.076352
0.139676 0.205195 0.077039
0.160047 0.207131 0.078774
0.191787 0.210537 0.081833
0.231577 0.215556 0.086348
0.275768 0.222239 0.092375
0.321478 0.230567 0.099905
0.366787 0.240457 0.108872
0.410542 0.251779 0.119164
0.182913 0.271110 0.112222
0.189552 0.271659 0.112792
0.205502 0.273048 0.114235
0.231098 0.275502 0.116783
0.264315 0.279140 0.120553
0.302445 0.284025 0.125607
0.343010 0.290176 0.131955
0.384138 0.297568 0.139563
0.424564 0.306146 0.148364
0.234444 0.333665 0.150464
0.239580 0.334067 0.150931
0.252085 0.335087 0.152114
0.272617 0.336893 0.154207
0.300028 0.339579 0.157314
0.332426 0.343208 0.161497
0.367828 0.347807 0.166779
0.404551 0.353382 0.173151
0.441332 0.359912 0.180576
0.284140 0.391328 0.189381
0.288159 0.391629 0.189764
0.298041 0.392394 0.190733
0.314543 0.393750 0.192451
0.337074 0.395774 0.195008
0.364366 0.398517 0.198463
0.394911 0.402010 0.202845
0.427290 0.406269 0.208160
0.460332 0.411290 0.214392
0.331298 0.444024 0.227943
0.334483 0.444254 0.228257
0.342371 0.444839 0.229056
0.355712 0.445877 0.230472
0.374245 0.447429 0.232584
0.397150 0.449537 0.235446
0.423322 0.452232 0.239090
0.451614 0.455530 0.243528
0.481006 0.459437 0.248758
0.000000 0.008616 0.025817
0.021646 0.011509 0.026626
0.056153 0.016695 0.028687
0.107709 0.024687 0.032366
0.166020 0.036651 0.037880
0.225135 0.052639 0.045341
0.282242 0.071926 0.054731
0.336116 0.093621 0.065915
0.386313 0.116931 0.078673
0.017750 0.029826 0.030770
0.031580 0.031580 0.031580
0.065249 0.036035 0.033641
0.114756 0.043891 0.037304
0.171246 0.055357 0.042766
0.229018 0.070233 0.050118
0.285168 0.088014 0.059335
0.338359 0.108069 0.070291
0.388059 0.129773 0.082784
0.042980 0.075914 0.043281
0.056216 0.077400 0.044073
0.086751 0.081131 0.046080
0.131600 0.087616 0.049625
0.183949 0.096983 0.054871
0.238573 0.109131 0.061884
0.292430 0.123784 0.070638
0.343956 0.140561 0.081024
0.392435 0.159036 0.092875
0.083608 0.138983 0.064428
0.094601 0.140055 0.065155
0.120037 0.142755 0.066995
0.158393 0.147478 0.070235
0.204740 0.154374 0.075018
0.254556 0.163451 0.081398
0.304765 0.174599 0.089359
0.353566 0.187623 0.098821
0.400007 0.202275 0.109654
0.132427 0.206553 0.092777
0.141000 0.207311 0.093408
0.161238 0.209226 0.095005
0.192799 0.212597 0.097820
0.232406 0.217564 0.101980
0.276433 0.224182 0.107543
0.322008 0.232430 0.114510
0.367210 0.242231 0.122830
0.410881 0.253455 0.132414
0.183972 0.272633 0.125945
0.190576 0.273177 0.126476
0.206447 0.274556 0.127820
0.231929 0.276992 0.130193
0.265019 0.280603 0.133710
0.303027 0.285453 0.138432
0.343486 0.291561 0.144375
0.384526 0.298904 0.151515
0.424880 0.307426 0.159798
0.235261 0.334782 0.161777
0.240376 0.335182 0.162218
0.252833 0.336196 0.163334
0.273292 0.337992 0.165310
0.300617 0.340664 0.168245
0.332928 0.344273 0.172201
0.368249 0.348848 0.177204
0.404900 0.354394 0.183249
0.441621 0.360891 0.190307
0.284778 0.392165 0.198694
0.288784 0.392465 0.199059
0.298636 0.393226 0.199984
0.315092 0.394577 0.201623
0.337565 0.396592 0.204065
0.364794 0.399324 0.207365
0.395278 0.402803 0.211556
0.427601 0.407045 0.216645
0.460594 0.412046 0.222620
0.331802 0.444664 0.235639
0.334980 0.444893 0.235941
0.342849 0.445476 0.236710
0.356158 0.446511 0.238073
0.374652 0.448057 0.240107
0.397513 0.450159 0.242863
0.423639 0.452845 0.246375
0.451889 0.456132 0.250656
0.481241 0.460027 0.255706
0.012930 0.022937 0.074380
0.027170 0.024685 0.075073
0.061263 0.029145 0.076826
0.111664 0.037091 0.079915
0.168947 0.048814 0.084473
0.227306 0.064112 0.090558
0.283876 0.082419 0.098159
0.337368 0.103035 0.107206
0.387287 0.125286 0.117586
0.023296 0.042172 0.078580
0.037104 0.043889 0.079259
0.070151 0.048219 0.080975
0.118569 0.055771 0.084000
0.174096 0.066696 0.088466
0.231147 0.080813 0.094428
0.286779 0.097699 0.101880
0.339596 0.116813 0.110757
0.389024 0.137596 0.120950
0.048358 0.086204 0.088885
0.061324 0.087614 0.089529
0.091158 0.091158 0.091158
0.135095 0.097320 0.094029
0.186621 0.106236 0.098271
0.240604 0.117827 0.103942
0.293984 0.131851 0.111039
0.345160 0.147964 0.119509
0.393380 0.165775 0.129257
0.088085 0.146446 0.106001
0.098834 0.147477 0.106590
0.123747 0.150076 0.108081
0.161436 0.154625 0.110712
0.207145 0.161275 0.114603
0.256431 0.170040 0.119815
0.306227 0.180827 0.126355
0.354714 0.193457 0.134185
0.400916 0.207695 0.143229
0.135906 0.211859 0.129176
0.144328 0.212596 0.129697
0.164238 0.214462 0.131019
0.195354 0.217746 0.133353
0.234499 0.222587 0.136813
0.278115 0.229042 0.141460
0.323350 0.237095 0.147312
0.368282 0.246675 0.154346
0.411741 0.257659 0.162510
0.186644 0.276458 0.156993
0.193159 0.276992 0.157444
0.208831 0.278345 0.158588
0.234027 0.280735 0.160613
0.266799 0.284280 0.163619
0.304502 0.289044 0.167670
0.344693 0.295045 0.172788
0.385509 0.302264 0.178970
0.425681 0.310648 0.186181
0.237325 0.337597 0.187911
0.242388 0.337991 0.188296
0.254724 0.338991 0.189273
0.275000 0.340762 0.191004
0.302110 0.343398 0.193579
0.334199 0.346958 0.197059
0.369315 0.351474 0.201472
0.405787 0.356948 0.206824
0.442356 0.363364 0.213097
0.286392 0.394280 0.220588
0.290367 0.394577 0.220914
0.300143 0.395330 0.221743
0.316481 0.396666 0.223212
0.338807 0.398661 0.225402
0.365879 0.401364 0.228368
0.396209 0.404808 0.232142
0.428391 0.409007 0.236736
0.461260 0.413959 0.242145
0.333081 0.446283 0.253985
0.336239 0.446510 0.254262
0.344059 0.447088 0.254963
0.357291 0.448114 0.256207
0.375685 0.449648 0.258066
0.398434 0.451732 0.260587
0.424445 0.454397 0.263804
0.452586 0.457658 0.267732
0.481838 0.461522 0.272374
0.023226 0.044942 0.140296
0.037034 0.046644 0.140788
0.070089 0.050932 0.142036
0.118521 0.058403 0.144240
0.174060 0.069200 0.147511
0.231120 0.083149 0.151909
0.286758 0.099841 0.157456
0.339581 0.118752 0.164136
0.389012 0.139336 0.171906
0.033165 0.063105 0.143287
0.046800 0.064685 0.143771
0.078612 0.068655 0.145000
0.125186 0.075552 0.147171
0.179078 0.085502 0.150393
0.234889 0.098374 0.154726
0.289620 0.113843 0.160194
0.341785 0.131476 0.166782
0.390735 0.150801 0.174449
0.057690 0.103302 0.150696
0.070147 0.104593 0.151163
0.098775 0.107839 0.152345
0.141172 0.113495 0.154435
0.191296 0.121702 0.157539
0.244174 0.132415 0.161717
0.296726 0.145444 0.166993
0.347289 0.160499 0.173358
0.395053 0.177241 0.180775
0.095823 0.159077 0.163242
0.106159 0.160043 0.163679
0.130190 0.162479 0.164788
0.166748 0.166748 0.166748
0.211363 0.173001 0.169662
0.259732 0.181265 0.173590
0.308808 0.191465 0.178557
0.356744 0.203448 0.184561
0.402527 0.217008 0.191573
0.141959 0.220982 0.180713
0.150125 0.221686 0.181113
0.169475 0.223469 0.182126
0.199829 0.226608 0.183921
0.238179 0.231240 0.186591
0.281080 0.237425 0.190195
0.325722 0.245154 0.194763
0.370179 0.254363 0.200298
0.413266 0.264944 0.206778
0.191319 0.283102 0.202392
0.197684 0.283619 0.202750
0.213014 0.284929 0.203658
0.237716 0.287243 0.205267
0.269935 0.290676 0.207664
0.307105 0.295292 0.210905
0.346827 0.301112 0.215022
0.387249 0.308120 0.220024
0.427101 0.316268 0.225899
0.240954 0.342521 0.227315
0.245927 0.342905 0.227631
0.258054 0.343881 0.228432
0.278012 0.345610 0.229853
0.304744 0.348183 0.231972
0.336447 0.351660 0.234842
0.371203 0.356072 0.238497
0.407359 0.361424 0.242948
0.443660 0.367700 0.248193
0.289239 0.397996 0.254493
0.293158 0.398288 0.254769
0.302803 0.399027 0.255468
0.318935 0.400339 0.256709
0.341004 0.402296 0.258563
0.367799 0.404950 0.261078
0.397859 0.408333 0.264287
0.429792 0.412458 0.268206
0.462442 0.417325 0.272837
0.335341 0.449137 0.283039
0.338464 0.449361 0.283278
0.346200 0.449930 0.283885
0.359295 0.450941 0.284963
0.377514 0.452453 0.286574
0.400065 0.454507 0.288764
0.425875 0.457133 0.291563
0.453822 0.460349 0.294988
0.482899 0.464160 0.299048
0.038060 0.075414 0.210024
0.051515 0.076903 0.210369
0.082693 0.080644 0.211242
0.128396 0.087145 0.212791
0.181510 0.096534 0.215099
0.236726 0.108710 0.218222
0.291020 0.123395 0.222191
0.342865 0.140204 0.227018
0.391580 0.158712 0.232693
0.047798 0.091232 0.212121
0.060794 0.092606 0.212461
0.090700 0.096060 0.213326
0.134731 0.102070 0.214858
0.186342 0.110772 0.217142
0.240392 0.122098 0.220234
0.293822 0.135823 0.224163
0.345034 0.151619 0.228943
0.393281 0.169111 0.234564
0.071049 0.126457 0.217358
0.082748 0.127601 0.217690
0.109696 0.130481 0.218532
0.149970 0.135513 0.220025
0.198129 0.142843 0.222251
0.249429 0.152465 0.225264
0.300784 0.164244 0.229097
0.350450 0.177955 0.233761
0.397544 0.193318 0.239249
0.106909 0.176655 0.226369
0.116677 0.177537 0.226686
0.139494 0.179765 0.227491
0.174477 0.183675 0.228918
0.217546 0.189416 0.231047
0.264599 0.197028 0.233931
0.312631 0.206460 0.237602
0.359761 0.217591 0.242073
0.404927 0.230246 0.247341
0.150722 0.233966 0.239203
0.158532 0.234626 0.239501
0.177098 0.236297 0.240255
0.206377 0.239242 0.241595
0.243593 0.243593 0.243593
0.285462 0.249412 0.246302
0.329239 0.256699 0.249755
0.373001 0.265403 0.253965
0.415539 0.275432 0.258933
0.198151 0.292706 0.255566
0.204302 0.293198 0.255840
0.219146 0.294447 0.256535
0.243142 0.296655 0.257770
0.274564 0.299932 0.259614
0.310960 0.304343 0.262116
0.349996 0.309910 0.265309
0.389840 0.316624 0.269208
0.429220 0.324441 0.273816
0.246293 0.349710 0.274931
0.251137 0.350081 0.275180
0.262961 0.351022 0.275812
0.282460 0.352690 0.276934
0.308644 0.355175 0.278611
0.339783 0.358533 0.280888
0.374010 0.362798 0.283798
0.409700 0.367975 0.287357
0.445606 0.374051 0.291572
0.293448 0.403460 0.296663
0.297287 0.403743 0.296886
0.306741 0.404463 0.297454
0.322572 0.405739 0.298461
0.344266 0.407644 0.299969
0.370655 0.410227 0.302018
0.400315 0.413521 0.304639
0.431881 0.417539 0.307851
0.464207 0.422283 0.311661
0.338695 0.453353 0.320110
0.341767 0.453572 0.320309
0.349379 0.454129 0.320814
0.362274 0.455119 0.321711
0.380234 0.456598 0.323055
0.402494 0.458608 0.324883
0.428006 0.461179 0.327224
0.455668 0.464328 0.330097
0.484484 0.468061 0.333512
0.057674 0.110952 0.277618
0.070132 0.112192 0.277863
0.098762 0.115312 0.278487
0.141162 0.120754 0.279594
0.191289 0.128661 0.281249
0.244168 0.139001 0.283497
0.296722 0.151605 0.286369
0.347285 0.166205 0.289884
0.395050 0.182482 0.294046
0.066708 0.124189 0.279114
0.078654 0.125346 0.279358
0.106141 0.128260 0.279977
0.147095 0.133350 0.281076
0.195888 0.140762 0.282719
0.247701 0.150486 0.284951
0.299446 0.162382 0.287802
0.349407 0.176220 0.291292
0.396721 0.191715 0.295426
0.088063 0.154251 0.282874
0.098813 0.155241 0.283113
0.123729 0.157738 0.283721
0.161421 0.162112 0.284800
0.207133 0.168514 0.286412
0.256421 0.176966 0.288604
0.306219 0.187386 0.291405
0.354708 0.199613 0.294833
0.400912 0.213429 0.298895
0.121140 0.198450 0.289410
0.130222 0.199240 0.289641
0.151565 0.201235 0.290229
0.184605 0.204744 0.291274
0.225725 0.209909 0.292836
0.271089 0.216783 0.294959
0.317760 0.225338 0.297673
0.363826 0.235484 0.300997
0.408171 0.247083 0.304938
0.162129 0.250505 0.298861
0.169501 0.251113 0.299082
0.187095 0.252651 0.299643
0.215020 0.255367 0.300640
0.250788 0.259384 0.302131
0.291322 0.264768 0.304159
0.333966 0.271526 0.306752
0.376808 0.279623 0.309931
0.418614 0.288983 0.313702
0.207154 0.305175 0.311144
0.213035 0.305638 0.311352
0.227261 0.306812 0.311880
0.250353 0.308889 0.312818
0.280745 0.311974 0.314222
0.316131 0.316131 0.316132
0.354263 0.321386 0.318576
0.393341 0.327733 0.321575
0.432088 0.335138 0.325136
0.253394 0.359169 0.326001
0.258070 0.359523 0.326194
0.269504 0.360421 0.326684
0.288407 0.362013 0.327556
0.313874 0.364385 0.328861
0.344270 0.367594 0.330637
0.377798 0.371671 0.332913
0.412868 0.376625 0.335706
0.448243 0.382447 0.339027
0.299083 0.410717 0.343059
0.302817 0.410990 0.343236
0.312020 0.411683 0.343687
0.327456 0.412914 0.344488
0.348655 0.414750 0.345687
0.374506 0.417243 0.347321
0.403636 0.420421 0.349416
0.434711 0.424302 0.351990
0.466602 0.428886 0.355054
0.343207 0.458990 0.361888
0.346211 0.459203 0.362049
0.353659 0.459744 0.362459
0.366290 0.460705 0.363189
0.383906 0.462142 0.364282
0.405779 0.464095 0.365771
0.430893 0.466594 0.367682
0.458172 0.469655 0.370033
0.486637 0.473285 0.372834
0.080828 0.148903 0.340802
0.091976 0.149921 0.340982
0.117741 0.152487 0.341437
0.156515 0.156980 0.342248
0.203260 0.163551 0.343461
0.253404 0.172217 0.345113
0.303869 0.182887 0.347231
0.352864 0.195389 0.349833
0.399451 0.209493 0.352930
0.088911 0.159829 0.341896
0.099615 0.160790 0.342075
0.124433 0.163217 0.342528
0.162000 0.167470 0.343334
0.207592 0.173701 0.344540
0.256779 0.181935 0.346184
0.306499 0.192101 0.348290
0.354927 0.204047 0.350879
0.401086 0.217567 0.353960
0.108077 0.185142 0.344655
0.117786 0.185987 0.344831
0.140479 0.188121 0.345278
0.175300 0.191869 0.346072
0.218207 0.197379 0.347263
0.265121 0.204694 0.348884
0.313042 0.213775 0.350963
0.360086 0.224513 0.353517
0.405186 0.236748 0.356558
0.138110 0.223488 0.349481
0.146438 0.224184 0.349653
0.166141 0.225944 0.350090
0.196978 0.229045 0.350866
0.235833 0.233621 0.352028
0.279189 0.239734 0.353611
0.324208 0.247375 0.355641
0.368968 0.256485 0.358137
0.412292 0.266958 0.361109
0.175959 0.270060 0.356532
0.182834 0.270611 0.356698
0.199316 0.272008 0.357119
0.225673 0.274474 0.357869
0.259731 0.278130 0.358991
0.298660 0.283040 0.360520
0.339923 0.289220 0.362482
0.381629 0.296647 0.364894
0.422523 0.305263 0.367768
0.218226 0.320243 0.365817
0.223792 0.320672 0.365976
0.237293 0.321762 0.366378
0.259315 0.323691 0.367093
0.288472 0.326559 0.368165
0.322631 0.330428 0.369626
0.359653 0.335326 0.371500
0.397780 0.341254 0.373807
0.435739 0.348184 0.376556
0.262223 0.370781 0.377225
0.266701 0.371115 0.377374
0.277666 0.371963 0.377754
0.295850 0.373466 0.378430
0.320447 0.375706 0.379442
0.349932 0.378739 0.380823
0.382595 0.382596 0.382596
0.416892 0.387288 0.384777
0.451603 0.392809 0.387380
0.306148 0.419727 0.390550
0.309754 0.419987 0.390690
0.318653 0.420650 0.391045
0.333606 0.421825 0.391677
0.354197 0.423580 0.392625
0.379383 0.425963 0.393917
0.407852 0.429004 0.395577
0.438313 0.432719 0.397621
0.469657 0.437112 0.400060
0.348899 0.466047 0.405527
0.351819 0.466252 0.405657
0.359065 0.466773 0.405986
0.371369 0.467699 0.406572
0.388560 0.469085 0.407451
0.409950 0.470968 0.408649
0.434565 0.473379 0.410190
0.461364 0.476333 0.412089
0.489387 0.479839 0.414357
0.106290 0.187574 0.398878
0.116089 0.188408 0.399012
0.138973 0.190516 0.399352
0.174042 0.194220 0.399958
0.217196 0.199665 0.400867
0.264323 0.206897 0.402106
0.312414 0.215880 0.403699
0.359589 0.226508 0.405661
0.404790 0.238624 0.408004
0.113389 0.196576 0.399696
0.122838 0.197373 0.399829
0.144973 0.199387 0.400168
0.179060 0.202929 0.400772
0.221236 0.208141 0.401677
0.267520 0.215075 0.402911
0.314935 0.223703 0.404497
0.361585 0.233930 0.406451
0.406381 0.245617 0.408785
0.130349 0.217789 0.401762
0.139014 0.218505 0.401895
0.159451 0.220316 0.402230
0.191280 0.223505 0.402828
0.231163 0.228209 0.403723
0.275436 0.234487 0.404945
0.321214 0.242328 0.406515
0.366576 0.251665 0.408449
0.410373 0.262386 0.410759
0.157305 0.250771 0.405396
0.164859 0.251378 0.405525
0.182858 0.252915 0.405855
0.211349 0.255626 0.406441
0.247725 0.259639 0.407320
0.288822 0.265015 0.408520
0.331947 0.271766 0.410062
0.375180 0.279853 0.411962
0.417297 0.289202 0.414231
0.191888 0.291981 0.410739
0.198235 0.292476 0.410865
0.213524 0.293729 0.411186
0.238167 0.295944 0.411757
0.270319 0.299233 0.412613
0.307424 0.303659 0.413781
0.347089 0.309246 0.415282
0.387463 0.315981 0.417132
0.427276 0.323823 0.419342
0.231181 0.337525 0.417841
0.236401 0.337919 0.417963
0.249101 0.338920 0.418272
0.269924 0.340691 0.418823
0.297681 0.343328 0.419648
0.330430 0.346889 0.420775
0.366157 0.351406 0.422223
0.403163 0.356883 0.424009
0.440183 0.363301 0.426144
0.272684 0.384333 0.426664
0.276937 0.384645 0.426781
0.287371 0.385437 0.427076
0.304735 0.386841 0.427603
0.328328 0.388937 0.428392
0.356755 0.391775 0.429470
0.388402 0.395389 0.430855
0.421782 0.399791 0.432564
0.455700 0.404978 0.434607
0.314598 0.430377 0.437104
0.318058 0.430624 0.437214
0.326604 0.431251 0.437494
0.340997 0.432365 0.437993
0.360878 0.434028 0.438741
0.385282 0.436287 0.439763
0.412970 0.439172 0.441078
0.442699 0.442699 0.442699
0.473388 0.446873 0.444639
0.355756 0.474470 0.449001
0.358579 0.474666 0.449104
0.365588 0.475165 0.449368
0.377507 0.476051 0.449837
0.394196 0.477376 0.450541
0.415014 0.479180 0.451502
0.439036 0.481488 0.452739
0.465260 0.484319 0.454266
0.492750 0.487681 0.456093
0.133104 0.225929 0.451821
0.141647 0.226617 0.451923
0.161821 0.228355 0.452183
0.193295 0.231419 0.452645
0.232812 0.235942 0.453339
0.276759 0.241985 0.454286
0.322268 0.249542 0.455505
0.367417 0.258556 0.457010
0.411047 0.268924 0.458811
0.139287 0.233373 0.452445
0.147566 0.234036 0.452547
0.167160 0.235711 0.452805
0.197849 0.238664 0.453266
0.236549 0.243028 0.453958
0.279765 0.248863 0.454902
0.324670 0.256170 0.456117
0.369337 0.264897 0.457617
0.412588 0.274950 0.459413
0.154183 0.251156 0.454023
0.161858 0.251762 0.454124
0.180123 0.253295 0.454381
0.208985 0.256002 0.454838
0.245759 0.260007 0.455524
0.287222 0.265374 0.456461
0.330656 0.272112 0.457666
0.374140 0.280186 0.459154
0.416458 0.289520 0.460935
0.178195 0.279411 0.456807
0.184993 0.279937 0.456906
0.201302 0.281270 0.457159
0.227412 0.283627 0.457610
0.261198 0.287121 0.458286
0.299870 0.291819 0.459209
0.340909 0.297739 0.460397
0.382429 0.304864 0.461864
0.423174 0.313142 0.463620
0.209541 0.315611 0.460920
0.215352 0.316051 0.461018
0.229419 0.317166 0.461265
0.252277 0.319139 0.461706
0.282400 0.322072 0.462368
0.317520 0.326028 0.463272
0.355412 0.331033 0.464435
0.394285 0.337087 0.465871
0.432864 0.344160 0.467591
0.245776 0.356581 0.466423
0.250631 0.356940 0.466517
0.262485 0.357850 0.466758
0.282028 0.359462 0.467186
0.308265 0.361865 0.467829
0.339458 0.365114 0.468708
0.373737 0.369241 0.469838
0.409472 0.374256 0.471235
0.445416 0.380146 0.472907
0.284628 0.399548 0.473315
0.288637 0.399837 0.473406
0.298496 0.400571 0.473638
0.314963 0.401872 0.474052
0.337449 0.403814 0.474672
0.364693 0.406448 0.475519
0.395192 0.409805 0.476610
0.427528 0.413900 0.477957
0.460533 0.418732 0.479571
0.324349 0.442504 0.481548
0.327646 0.442736 0.481635
0.335802 0.443325 0.481857
0.349571 0.444371 0.482253
0.368657 0.445935 0.482847
0.392179 0.448060 0.483658
0.418976 0.450775 0.484703
0.447865 0.454098 0.485994
0.477796 0.458034 0.487541
0.363733 0.484163 0.491029
0.366446 0.484349 0.491112
0.373189 0.484823 0.491324
0.384674 0.485665 0.491700
0.400794 0.486925 0.492264
0.420959 0.488639 0.493036
0.444300 0.490835 0.494030
0.469859 0.493529 0.495259
0.496730 0.496731 0.496731
