agx_rec709_proxy.cube
# Created by DaVinci Flow AgX Pipeline Generator
# Mode: AgX Video Proxy (Rec709 to Rec709)
LUT_3D_SIZE 9
0.000000 0.000000 0.000000
0.011397 0.000000 0.000000
0.040178 0.007572 0.000000
0.090788 0.017222 0.009518
0.151734 0.028778 0.016277
0.214567 0.045038 0.023905
0.275439 0.065347 0.033929
0.332746 0.088526 0.046419
0.385929 0.113546 0.060997
0.008282 0.014617 0.000817
0.016874 0.015525 0.002531
0.044802 0.019185 0.007544
0.094469 0.026391 0.012925
0.154419 0.037916 0.018683
0.216518 0.053812 0.026248
0.276879 0.073386 0.036269
0.333830 0.095694 0.048684
0.386760 0.119849 0.063131
0.030512 0.053453 0.018024
0.037052 0.054236 0.018413
0.063743 0.057556 0.020063
0.109465 0.064155 0.023389
0.165499 0.074297 0.028715
0.224652 0.087879 0.036283
0.282925 0.104513 0.046149
0.338402 0.123648 0.058160
0.390276 0.144688 0.072025
0.069411 0.117486 0.038395
0.075086 0.118055 0.038776
0.097678 0.120470 0.040399
0.136715 0.125283 0.043675
0.186228 0.132733 0.048844
0.240214 0.142843 0.056021
0.294673 0.155458 0.065196
0.347379 0.170298 0.076246
0.397232 0.187014 0.088968
0.119840 0.189389 0.069023
0.124228 0.189781 0.069360
0.141939 0.191450 0.070798
0.173557 0.194797 0.073686
0.215395 0.200032 0.078220
0.262821 0.207238 0.084488
0.312137 0.216390 0.092488
0.360945 0.227379 0.102141
0.407867 0.240028 0.113309
0.174321 0.260356 0.106082
0.177637 0.260630 0.106361
0.191220 0.261800 0.107551
0.216217 0.264155 0.109946
0.250606 0.267864 0.113712
0.291103 0.273018 0.118938
0.334598 0.279644 0.125644
0.378757 0.287713 0.133791
0.422049 0.297150 0.143296
0.228847 0.327018 0.146200
0.231367 0.327215 0.146427
0.241801 0.328056 0.147392
0.261451 0.329753 0.149339
0.289345 0.332436 0.152410
0.323309 0.336187 0.156691
0.360925 0.341048 0.162217
0.400122 0.347024 0.168978
0.439368 0.354092 0.176932
0.281469 0.388287 0.187243
0.283409 0.388432 0.187426
0.291505 0.389051 0.188208
0.307008 0.390303 0.189787
0.329552 0.392288 0.192286
0.357767 0.395073 0.195781
0.389879 0.398702 0.200315
0.424172 0.403193 0.205897
0.459238 0.408543 0.212510
0.331298 0.444024 0.227943
0.332814 0.444133 0.228092
0.339174 0.444599 0.228729
0.351502 0.445542 0.230016
0.369758 0.447041 0.232057
0.393115 0.449149 0.234921
0.420319 0.451906 0.238650
0.450021 0.455332 0.243263
0.481006 0.459437 0.248758
0.000000 0.000647 0.015072
0.012770 0.004091 0.015488
0.041195 0.011601 0.017210
0.091599 0.019564 0.020575
0.152325 0.031092 0.025892
0.214995 0.047281 0.033468
0.275755 0.067407 0.043398
0.332983 0.090362 0.055533
0.386111 0.115157 0.069563
0.010168 0.017080 0.017539
0.017930 0.017930 0.017930
0.045805 0.021497 0.019587
0.095265 0.028703 0.022915
0.155001 0.040204 0.028239
0.216942 0.055981 0.035809
0.277192 0.075368 0.045687
0.334066 0.097463 0.057719
0.386941 0.121409 0.071613
0.031543 0.055625 0.027587
0.038076 0.056401 0.027971
0.064671 0.059691 0.029614
0.110201 0.066226 0.032950
0.166049 0.076269 0.038261
0.225059 0.089721 0.045700
0.283230 0.106203 0.055272
0.338633 0.125177 0.066837
0.390455 0.146059 0.080153
0.070314 0.119065 0.047759
0.075965 0.119629 0.048129
0.098461 0.122025 0.049707
0.137353 0.126799 0.052881
0.186722 0.134192 0.057873
0.240591 0.144227 0.064782
0.294960 0.156754 0.073596
0.347600 0.171499 0.084207
0.397404 0.188117 0.096435
0.120537 0.190478 0.077270
0.124909 0.190868 0.077594
0.142560 0.192528 0.078974
0.174084 0.195857 0.081748
0.215822 0.201064 0.086103
0.263158 0.208233 0.092127
0.312401 0.217341 0.099822
0.361151 0.228278 0.109122
0.408030 0.240872 0.119900
0.174846 0.261119 0.112922
0.178154 0.261392 0.113192
0.191702 0.262557 0.114340
0.216642 0.264904 0.116651
0.250963 0.268599 0.120289
0.291395 0.273734 0.125340
0.334834 0.280337 0.131829
0.378946 0.288379 0.139722
0.422201 0.297786 0.148944
0.229245 0.327566 0.151765
0.231760 0.327762 0.151985
0.242175 0.328601 0.152923
0.261790 0.330293 0.154815
0.289639 0.332969 0.157801
0.323558 0.336711 0.161966
0.361132 0.341559 0.167345
0.400292 0.347520 0.173933
0.439507 0.354570 0.181691
0.281775 0.388690 0.191760
0.283713 0.388835 0.191940
0.291797 0.389453 0.192704
0.307278 0.390702 0.194247
0.329793 0.392683 0.196690
0.357977 0.395463 0.200109
0.390057 0.399085 0.204545
0.424322 0.403567 0.210011
0.459363 0.408907 0.216489
0.331537 0.444328 0.231627
0.333051 0.444437 0.231774
0.339404 0.444902 0.232399
0.351718 0.445843 0.233663
0.369955 0.447339 0.235667
0.393290 0.449445 0.238480
0.420472 0.452197 0.242144
0.450152 0.455619 0.246678
0.481117 0.459717 0.252081
0.009658 0.017836 0.055497
0.017622 0.018677 0.055855
0.045510 0.022232 0.057385
0.095031 0.029441 0.060460
0.154830 0.040932 0.065289
0.216817 0.056669 0.071965
0.277100 0.075996 0.080480
0.333997 0.098024 0.090736
0.386888 0.121904 0.102569
0.015707 0.026991 0.057683
0.022350 0.027821 0.058039
0.050056 0.031378 0.059553
0.098633 0.038573 0.062599
0.157472 0.049830 0.067381
0.218746 0.065035 0.073991
0.278528 0.083630 0.082421
0.335074 0.104852 0.092578
0.387715 0.127941 0.104301
0.035947 0.064694 0.066802
0.042428 0.065439 0.067144
0.068596 0.068596 0.068596
0.113317 0.074864 0.071516
0.168384 0.084495 0.076098
0.226791 0.097408 0.082433
0.284526 0.113267 0.090516
0.339618 0.131584 0.100266
0.391215 0.151815 0.111541
0.074135 0.125677 0.084175
0.079680 0.126222 0.084488
0.101773 0.128536 0.085821
0.140060 0.133152 0.088500
0.188823 0.140309 0.092708
0.242194 0.150037 0.098532
0.296184 0.162204 0.105979
0.348542 0.176555 0.114990
0.398138 0.192766 0.125451
0.123491 0.195072 0.109094
0.127797 0.195453 0.109369
0.145195 0.197075 0.110540
0.176325 0.200328 0.112897
0.217636 0.205420 0.116607
0.264590 0.212436 0.121755
0.313523 0.221356 0.128364
0.362032 0.232081 0.136399
0.408725 0.244444 0.145778
0.177078 0.264350 0.139698
0.180348 0.264619 0.139932
0.193751 0.265766 0.140931
0.218449 0.268075 0.142944
0.252485 0.271713 0.146118
0.292640 0.276770 0.150540
0.335838 0.283275 0.156241
0.379752 0.291203 0.163211
0.422848 0.300482 0.171399
0.230942 0.329893 0.173913
0.233435 0.330087 0.174109
0.243765 0.330916 0.174947
0.263232 0.332589 0.176636
0.290895 0.335235 0.179307
0.324619 0.338935 0.183039
0.362012 0.343730 0.187874
0.401015 0.349628 0.193815
0.440099 0.356606 0.200837
0.283081 0.390406 0.209994
0.285006 0.390550 0.210157
0.293039 0.391162 0.210855
0.308429 0.392401 0.212263
0.330823 0.394365 0.214493
0.358872 0.397122 0.217620
0.390819 0.400713 0.221684
0.424962 0.405159 0.226703
0.459898 0.410457 0.232666
0.332558 0.445621 0.246664
0.334064 0.445729 0.246800
0.340385 0.446191 0.247380
0.352641 0.447126 0.248552
0.370798 0.448612 0.250413
0.394040 0.450704 0.253027
0.421125 0.453439 0.256436
0.450713 0.456838 0.260661
0.481594 0.460911 0.265705
0.020047 0.037910 0.121392
0.026584 0.038734 0.121649
0.054083 0.042239 0.122748
0.101819 0.049249 0.124960
0.159820 0.060083 0.128444
0.220466 0.074618 0.133287
0.279806 0.092376 0.139516
0.336039 0.112701 0.147105
0.388457 0.134913 0.155988
0.024748 0.046888 0.122962
0.031299 0.047691 0.123218
0.058479 0.051099 0.124308
0.105296 0.057882 0.126502
0.162395 0.068322 0.129958
0.222360 0.082304 0.134763
0.281215 0.099404 0.140945
0.337105 0.119032 0.148479
0.389277 0.140559 0.157300
0.044780 0.081990 0.129539
0.051095 0.082674 0.129786
0.076345 0.085574 0.130839
0.119495 0.091335 0.132960
0.173041 0.100201 0.136303
0.230263 0.112131 0.140953
0.287135 0.126857 0.146941
0.341604 0.143971 0.154249
0.392750 0.163001 0.162816
0.081677 0.138440 0.142239
0.087017 0.138950 0.142470
0.108330 0.141116 0.143456
0.145442 0.145442 0.145442
0.193023 0.152162 0.148576
0.245410 0.161324 0.152942
0.298646 0.172822 0.158574
0.350442 0.186438 0.165462
0.399620 0.201882 0.173557
0.129353 0.204085 0.160945
0.133530 0.204449 0.161155
0.150437 0.205999 0.162050
0.180798 0.209109 0.163855
0.221270 0.213982 0.166706
0.267468 0.220706 0.170685
0.315783 0.229270 0.175831
0.363808 0.239587 0.182143
0.410131 0.251508 0.189588
0.181535 0.270756 0.184753
0.184732 0.271017 0.184938
0.197848 0.272128 0.185731
0.222068 0.274365 0.187330
0.255541 0.277892 0.189859
0.295146 0.282798 0.193398
0.337861 0.289114 0.197987
0.381378 0.296819 0.203634
0.424156 0.305848 0.210321
0.234343 0.334538 0.212385
0.236794 0.334727 0.212547
0.246956 0.335537 0.213235
0.266130 0.337172 0.214627
0.293423 0.339759 0.216831
0.326759 0.343377 0.219921
0.363789 0.348069 0.223939
0.402476 0.353842 0.228902
0.441296 0.360677 0.234801
0.285708 0.393847 0.242545
0.287608 0.393988 0.242684
0.295540 0.394590 0.243276
0.310747 0.395807 0.244473
0.332897 0.397738 0.246372
0.360676 0.400448 0.249039
0.392357 0.403980 0.252516
0.426255 0.408354 0.256824
0.460978 0.413567 0.261963
0.334614 0.448220 0.274112
0.336106 0.448327 0.274231
0.342364 0.448783 0.274737
0.354503 0.449706 0.275760
0.372498 0.451172 0.277386
0.395553 0.453236 0.279673
0.422444 0.455935 0.282661
0.451846 0.459291 0.286374
0.482557 0.463312 0.290818
0.034352 0.068162 0.194738
0.040855 0.068895 0.194915
0.067181 0.072001 0.195668
0.112193 0.078165 0.197188
0.167540 0.087640 0.199595
0.226165 0.100351 0.202964
0.284057 0.115978 0.207337
0.339261 0.134048 0.212727
0.390939 0.154034 0.219118
0.039039 0.076094 0.195815
0.045470 0.076799 0.195990
0.071323 0.079786 0.196739
0.115488 0.085717 0.198251
0.170016 0.094840 0.200645
0.228005 0.107098 0.203996
0.285437 0.122203 0.208347
0.340311 0.139719 0.213710
0.391750 0.159153 0.220070
0.058387 0.106822 0.200354
0.064362 0.107424 0.200525
0.088139 0.109976 0.201257
0.128974 0.115058 0.202735
0.180263 0.122910 0.205075
0.235691 0.133538 0.208353
0.291235 0.146757 0.212610
0.344739 0.162254 0.217860
0.395180 0.179644 0.224091
0.093163 0.157230 0.209264
0.098200 0.157692 0.209428
0.118365 0.159659 0.210127
0.153746 0.163592 0.211540
0.199556 0.169720 0.213779
0.250446 0.178105 0.216917
0.302521 0.188679 0.220996
0.353443 0.201270 0.226031
0.401968 0.215635 0.232015
0.138366 0.217690 0.222724
0.142353 0.218030 0.222877
0.158533 0.219477 0.223530
0.187744 0.222384 0.224852
0.226946 0.226946 0.226946
0.271986 0.233251 0.229884
0.319344 0.241303 0.233708
0.366616 0.251031 0.238435
0.412356 0.262307 0.244063
0.188455 0.280592 0.240401
0.191542 0.280840 0.240542
0.204225 0.281898 0.241140
0.227722 0.284030 0.242350
0.260332 0.287393 0.244269
0.299088 0.292075 0.246964
0.341055 0.298110 0.250477
0.383950 0.305485 0.254828
0.426229 0.314141 0.260018
0.239662 0.341747 0.261629
0.242050 0.341930 0.261755
0.251954 0.342712 0.262293
0.270677 0.344289 0.263382
0.297399 0.346786 0.265111
0.330132 0.350281 0.267541
0.366598 0.354815 0.270714
0.404790 0.360400 0.274652
0.443194 0.367018 0.279360
0.289838 0.399226 0.285584
0.291699 0.399363 0.285696
0.299475 0.399949 0.286174
0.314398 0.401134 0.287141
0.336170 0.403013 0.288678
0.363529 0.405653 0.290840
0.394792 0.409093 0.293668
0.428306 0.413355 0.297185
0.462692 0.418440 0.301399
0.337860 0.452305 0.311437
0.339327 0.452409 0.311536
0.345487 0.452856 0.311956
0.357444 0.453759 0.312807
0.375187 0.455195 0.314160
0.397949 0.457217 0.316067
0.424535 0.459860 0.318564
0.453644 0.463149 0.321674
0.484088 0.467090 0.325410
0.054158 0.104864 0.266734
0.060245 0.105472 0.266857
0.084482 0.108050 0.267382
0.126024 0.113182 0.268443
0.178006 0.121111 0.270129
0.233989 0.131836 0.272500
0.289946 0.145169 0.275596
0.343752 0.160789 0.279440
0.394414 0.178305 0.284038
0.058553 0.111456 0.267484
0.064524 0.112043 0.267607
0.088283 0.114535 0.268130
0.129090 0.119498 0.269187
0.180352 0.127173 0.270867
0.235759 0.137573 0.273229
0.291286 0.150526 0.276314
0.344778 0.165735 0.280144
0.395210 0.182830 0.284727
0.076412 0.137338 0.270662
0.081895 0.137851 0.270783
0.103751 0.140029 0.271298
0.141679 0.144380 0.272339
0.190084 0.151136 0.273992
0.243157 0.160345 0.276318
0.296921 0.171900 0.279356
0.349110 0.185578 0.283130
0.398581 0.201088 0.287645
0.108387 0.181129 0.276966
0.113043 0.181538 0.277083
0.131771 0.183278 0.277582
0.164961 0.186766 0.278591
0.208480 0.192217 0.280194
0.257390 0.199709 0.282450
0.307901 0.209208 0.285397
0.357630 0.220590 0.289060
0.405255 0.233664 0.293446
0.150483 0.235542 0.286651
0.154229 0.235853 0.286762
0.169482 0.237176 0.287238
0.197206 0.239838 0.288200
0.234740 0.244021 0.289728
0.278234 0.249817 0.291880
0.324297 0.257240 0.294693
0.370539 0.266240 0.298192
0.415476 0.276714 0.302385
0.197884 0.293786 0.299654
0.200827 0.294018 0.299758
0.212945 0.295009 0.300204
0.235486 0.297008 0.301106
0.266947 0.300162 0.302540
0.304559 0.304559 0.304559
0.345506 0.310237 0.307202
0.387548 0.317187 0.310492
0.429136 0.325364 0.314439
0.246984 0.351563 0.315669
0.249286 0.351737 0.315765
0.258847 0.352481 0.316177
0.276965 0.353984 0.317010
0.302915 0.356364 0.318335
0.334830 0.359697 0.320203
0.370520 0.364025 0.322649
0.408031 0.369361 0.325697
0.445860 0.375692 0.329360
0.295562 0.406624 0.334231
0.297372 0.406756 0.334318
0.304935 0.407320 0.334694
0.319473 0.408462 0.335454
0.340730 0.410273 0.336663
0.367512 0.412817 0.338369
0.398199 0.416136 0.340605
0.431183 0.420249 0.343394
0.465102 0.425159 0.346750
0.342382 0.457962 0.354800
0.343817 0.458063 0.354879
0.349842 0.458497 0.355218
0.361549 0.459374 0.355904
0.378946 0.460769 0.356996
0.401303 0.462732 0.358538
0.427467 0.465301 0.360561
0.456169 0.468498 0.363087
0.486241 0.472331 0.366131
0.078148 0.144670 0.334097
0.083584 0.145163 0.334185
0.105260 0.147261 0.334561
0.142917 0.151452 0.335321
0.191050 0.157970 0.336532
0.243896 0.166866 0.338238
0.297486 0.178050 0.340476
0.349547 0.191319 0.343267
0.398921 0.206399 0.346625
0.082073 0.150040 0.334634
0.087403 0.150520 0.334722
0.108675 0.152561 0.335096
0.145727 0.156640 0.335855
0.193246 0.162987 0.337062
0.245581 0.171661 0.338764
0.298777 0.182581 0.340996
0.350544 0.195556 0.343780
0.399700 0.210327 0.347129
0.098026 0.171464 0.336915
0.102939 0.171894 0.337002
0.122634 0.173723 0.337372
0.157302 0.177384 0.338122
0.202373 0.183098 0.339316
0.252631 0.190940 0.340999
0.304209 0.200861 0.343206
0.354754 0.212719 0.345960
0.402995 0.226304 0.349273
0.126838 0.208848 0.341469
0.131070 0.209204 0.341554
0.148186 0.210717 0.341916
0.178875 0.213754 0.342649
0.219705 0.218516 0.343816
0.266228 0.225090 0.345462
0.314808 0.233472 0.347621
0.363041 0.243579 0.350315
0.409524 0.255271 0.353558
0.165436 0.256957 0.348542
0.168905 0.257236 0.348623
0.183088 0.258426 0.348973
0.209072 0.260821 0.349681
0.244611 0.264591 0.350808
0.286217 0.269829 0.352398
0.330672 0.276559 0.354483
0.375615 0.284750 0.357087
0.419530 0.294324 0.360223
0.209710 0.310020 0.358178
0.212483 0.310234 0.358256
0.223927 0.311149 0.358589
0.245321 0.312993 0.359264
0.275382 0.315908 0.360338
0.311580 0.319978 0.361854
0.351251 0.325242 0.363844
0.392213 0.331700 0.366330
0.432919 0.339318 0.369324
0.256282 0.363859 0.370260
0.258480 0.364023 0.370334
0.267622 0.364722 0.370647
0.284998 0.366136 0.371283
0.309993 0.368376 0.372294
0.340884 0.371516 0.373722
0.375597 0.375598 0.375598
0.412240 0.380637 0.377942
0.449332 0.386624 0.380768
0.302899 0.416008 0.384545
0.304644 0.416134 0.384613
0.311943 0.416672 0.384905
0.326000 0.417761 0.385496
0.346611 0.419488 0.386438
0.372665 0.421916 0.387769
0.402622 0.425085 0.389516
0.434926 0.429016 0.391702
0.468245 0.433713 0.394341
0.348215 0.465203 0.400705
0.349609 0.465300 0.400768
0.355466 0.465718 0.401037
0.366856 0.466563 0.401582
0.383815 0.467906 0.402451
0.405658 0.469798 0.403678
0.431283 0.472274 0.405291
0.459462 0.475356 0.407310
0.489054 0.479054 0.409749
0.104847 0.185448 0.395818
0.109589 0.185848 0.395883
0.128643 0.187551 0.396159
0.162332 0.190964 0.396717
0.206377 0.196301 0.397608
0.255748 0.203642 0.398865
0.306624 0.212959 0.400518
0.356634 0.224133 0.402586
0.404472 0.236984 0.405084
0.108270 0.189813 0.396213
0.112929 0.190204 0.396277
0.131668 0.191869 0.396552
0.164874 0.195209 0.397110
0.208410 0.200434 0.397998
0.257336 0.207625 0.399253
0.307858 0.216760 0.400903
0.357597 0.227728 0.402967
0.405229 0.240356 0.405460
0.122258 0.207461 0.397890
0.126591 0.207819 0.397954
0.144094 0.209342 0.398227
0.175388 0.212401 0.398780
0.216877 0.217195 0.399661
0.263991 0.223812 0.400905
0.313053 0.232247 0.402541
0.361663 0.242415 0.404588
0.408434 0.254173 0.407061
0.147857 0.239086 0.401253
0.151653 0.239391 0.401316
0.167102 0.240691 0.401584
0.195144 0.243307 0.402128
0.233035 0.247418 0.402994
0.276863 0.253118 0.404218
0.323208 0.260422 0.405827
0.369674 0.269283 0.407840
0.414787 0.279604 0.410272
0.182813 0.281099 0.406514
0.185989 0.281346 0.406575
0.199024 0.282402 0.406837
0.223109 0.284528 0.407366
0.256422 0.287883 0.408209
0.295869 0.292554 0.409401
0.338446 0.298575 0.410968
0.381849 0.305932 0.412930
0.424535 0.314570 0.415301
0.223704 0.328814 0.413754
0.226289 0.329010 0.413813
0.236986 0.329843 0.414065
0.257091 0.331525 0.414575
0.285555 0.334185 0.415388
0.320113 0.337904 0.416537
0.358280 0.342724 0.418049
0.397953 0.348651 0.419941
0.437595 0.355662 0.422229
0.267442 0.378381 0.422945
0.269522 0.378533 0.423001
0.278185 0.379184 0.423241
0.294707 0.380499 0.423728
0.318591 0.382584 0.424504
0.348279 0.385509 0.425602
0.381831 0.389316 0.427045
0.417432 0.394022 0.428852
0.453632 0.399624 0.431038
0.311799 0.427254 0.433969
0.313469 0.427373 0.434022
0.320461 0.427881 0.434249
0.333954 0.428909 0.434709
0.353802 0.430541 0.435443
0.378990 0.432836 0.436480
0.408071 0.435834 0.437845
0.439555 0.439555 0.439555
0.472143 0.444006 0.441624
0.355350 0.473972 0.446638
0.356695 0.474066 0.446688
0.362350 0.474464 0.446901
0.373365 0.475271 0.447332
0.389800 0.476554 0.448019
0.411024 0.478362 0.448991
0.435998 0.480729 0.450271
0.463542 0.483678 0.451875
0.492549 0.487218 0.453816
0.133104 0.225929 0.451821
0.137201 0.226255 0.451869
0.153802 0.227644 0.452076
0.183679 0.230435 0.452496
0.223619 0.234818 0.453165
0.269335 0.240883 0.454112
0.317252 0.248638 0.455358
0.364966 0.258024 0.456920
0.411047 0.268924 0.458811
0.136059 0.229492 0.452117
0.140094 0.229812 0.452165
0.156458 0.231177 0.452372
0.185959 0.233919 0.452791
0.225483 0.238226 0.453459
0.270819 0.244190 0.454404
0.318423 0.251821 0.455648
0.365889 0.261062 0.457208
0.411779 0.271803 0.459097
0.148213 0.244054 0.453378
0.152003 0.244351 0.453426
0.167425 0.245620 0.453631
0.195423 0.248172 0.454047
0.233266 0.252186 0.454711
0.277048 0.257753 0.455650
0.323355 0.264893 0.456886
0.369791 0.273564 0.458436
0.414880 0.283672 0.460312
0.170764 0.270717 0.455913
0.174140 0.270978 0.455960
0.187961 0.272089 0.456163
0.213349 0.274328 0.456573
0.248195 0.277855 0.457228
0.289134 0.282762 0.458155
0.333014 0.289079 0.459375
0.377488 0.296785 0.460905
0.421031 0.305816 0.462758
0.202139 0.307128 0.459897
0.205019 0.307346 0.459943
0.216890 0.308274 0.460142
0.239013 0.310145 0.460544
0.269965 0.313101 0.461186
0.307065 0.317227 0.462094
0.347552 0.322563 0.463289
0.389207 0.329107 0.464788
0.430479 0.336822 0.466603
0.239562 0.349619 0.465418
0.241950 0.349795 0.465463
0.251859 0.350546 0.465656
0.270591 0.352063 0.466047
0.297323 0.354466 0.466671
0.330068 0.357830 0.467553
0.366544 0.362198 0.468714
0.404746 0.367583 0.470171
0.443158 0.373970 0.471936
0.280285 0.394793 0.472490
0.282236 0.394933 0.472533
0.290379 0.395532 0.472719
0.305966 0.396744 0.473096
0.328620 0.398665 0.473697
0.356958 0.401363 0.474547
0.389190 0.404879 0.475666
0.423594 0.409232 0.477071
0.458756 0.414423 0.478773
0.322164 0.440166 0.481061
0.323751 0.440277 0.481103
0.330399 0.440753 0.481280
0.343261 0.441715 0.481640
0.362250 0.443243 0.482215
0.386453 0.445393 0.483027
0.414529 0.448204 0.484098
0.445063 0.451696 0.485441
0.476799 0.455879 0.487070
0.363733 0.484163 0.491029
0.365024 0.484251 0.491069
0.370451 0.484629 0.491237
0.381039 0.485393 0.491578
0.396874 0.486609 0.492123
0.417387 0.488324 0.492894
0.441606 0.490569 0.493910
0.468411 0.493368 0.495185
0.496730 0.496731 0.496731
