agx_acescct_to_rec709.cube
# Created by DaVinci Flow AgX Pipeline Generator
# Mode: AgX EXR (ACEScct Log to Rec709)
LUT_3D_SIZE 5
0.000000 0.000000 0.000000
0.042265 0.000000 0.000000
0.353615 0.000112 0.000000
0.852313 0.189414 0.148438
0.998580 0.693719 0.633984
0.000000 0.038242 0.000000
0.047392 0.038995 0.000000
0.354705 0.050813 0.006203
0.852350 0.208888 0.151576
0.998580 0.695019 0.634227
0.080434 0.338680 0.082688
0.116305 0.338850 0.083128
0.371384 0.341548 0.090033
0.852944 0.390764 0.195890
0.998580 0.714295 0.638072
0.499014 0.841522 0.504451
0.503615 0.841528 0.504502
0.564724 0.841626 0.505318
0.864379 0.843642 0.521531
0.998580 0.876927 0.701634
0.930914 0.998580 0.933008
0.931001 0.998580 0.933009
0.932369 0.998580 0.933024
0.953067 0.998580 0.933334
0.998580 0.998580 0.939278
0.000000 0.000000 0.044198
0.044877 0.000000 0.044720
0.354169 0.019102 0.052952
0.852332 0.194659 0.175290
0.998580 0.694058 0.636188
0.000000 0.049232 0.049446
0.049959 0.049959 0.049959
0.355256 0.061313 0.058028
0.852369 0.213645 0.178025
0.998580 0.695354 0.636428
0.082642 0.341183 0.119521
0.118139 0.341351 0.119884
0.371891 0.344016 0.125602
0.852963 0.392694 0.217261
0.998580 0.714587 0.640220
0.499276 0.841613 0.509104
0.503871 0.841619 0.509154
0.564906 0.841717 0.509950
0.864396 0.843730 0.525775
0.998580 0.876984 0.703033
0.930919 0.998580 0.933094
0.931006 0.998580 0.933095
0.932374 0.998580 0.933110
0.953070 0.998580 0.933419
0.998580 0.998580 0.939350
0.040257 0.150530 0.360464
0.083191 0.150968 0.360571
0.362826 0.157836 0.362284
0.852633 0.263816 0.394956
0.998580 0.699364 0.667728
0.045416 0.174044 0.361550
0.087459 0.174432 0.361657
0.363868 0.180530 0.363360
0.852671 0.277421 0.395869
0.998580 0.700612 0.667923
0.114893 0.377461 0.378160
0.145294 0.377601 0.378259
0.379826 0.379826 0.379826
0.853262 0.421243 0.409931
0.998580 0.719165 0.671014
0.503419 0.843052 0.570736
0.507913 0.843058 0.570772
0.567791 0.843154 0.571335
0.864654 0.845134 0.582669
0.998580 0.877891 0.723638
0.930998 0.998580 0.934446
0.931085 0.998580 0.934447
0.932450 0.998580 0.934461
0.953111 0.998580 0.934760
0.998580 0.998580 0.940497
0.378759 0.635506 0.857061
0.387258 0.635539 0.857064
0.488689 0.636079 0.857121
0.858670 0.646910 0.858302
0.998580 0.778135 0.879367
0.379721 0.637423 0.857097
0.388180 0.637456 0.857101
0.489235 0.637989 0.857158
0.858704 0.648693 0.858337
0.998580 0.778802 0.879394
0.394500 0.665227 0.857673
0.402363 0.665255 0.857677
0.497755 0.665699 0.857733
0.859252 0.674666 0.858905
0.998580 0.788945 0.879817
0.573305 0.868322 0.868770
0.576355 0.868326 0.868773
0.618844 0.868396 0.868822
0.869832 0.869832 0.869832
0.998580 0.894361 0.888060
0.932597 0.998580 0.954820
0.932681 0.998580 0.954820
0.933993 0.998580 0.954828
0.953961 0.998580 0.954991
0.998580 0.998580 0.958187
0.870281 0.971532 0.998580
0.870545 0.971532 0.998580
0.874643 0.971538 0.998580
0.926450 0.971662 0.998580
0.998580 0.974125 0.998580
0.870310 0.971553 0.998580
0.870575 0.971554 0.998580
0.874670 0.971560 0.998580
0.926461 0.971684 0.998580
0.998580 0.974145 0.998580
0.870779 0.971892 0.998580
0.871041 0.971892 0.998580
0.875110 0.971898 0.998580
0.926633 0.972021 0.998580
0.998580 0.974452 0.998580
0.879878 0.978130 0.998580
0.880109 0.978130 0.998580
0.883681 0.978135 0.998580
0.930064 0.978233 0.998580
0.998580 0.980207 0.998580
0.955719 0.998580 0.998580
0.955761 0.998580 0.998580
0.956425 0.998580 0.998580
0.967511 0.998580 0.998580
0.998580 0.998580 0.998580
