davidCustomConfig.ocio
ocio_profile_version: 2.1

search_path: .
strictparsing: false
luma: [0.2126, 0.7152, 0.0722]

roles:
  default: ACEScg
  scene_linear: ACEScg
  rendering: ACEScg
  color_picking: ACEScg
  texture_paint: ACEScg
  data: Raw

displays:
  Rec.709-Screen:
    - !<View> {name: SPI_anim (TMNT2 Look), colorspace: ACEScg, looks: TMNT2_Look}
    - !<View> {name: Standard ACES Rec.709, colorspace: ACEScg, looks: ACES_Rec709_Look}
    - !<View> {name: AgX (Filmic), colorspace: ACEScg, looks: AgX_Look}

  P3D65-Screen:
    - !<View> {name: SPI_anim (TMNT2 Look), colorspace: ACEScg, looks: TMNT2_P3_Look}
    - !<View> {name: Standard ACES P3-D65, colorspace: ACEScg, looks: ACES_P3_Look}
    - !<View> {name: AgX (Filmic), colorspace: ACEScg, looks: AgX_Look}

colorspaces:
  - !<ColorSpace>
    name: ACEScg
    family: ACES
    equalitygroup: ""
    bitdepth: 32f
    description: ACEScg scene-linear working space
    isdata: false
    encoding: scene-linear

  - !<ColorSpace>
    name: ACEScct
    family: ACES
    equalitygroup: ""
    bitdepth: 32f
    description: ACEScct logarithmic working space
    isdata: false
    encoding: log

  - !<ColorSpace>
    name: sRGB - Texture
    family: Utility
    equalitygroup: ""
    bitdepth: 32f
    description: Standard 8-bit sRGB color texture space
    isdata: false
    to_reference: !<FileTransform> {src: texture_srgb_to_acescg.ctf, interpolation: linear}

  - !<ColorSpace>
    name: Linear - Texture
    family: Utility
    equalitygroup: ""
    bitdepth: 32f
    description: Linear sRGB color texture space
    isdata: false
    to_reference: !<FileTransform> {src: texture_linear_to_acescg.ctf, interpolation: linear}

  - !<ColorSpace>
    name: Raw
    family: Utility
    equalitygroup: ""
    bitdepth: 32f
    description: Raw data
    isdata: true

  - !<ColorSpace>
    name: Inverse TMNT2 MattePaint
    family: Utility
    equalitygroup: ""
    bitdepth: 32f
    description: Matte Painting input - Inverts the TMNT2 Look to preserve sRGB appearance under the TMNT2 Look
    isdata: false
    to_reference: !<FileTransform> {src: tmnt2_native_look_v2.ctf, direction: inverse, interpolation: tetrahedral}

  - !<ColorSpace>
    name: Inverse AgX MattePaint
    family: Utility
    equalitygroup: ""
    bitdepth: 32f
    description: Matte Painting input - Inverts the AgX Look to preserve sRGB appearance under the AgX Look
    isdata: false
    to_reference: !<GroupTransform>
      children:
        - !<FileTransform> {src: agx_acescct_to_rec709.ctf, direction: inverse, interpolation: tetrahedral}
        - !<ColorSpaceTransform> {src: ACEScct, dst: ACEScg}

looks:
  - !<Look>
    name: TMNT2_Look
    process_space: ACEScg
    transform: !<FileTransform> {src: tmnt2_native_look_v2.ctf, interpolation: linear}

  - !<Look>
    name: ACES_Rec709_Look
    process_space: ACEScg
    transform: !<FileTransform> {src: aces_rec709_v2.ctf, interpolation: linear}

  - !<Look>
    name: TMNT2_P3_Look
    process_space: ACEScg
    transform: !<FileTransform> {src: tmnt2_p3d65_look_v2.ctf, interpolation: linear}

  - !<Look>
    name: ACES_P3_Look
    process_space: ACEScg
    transform: !<FileTransform> {src: aces_p3d65_v2.ctf, interpolation: linear}

  - !<Look>
    name: AgX_Look
    process_space: ACEScct
    transform: !<FileTransform> {src: agx_acescct_to_rec709.ctf, interpolation: tetrahedral}
