tmnt2_acescg_to_rec709.cube
LUT_3D_SIZE 5
0.000000 0.000000 0.000000
0.682095 0.000000 0.000000
0.838168 0.000000 0.000000
0.896625 0.000000 0.000000
0.928495 0.000000 0.000000
0.000000 0.575231 0.000000
0.561080 0.542213 0.000000
0.800995 0.502981 0.000000
0.880847 0.456714 0.000000
0.919175 0.401005 0.000000
0.000000 0.756579 0.000000
0.317872 0.743301 0.000000
0.744607 0.728290 0.000000
0.860186 0.711662 0.000000
0.907737 0.693255 0.000000
0.000000 0.840151 0.000000
0.000000 0.833657 0.000000
0.657043 0.826380 0.000000
0.831116 0.818411 0.000000
0.893726 0.809722 0.000000
0.000000 0.883018 0.000000
0.000000 0.879388 0.000000
0.506990 0.875434 0.000000
0.788057 0.871223 0.000000
0.876197 0.866751 0.000000
0.000000 0.000000 0.577682
0.669670 0.000000 0.571900
0.834082 0.000000 0.565759
0.894763 0.000000 0.559391
0.927368 0.000000 0.552817
0.000000 0.573128 0.546359
0.539822 0.539823 0.539823
0.795107 0.500220 0.532867
0.878539 0.453454 0.525642
0.917855 0.397080 0.518167
0.000000 0.755716 0.509385
0.271398 0.742362 0.501884
0.735819 0.727265 0.493885
0.857184 0.710537 0.485556
0.906156 0.692015 0.476917
0.000000 0.839727 0.466170
0.000000 0.833200 0.457396
0.643002 0.825885 0.447993
0.826689 0.817876 0.438152
0.891787 0.809143 0.427892
0.000000 0.882778 0.414700
0.000000 0.879136 0.404205
0.480844 0.875169 0.392967
0.781528 0.870944 0.381225
0.873747 0.866456 0.369015
0.000000 0.000000 0.758629
0.655945 0.000000 0.756269
0.829634 0.000000 0.753782
0.892779 0.000000 0.751226
0.926175 0.000000 0.748609
0.000000 0.570928 0.746062
0.515813 0.537321 0.743506
0.788691 0.497327 0.740813
0.876071 0.450031 0.738042
0.916455 0.392961 0.735205
0.000000 0.754815 0.731910
0.218372 0.741383 0.729129
0.726194 0.726195 0.726195
0.853909 0.709363 0.723176
0.904475 0.690721 0.720083
0.000000 0.839286 0.716298
0.000000 0.832723 0.713259
0.627429 0.825370 0.710052
0.821871 0.817318 0.706750
0.889719 0.808538 0.703365
0.000000 0.882528 0.699097
0.000000 0.878874 0.695764
0.450855 0.874894 0.692244
0.774406 0.870654 0.688617
0.871124 0.866150 0.684897
0.000000 0.000000 0.841671
0.641104 0.000000 0.840520
0.824907 0.000000 0.839308
0.890715 0.000000 0.838064
0.924942 0.000000 0.836792
0.000000 0.568682 0.835556
0.489188 0.534764 0.834318
0.781861 0.494369 0.833014
0.873493 0.446524 0.831676
0.915007 0.388745 0.830308
0.000000 0.753898 0.828723
0.158211 0.740387 0.827388
0.715886 0.725106 0.825983
0.850424 0.708167 0.824540
0.902731 0.689403 0.823065
0.000000 0.838836 0.821266
0.000000 0.832239 0.819824
0.610514 0.824846 0.818308
0.816750 0.816751 0.816750
0.887565 0.807923 0.815159
0.000000 0.882275 0.813159
0.000000 0.878608 0.811603
0.416891 0.874614 0.809964
0.766817 0.870359 0.808282
0.868380 0.865839 0.806563
0.000000 0.000000 0.884178
0.625090 0.000000 0.883524
0.819905 0.000000 0.882840
0.888576 0.000000 0.882142
0.923675 0.000000 0.881432
0.000000 0.566401 0.880746
0.459562 0.532166 0.880063
0.774620 0.491360 0.879347
0.870811 0.442950 0.878616
0.913514 0.384449 0.877873
0.000000 0.752970 0.877018
0.084454 0.739377 0.876301
0.704883 0.724002 0.875550
0.846731 0.706955 0.874783
0.900928 0.688066 0.874003
0.000000 0.838381 0.873057
0.000000 0.831748 0.872303
0.592165 0.824315 0.871514
0.811330 0.816176 0.870708
0.885332 0.807300 0.869887
0.000000 0.882018 0.868863
0.000000 0.878339 0.868069
0.378534 0.874331 0.867238
0.758762 0.870061 0.866388
0.865523 0.865524 0.865524
