tmnt2_acescct_to_rec709.cube
LUT_3D_SIZE 65
0.000000 0.000000 0.000000
0.000000 0.000000 0.000000
0.000000 0.000000 0.000000
0.000000 0.000000 0.000000
0.000000 0.000000 0.000000
0.000000 0.000000 0.000000
0.007853 0.000000 0.000000
0.019704 0.000000 0.000000
0.032740 0.000000 0.000000
0.045870 0.000000 0.000000
0.058612 0.000000 0.000000
0.070811 0.000000 0.000000
0.083193 0.000000 0.000000
0.097334 0.000000 0.000000
0.113709 0.000000 0.000000
0.133110 0.000000 0.000000
0.154863 0.000000 0.000000
0.179704 0.000000 0.000000
0.208188 0.000000 0.000000
0.240861 0.000000 0.000000
0.278145 0.000000 0.000000
0.320177 0.000000 0.000000
0.366599 0.000000 0.000000
0.416482 0.000000 0.000000
0.468102 0.000000 0.000000
0.520288 0.000000 0.000000
0.572674 0.000000 0.000000
0.624465 0.000000 0.000000
0.674843 0.000000 0.000000
0.722956 0.000000 0.000000
0.767877 0.000000 0.000000
0.808564 0.000000 0.000000
0.843793 0.000000 0.000000
0.872544 0.000000 0.000000
0.897241 0.000000 0.000000
0.918849 0.000000 0.000000
0.937735 0.000000 0.000000
0.954230 0.000000 0.000000
0.968629 0.000000 0.000000
0.981191 0.000000 0.000000
0.992142 0.000000 0.000000
1.000000 0.000000 0.000000
1.000000 0.000000 0.000000
1.000000 0.000000 0.000000
1.000000 0.000000 0.000000
1.000000 0.000000 0.000000
1.000000 0.000000 0.000000
1.000000 0.000000 0.000000
1.000000 0.000000 0.000000
1.000000 0.000000 0.000000
1.000000 0.000000 0.000000
1.000000 0.000000 0.000000
1.000000 0.000000 0.000000
1.000000 0.000000 0.000000
1.000000 0.000000 0.000000
1.000000 0.000000 0.000000
1.000000 0.000000 0.000000
1.000000 0.000000 0.000000
1.000000 0.000000 0.000000
1.000000 0.000000 0.000000
1.000000 0.000000 0.000000
1.000000 0.000000 0.000000
1.000000 0.000000 0.000000
1.000000 0.000000 0.000000
1.000000 0.000000 0.000000
0.000000 0.000000 0.000000
0.000000 0.000000 0.000000
0.000000 0.000000 0.000000
0.000000 0.000000 0.000000
0.000000 0.000000 0.000000
0.000000 0.000000 0.000000
0.004592 0.000000 0.000000
0.015811 0.000000 0.000000
0.028721 0.000000 0.000000
0.041974 0.000000 0.000000
0.054924 0.000000 0.000000
0.067343 0.000000 0.000000
0.079958 0.000000 0.000000
0.094312 0.000000 0.000000
0.110830 0.000000 0.000000
0.130406 0.000000 0.000000
0.152352 0.000000 0.000000
0.177357 0.000000 0.000000
0.205984 0.000000 0.000000
0.238792 0.000000 0.000000
0.276216 0.000000 0.000000
0.318405 0.000000 0.000000
0.365011 0.000000 0.000000
0.415102 0.000000 0.000000
0.466950 0.000000 0.000000
0.519333 0.000000 0.000000
0.571891 0.000000 0.000000
0.623833 0.000000 0.000000
0.674342 0.000000 0.000000
0.722566 0.000000 0.000000
0.767581 0.000000 0.000000
0.808348 0.000000 0.000000
0.843643 0.000000 0.000000
0.872443 0.000000 0.000000
0.897168 0.000000 0.000000
0.918796 0.000000 0.000000
0.937697 0.000000 0.000000
0.954203 0.000000 0.000000
0.968610 0.000000 0.000000
0.981177 0.000000 0.000000
0.992131 0.000000 0.000000
1.000000 0.000000 0.000000
1.000000 0.000000 0.000000
1.000000 0.000000 0.000000
1.000000 0.000000 0.000000
1.000000 0.000000 0.000000
1.000000 0.000000 0.000000
1.000000 0.000000 0.000000
1.000000 0.000000 0.000000
1.000000 0.000000 0.000000
1.000000 0.000000 0.000000
1.000000 0.000000 0.000000
1.000000 0.000000 0.000000
1.000000 0.000000 0.000000
1.000000 0.000000 0.000000
1.000000 0.000000 0.000000
1.000000 0.000000 0.000000
1.000000 0.000000 0.000000
1.000000 0.000000 0.000000
1.000000 0.000000 0.000000
1.000000 0.000000 0.000000
1.000000 0.000000 0.000000
1.000000 0.000000 0.000000
1.000000 0.000000 0.000000
1.000000 0.000000 0.000000
0.000000 0.000000 0.000000
0.000000 0.000000 0.000000
0.000000 0.000000 0.000000
0.000000 0.000000 0.000000
0.000000 0.000000 0.000000
0.000000 0.000000 0.000000
0.001636 0.000000 0.000000
0.012005 0.000000 0.000000
0.024658 0.000000 0.000000
0.037982 0.000000 0.000000
0.051130 0.000000 0.000000
0.063771 0.000000 0.000000
0.076627 0.000000 0.000000
0.091214 0.000000 0.000000
0.107903 0.000000 0.000000
0.127643 0.000000 0.000000
0.149793 0.000000 0.000000
0.174970 0.000000 0.000000
0.203745 0.000000 0.000000
0.236691 0.000000 0.000000
0.274257 0.000000 0.000000
0.316607 0.000000 0.000000
0.363399 0.000000 0.000000
0.413700 0.000000 0.000000
0.465779 0.000000 0.000000
0.518363 0.000000 0.000000
0.571097 0.000000 0.000000
0.623193 0.000000 0.000000
0.673834 0.000000 0.000000
0.722171 0.000000 0.000000
0.767282 0.000000 0.000000
0.808128 0.000000 0.000000
0.843492 0.000000 0.000000
0.872340 0.000000 0.000000
0.897094 0.000000 0.000000
0.918743 0.000000 0.000000
0.937658 0.000000 0.000000
0.954175 0.000000 0.000000
0.968590 0.000000 0.000000
0.981162 0.000000 0.000000
0.992121 0.000000 0.000000
1.000000 0.000000 0.000000
1.000000 0.000000 0.000000
1.000000 0.000000 0.000000
1.000000 0.000000 0.000000
1.000000 0.000000 0.000000
1.000000 0.000000 0.000000
1.000000 0.000000 0.000000
1.000000 0.000000 0.000000
1.000000 0.000000 0.000000
1.000000 0.000000 0.000000
1.000000 0.000000 0.000000
1.000000 0.000000 0.000000
1.000000 0.000000 0.000000
1.000000 0.000000 0.000000
1.000000 0.000000 0.000000
1.000000 0.000000 0.000000
1.000000 0.000000 0.000000
1.000000 0.000000 0.000000
1.000000 0.000000 0.000000
1.000000 0.000000 0.000000
1.000000 0.000000 0.000000
1.000000 0.000000 0.000000
1.000000 0.000000 0.000000
1.000000 0.000000 0.000000
0.000000 0.000000 0.000000
0.000000 0.000000 0.000000
0.000000 0.000000 0.000000
0.000000 0.000000 0.000000
0.000000 0.000000 0.000000
0.000000 0.000000 0.000000
0.000000 0.000000 0.000000
0.008316 0.000000 0.000000
0.020534 0.000000 0.000000
0.033857 0.000000 0.000000
0.047182 0.000000 0.000000
0.060051 0.000000 0.000000
0.073154 0.000000 0.000000
0.088000 0.000000 0.000000
0.104887 0.000000 0.000000
0.124651 0.000000 0.000000
0.147155 0.000000 0.000000
0.172513 0.000000 0.000000
0.201445 0.000000 0.000000
0.234534 0.000000 0.000000
0.272246 0.000000 0.000000
0.314760 0.000000 0.000000
0.361744 0.000000 0.000000
0.412260 0.000000 0.000000
0.464577 0.000000 0.000000
0.517367 0.000000 0.000000
0.570281 0.000000 0.000000
0.622535 0.000000 0.000000
0.673313 0.000000 0.000000
0.721766 0.000000 0.000000
0.766975 0.000000 0.000000
0.807904 0.000000 0.000000
0.843337 0.000000 0.000000
0.872235 0.000000 0.000000
0.897018 0.000000 0.000000
0.918688 0.000000 0.000000
0.937619 0.000000 0.000000
0.954147 0.000000 0.000000
0.968570 0.000000 0.000000
0.981148 0.000000 0.000000
0.992111 0.000000 0.000000
1.000000 0.000000 0.000000
1.000000 0.000000 0.000000
1.000000 0.000000 0.000000
1.000000 0.000000 0.000000
1.000000 0.000000 0.000000
1.000000 0.000000 0.000000
1.000000 0.000000 0.000000
1.000000 0.000000 0.000000
1.000000 0.000000 0.000000
1.000000 0.000000 0.000000
1.000000 0.000000 0.000000
1.000000 0.000000 0.000000
1.000000 0.000000 0.000000
1.000000 0.000000 0.000000
1.000000 0.000000 0.000000
1.000000 0.000000 0.000000
1.000000 0.000000 0.000000
1.000000 0.000000 0.000000
1.000000 0.000000 0.000000
1.000000 0.000000 0.000000
1.000000 0.000000 0.000000
1.000000 0.000000 0.000000
1.000000 0.000000 0.000000
1.000000 0.000000 0.000000
0.000000 0.000000 0.000000
0.000000 0.000000 0.000000
0.000000 0.000000 0.000000
0.000000 0.000000 0.000000
0.000000 0.000000 0.000000
0.000000 0.000000 0.000000
0.000000 0.000000 0.000000
0.004802 0.000000 0.000000
0.016359 0.000000 0.000000
0.029570 0.000000 0.000000
0.043042 0.000000 0.000000
0.056140 0.000000 0.000000
0.069495 0.000000 0.000000
0.084630 0.000000 0.000000
0.101747 0.000000 0.000000
0.121576 0.000000 0.000000
0.144408 0.000000 0.000000
0.169962 0.000000 0.000000
0.199059 0.000000 0.000000
0.232299 0.000000 0.000000
0.270163 0.000000 0.000000
0.312847 0.000000 0.000000
0.360028 0.000000 0.000000
0.410766 0.000000 0.000000
0.463330 0.000000 0.000000
0.516335 0.000000 0.000000
0.569437 0.000000 0.000000
0.621855 0.000000 0.000000
0.672773 0.000000 0.000000
0.721347 0.000000 0.000000
0.766657 0.000000 0.000000
0.807672 0.000000 0.000000
0.843176 0.000000 0.000000
0.872126 0.000000 0.000000
0.896940 0.000000 0.000000
0.918632 0.000000 0.000000
0.937579 0.000000 0.000000
0.954118 0.000000 0.000000
0.968548 0.000000 0.000000
0.981133 0.000000 0.000000
0.992100 0.000000 0.000000
1.000000 0.000000 0.000000
1.000000 0.000000 0.000000
1.000000 0.000000 0.000000
1.000000 0.000000 0.000000
1.000000 0.000000 0.000000
1.000000 0.000000 0.000000
1.000000 0.000000 0.000000
1.000000 0.000000 0.000000
1.000000 0.000000 0.000000
1.000000 0.000000 0.000000
1.000000 0.000000 0.000000
1.000000 0.000000 0.000000
1.000000 0.000000 0.000000
1.000000 0.000000 0.000000
1.000000 0.000000 0.000000
1.000000 0.000000 0.000000
1.000000 0.000000 0.000000
1.000000 0.000000 0.000000
1.000000 0.000000 0.000000
1.000000 0.000000 0.000000
1.000000 0.000000 0.000000
1.000000 0.000000 0.000000
1.000000 0.000000 0.000000
1.000000 0.000000 0.000000
0.000000 0.000000 0.000000
0.000000 0.000000 0.000000
0.000000 0.000000 0.000000
0.000000 0.000000 0.000000
0.000000 0.000000 0.000000
0.000000 0.000000 0.000000
0.000000 0.000000 0.000000
0.001572 0.000000 0.000000
0.012196 0.000000 0.000000
0.025139 0.000000 0.000000
0.038703 0.000000 0.000000
0.052024 0.000000 0.000000
0.065642 0.000000 0.000000
0.081088 0.000000 0.000000
0.098470 0.000000 0.000000
0.118415 0.000000 0.000000
0.141545 0.000000 0.000000
0.167309 0.000000 0.000000
0.196582 0.000000 0.000000
0.229981 0.000000 0.000000
0.268003 0.000000 0.000000
0.310863 0.000000 0.000000
0.358248 0.000000 0.000000
0.409216 0.000000 0.000000
0.462037 0.000000 0.000000
0.515266 0.000000 0.000000
0.568563 0.000000 0.000000
0.621150 0.000000 0.000000
0.672215 0.000000 0.000000
0.720913 0.000000 0.000000
0.766329 0.000000 0.000000
0.807432 0.000000 0.000000
0.843010 0.000000 0.000000
0.872014 0.000000 0.000000
0.896859 0.000000 0.000000
0.918574 0.000000 0.000000
0.937537 0.000000 0.000000
0.954088 0.000000 0.000000
0.968527 0.000000 0.000000
0.981117 0.000000 0.000000
0.992089 0.000000 0.000000
1.000000 0.000000 0.000000
1.000000 0.000000 0.000000
1.000000 0.000000 0.000000
1.000000 0.000000 0.000000
1.000000 0.000000 0.000000
1.000000 0.000000 0.000000
1.000000 0.000000 0.000000
1.000000 0.000000 0.000000
1.000000 0.000000 0.000000
1.000000 0.000000 0.000000
1.000000 0.000000 0.000000
1.000000 0.000000 0.000000
1.000000 0.000000 0.000000
1.000000 0.000000 0.000000
1.000000 0.000000 0.000000
1.000000 0.000000 0.000000
1.000000 0.000000 0.000000
1.000000 0.000000 0.000000
1.000000 0.000000 0.000000
1.000000 0.000000 0.000000
1.000000 0.000000 0.000000
1.000000 0.000000 0.000000
1.000000 0.000000 0.000000
1.000000 0.000000 0.000000
0.000000 0.000000 0.000000
0.000000 0.000000 0.000000
0.000000 0.000000 0.000000
0.000000 0.000000 0.000000
0.000000 0.000000 0.000000
0.000000 0.000000 0.000000
0.000000 0.000000 0.000000
0.000000 0.000000 0.000000
0.008149 0.000000 0.000000
0.020612 0.000000 0.000000
0.034183 0.000000 0.000000
0.047707 0.000000 0.000000
0.061596 0.000000 0.000000
0.077370 0.000000 0.000000
0.095053 0.000000 0.000000
0.115163 0.000000 0.000000
0.138568 0.000000 0.000000
0.164559 0.000000 0.000000
0.194020 0.000000 0.000000
0.227585 0.000000 0.000000
0.265771 0.000000 0.000000
0.308812 0.000000 0.000000
0.356408 0.000000 0.000000
0.407614 0.000000 0.000000
0.460700 0.000000 0.000000
0.514162 0.000000 0.000000
0.567659 0.000000 0.000000
0.620423 0.000000 0.000000
0.671639 0.000000 0.000000
0.720466 0.000000 0.000000
0.765990 0.000000 0.000000
0.807184 0.000000 0.000000
0.842839 0.000000 0.000000
0.871898 0.000000 0.000000
0.896776 0.000000 0.000000
0.918514 0.000000 0.000000
0.937493 0.000000 0.000000
0.954057 0.000000 0.000000
0.968504 0.000000 0.000000
0.981101 0.000000 0.000000
0.992077 0.000000 0.000000
1.000000 0.000000 0.000000
1.000000 0.000000 0.000000
1.000000 0.000000 0.000000
1.000000 0.000000 0.000000
1.000000 0.000000 0.000000
1.000000 0.000000 0.000000
1.000000 0.000000 0.000000
1.000000 0.000000 0.000000
1.000000 0.000000 0.000000
1.000000 0.000000 0.000000
1.000000 0.000000 0.000000
1.000000 0.000000 0.000000
1.000000 0.000000 0.000000
1.000000 0.000000 0.000000
1.000000 0.000000 0.000000
1.000000 0.000000 0.000000
1.000000 0.000000 0.000000
1.000000 0.000000 0.000000
1.000000 0.000000 0.000000
1.000000 0.000000 0.000000
1.000000 0.000000 0.000000
1.000000 0.000000 0.000000
1.000000 0.000000 0.000000
1.000000 0.000000 0.000000
0.000000 0.000000 0.000000
0.000000 0.000000 0.000000
0.000000 0.000000 0.000000
0.000000 0.000000 0.000000
0.000000 0.000000 0.000000
0.000000 0.000000 0.000000
0.000000 0.000000 0.000000
0.000000 0.000000 0.000000
0.004350 0.000000 0.000000
0.016062 0.000000 0.000000
0.029507 0.000000 0.000000
0.043196 0.000000 0.000000
0.057358 0.000000 0.000000
0.073473 0.000000 0.000000
0.091494 0.000000 0.000000
0.111816 0.000000 0.000000
0.135481 0.000000 0.000000
0.161715 0.000000 0.000000
0.191374 0.000000 0.000000
0.225113 0.000000 0.000000
0.263470 0.000000 0.000000
0.306698 0.000000 0.000000
0.354511 0.000000 0.000000
0.405961 0.000000 0.000000
0.459321 0.000000 0.000000
0.513023 0.000000 0.000000
0.566729 0.000000 0.000000
0.619674 0.000000 0.000000
0.671046 0.000000 0.000000
0.720005 0.000000 0.000000
0.765641 0.000000 0.000000
0.806929 0.000000 0.000000
0.842663 0.000000 0.000000
0.871780 0.000000 0.000000
0.896690 0.000000 0.000000
0.918452 0.000000 0.000000
0.937449 0.000000 0.000000
0.954025 0.000000 0.000000
0.968482 0.000000 0.000000
0.981085 0.000000 0.000000
0.992065 0.000000 0.000000
1.000000 0.000000 0.000000
1.000000 0.000000 0.000000
1.000000 0.000000 0.000000
1.000000 0.000000 0.000000
1.000000 0.000000 0.000000
1.000000 0.000000 0.000000
1.000000 0.000000 0.000000
1.000000 0.000000 0.000000
1.000000 0.000000 0.000000
1.000000 0.000000 0.000000
1.000000 0.000000 0.000000
1.000000 0.000000 0.000000
1.000000 0.000000 0.000000
1.000000 0.000000 0.000000
1.000000 0.000000 0.000000
1.000000 0.000000 0.000000
1.000000 0.000000 0.000000
1.000000 0.000000 0.000000
1.000000 0.000000 0.000000
1.000000 0.000000 0.000000
1.000000 0.000000 0.000000
1.000000 0.000000 0.000000
1.000000 0.000000 0.000000
1.000000 0.000000 0.000000
0.000000 0.003183 0.000000
0.000000 0.002580 0.000000
0.000000 0.001987 0.000000
0.000000 0.001397 0.000000
0.000000 0.000803 0.000000
0.000000 0.000198 0.000000
0.000000 0.000000 0.000000
0.000000 0.000000 0.000000
0.000938 0.000000 0.000000
0.011583 0.000000 0.000000
0.024717 0.000000 0.000000
0.038504 0.000000 0.000000
0.052929 0.000000 0.000000
0.069390 0.000000 0.000000
0.087791 0.000000 0.000000
0.108371 0.000000 0.000000
0.132284 0.000000 0.000000
0.158780 0.000000 0.000000
0.188650 0.000000 0.000000
0.222572 0.000000 0.000000
0.261104 0.000000 0.000000
0.304524 0.000000 0.000000
0.352560 0.000000 0.000000
0.404262 0.000000 0.000000
0.457902 0.000000 0.000000
0.511853 0.000000 0.000000
0.565773 0.000000 0.000000
0.618905 0.000000 0.000000
0.670437 0.000000 0.000000
0.719532 0.000000 0.000000
0.765283 0.000000 0.000000
0.806667 0.000000 0.000000
0.842482 0.000000 0.000000
0.871658 0.000000 0.000000
0.896603 0.000000 0.000000
0.918389 0.000000 0.000000
0.937404 0.000000 0.000000
0.953992 0.000000 0.000000
0.968458 0.000000 0.000000
0.981068 0.000000 0.000000
0.992053 0.000000 0.000000
1.000000 0.000000 0.000000
1.000000 0.000000 0.000000
1.000000 0.000000 0.000000
1.000000 0.000000 0.000000
1.000000 0.000000 0.000000
1.000000 0.000000 0.000000
1.000000 0.000000 0.000000
1.000000 0.000000 0.000000
1.000000 0.000000 0.000000
1.000000 0.000000 0.000000
1.000000 0.000000 0.000000
1.000000 0.000000 0.000000
1.000000 0.000000 0.000000
1.000000 0.000000 0.000000
1.000000 0.000000 0.000000
1.000000 0.000000 0.000000
1.000000 0.000000 0.000000
1.000000 0.000000 0.000000
1.000000 0.000000 0.000000
1.000000 0.000000 0.000000
1.000000 0.000000 0.000000
1.000000 0.000000 0.000000
1.000000 0.000000 0.000000
1.000000 0.000000 0.000000
0.000000 0.010492 0.000000
0.000000 0.009751 0.000000
0.000000 0.009011 0.000000
0.000000 0.008266 0.000000
0.000000 0.007509 0.000000
0.000000 0.006742 0.000000
0.000000 0.005969 0.000000
0.000000 0.005193 0.000000
0.000000 0.004419 0.000000
0.007302 0.003650 0.000000
0.019871 0.002891 0.000000
0.033652 0.002144 0.000000
0.048314 0.001363 0.000000
0.065130 0.000439 0.000000
0.083940 0.000000 0.000000
0.104825 0.000000 0.000000
0.128979 0.000000 0.000000
0.155757 0.000000 0.000000
0.185852 0.000000 0.000000
0.219964 0.000000 0.000000
0.258678 0.000000 0.000000
0.302295 0.000000 0.000000
0.350558 0.000000 0.000000
0.402518 0.000000 0.000000
0.456446 0.000000 0.000000
0.510653 0.000000 0.000000
0.564793 0.000000 0.000000
0.618117 0.000000 0.000000
0.669813 0.000000 0.000000
0.719048 0.000000 0.000000
0.764917 0.000000 0.000000
0.806400 0.000000 0.000000
0.842297 0.000000 0.000000
0.871533 0.000000 0.000000
0.896513 0.000000 0.000000
0.918324 0.000000 0.000000
0.937357 0.000000 0.000000
0.953959 0.000000 0.000000
0.968434 0.000000 0.000000
0.981050 0.000000 0.000000
0.992041 0.000000 0.000000
1.000000 0.000000 0.000000
1.000000 0.000000 0.000000
1.000000 0.000000 0.000000
1.000000 0.000000 0.000000
1.000000 0.000000 0.000000
1.000000 0.000000 0.000000
1.000000 0.000000 0.000000
1.000000 0.000000 0.000000
1.000000 0.000000 0.000000
1.000000 0.000000 0.000000
1.000000 0.000000 0.000000
1.000000 0.000000 0.000000
1.000000 0.000000 0.000000
1.000000 0.000000 0.000000
1.000000 0.000000 0.000000
1.000000 0.000000 0.000000
1.000000 0.000000 0.000000
1.000000 0.000000 0.000000
1.000000 0.000000 0.000000
1.000000 0.000000 0.000000
1.000000 0.000000 0.000000
1.000000 0.000000 0.000000
1.000000 0.000000 0.000000
1.000000 0.000000 0.000000
0.000000 0.019048 0.000000
0.000000 0.018234 0.000000
0.000000 0.017415 0.000000
0.000000 0.016582 0.000000
0.000000 0.015728 0.000000
0.000000 0.014853 0.000000
0.000000 0.013961 0.000000
0.000000 0.013054 0.000000
0.000000 0.012136 0.000000
0.003371 0.011211 0.000000
0.015056 0.010282 0.000000
0.028672 0.009353 0.000000
0.043521 0.008364 0.000000
0.060694 0.007183 0.000000
0.079938 0.005783 0.000000
0.101175 0.004144 0.000000
0.125468 0.002267 0.000000
0.152651 0.000154 0.000000
0.182983 0.000000 0.000000
0.217294 0.000000 0.000000
0.256196 0.000000 0.000000
0.300013 0.000000 0.000000
0.348509 0.000000 0.000000
0.400732 0.000000 0.000000
0.454955 0.000000 0.000000
0.509425 0.000000 0.000000
0.563791 0.000000 0.000000
0.617311 0.000000 0.000000
0.669176 0.000000 0.000000
0.718554 0.000000 0.000000
0.764543 0.000000 0.000000
0.806127 0.000000 0.000000
0.842109 0.000000 0.000000
0.871406 0.000000 0.000000
0.896421 0.000000 0.000000
0.918258 0.000000 0.000000
0.937310 0.000000 0.000000
0.953925 0.000000 0.000000
0.968410 0.000000 0.000000
0.981033 0.000000 0.000000
0.992028 0.000000 0.000000
1.000000 0.000000 0.000000
1.000000 0.000000 0.000000
1.000000 0.000000 0.000000
1.000000 0.000000 0.000000
1.000000 0.000000 0.000000
1.000000 0.000000 0.000000
1.000000 0.000000 0.000000
1.000000 0.000000 0.000000
1.000000 0.000000 0.000000
1.000000 0.000000 0.000000
1.000000 0.000000 0.000000
1.000000 0.000000 0.000000
1.000000 0.000000 0.000000
1.000000 0.000000 0.000000
1.000000 0.000000 0.000000
1.000000 0.000000 0.000000
1.000000 0.000000 0.000000
1.000000 0.000000 0.000000
1.000000 0.000000 0.000000
1.000000 0.000000 0.000000
1.000000 0.000000 0.000000
1.000000 0.000000 0.000000
1.000000 0.000000 0.000000
1.000000 0.000000 0.000000
0.000000 0.028218 0.000000
0.000000 0.027382 0.000000
0.000000 0.026537 0.000000
0.000000 0.025674 0.000000
0.000000 0.024784 0.000000
0.000000 0.023867 0.000000
0.000000 0.022924 0.000000
0.000000 0.021960 0.000000
0.000000 0.020976 0.000000
0.000000 0.019976 0.000000
0.010387 0.018962 0.000000
0.023614 0.017937 0.000000
0.038566 0.016834 0.000000
0.056085 0.015498 0.000000
0.075779 0.013883 0.000000
0.097418 0.011942 0.000000
0.121836 0.009637 0.000000
0.149463 0.006947 0.000000
0.180048 0.003902 0.000000
0.214567 0.000614 0.000000
0.253662 0.000000 0.000000
0.297684 0.000000 0.000000
0.346416 0.000000 0.000000
0.398908 0.000000 0.000000
0.453432 0.000000 0.000000
0.508172 0.000000 0.000000
0.562769 0.000000 0.000000
0.616490 0.000000 0.000000
0.668527 0.000000 0.000000
0.718051 0.000000 0.000000
0.764162 0.000000 0.000000
0.805848 0.000000 0.000000
0.841916 0.000000 0.000000
0.871276 0.000000 0.000000
0.896328 0.000000 0.000000
0.918191 0.000000 0.000000
0.937262 0.000000 0.000000
0.953890 0.000000 0.000000
0.968385 0.000000 0.000000
0.981015 0.000000 0.000000
0.992015 0.000000 0.000000
1.000000 0.000000 0.000000
1.000000 0.000000 0.000000
1.000000 0.000000 0.000000
1.000000 0.000000 0.000000
1.000000 0.000000 0.000000
1.000000 0.000000 0.000000
1.000000 0.000000 0.000000
1.000000 0.000000 0.000000
1.000000 0.000000 0.000000
1.000000 0.000000 0.000000
1.000000 0.000000 0.000000
1.000000 0.000000 0.000000
1.000000 0.000000 0.000000
1.000000 0.000000 0.000000
1.000000 0.000000 0.000000
1.000000 0.000000 0.000000
1.000000 0.000000 0.000000
1.000000 0.000000 0.000000
1.000000 0.000000 0.000000
1.000000 0.000000 0.000000
1.000000 0.000000 0.000000
1.000000 0.000000 0.000000
1.000000 0.000000 0.000000
1.000000 0.000000 0.000000
0.000000 0.038195 0.000000
0.000000 0.037370 0.000000
0.000000 0.036534 0.000000
0.000000 0.035677 0.000000
0.000000 0.034791 0.000000
0.000000 0.033874 0.000000
0.000000 0.032929 0.000000
0.000000 0.031958 0.000000
0.000000 0.030963 0.000000
0.000000 0.029947 0.000000
0.005722 0.028911 0.000000
0.018204 0.027858 0.000000
0.033116 0.026716 0.000000
0.050970 0.025322 0.000000
0.071154 0.023617 0.000000
0.093280 0.021538 0.000000
0.117917 0.019013 0.000000
0.145969 0.015972 0.000000
0.176840 0.012364 0.000000
0.211592 0.008194 0.000000
0.250900 0.003609 0.000000
0.295146 0.000000 0.000000
0.344135 0.000000 0.000000
0.396920 0.000000 0.000000
0.451770 0.000000 0.000000
0.506807 0.000000 0.000000
0.561656 0.000000 0.000000
0.615596 0.000000 0.000000
0.667821 0.000000 0.000000
0.717503 0.000000 0.000000
0.763747 0.000000 0.000000
0.805546 0.000000 0.000000
0.841707 0.000000 0.000000
0.871136 0.000000 0.000000
0.896227 0.000000 0.000000
0.918119 0.000000 0.000000
0.937210 0.000000 0.000000
0.953852 0.000000 0.000000
0.968358 0.000000 0.000000
0.980996 0.000000 0.000000
0.992001 0.000000 0.000000
1.000000 0.000000 0.000000
1.000000 0.000000 0.000000
1.000000 0.000000 0.000000
1.000000 0.000000 0.000000
1.000000 0.000000 0.000000
1.000000 0.000000 0.000000
1.000000 0.000000 0.000000
1.000000 0.000000 0.000000
1.000000 0.000000 0.000000
1.000000 0.000000 0.000000
1.000000 0.000000 0.000000
1.000000 0.000000 0.000000
1.000000 0.000000 0.000000
1.000000 0.000000 0.000000
1.000000 0.000000 0.000000
1.000000 0.000000 0.000000
1.000000 0.000000 0.000000
1.000000 0.000000 0.000000
1.000000 0.000000 0.000000
1.000000 0.000000 0.000000
1.000000 0.000000 0.000000
1.000000 0.000000 0.000000
1.000000 0.000000 0.000000
1.000000 0.000000 0.000000
0.000000 0.050046 0.000000
0.000000 0.049255 0.000000
0.000000 0.048452 0.000000
0.000000 0.047628 0.000000
0.000000 0.046775 0.000000
0.000000 0.045890 0.000000
0.000000 0.044977 0.000000
0.000000 0.044037 0.000000
0.000000 0.043070 0.000000
0.000000 0.042081 0.000000
0.000824 0.041069 0.000000
0.011853 0.040038 0.000000
0.026401 0.038915 0.000000
0.044559 0.037539 0.000000
0.065335 0.035844 0.000000
0.088116 0.033759 0.000000
0.113125 0.031195 0.000000
0.141643 0.028049 0.000000
0.172884 0.024209 0.000000
0.207931 0.019569 0.000000
0.247503 0.014073 0.000000
0.292024 0.007828 0.000000
0.341328 0.001354 0.000000
0.394472 0.000000 0.000000
0.449725 0.000000 0.000000
0.505128 0.000000 0.000000
0.560288 0.000000 0.000000
0.614498 0.000000 0.000000
0.666953 0.000000 0.000000
0.716831 0.000000 0.000000
0.763239 0.000000 0.000000
0.805175 0.000000 0.000000
0.841451 0.000000 0.000000
0.870963 0.000000 0.000000
0.896103 0.000000 0.000000
0.918030 0.000000 0.000000
0.937146 0.000000 0.000000
0.953807 0.000000 0.000000
0.968325 0.000000 0.000000
0.980972 0.000000 0.000000
0.991984 0.000000 0.000000
1.000000 0.000000 0.000000
1.000000 0.000000 0.000000
