tmnt2_acescg_to_rec709.cube
LUT_3D_SIZE 9
0.000000 0.000000 0.000000
0.490891 0.000000 0.000000
0.682095 0.000000 0.000000
0.780681 0.000000 0.000000
0.838168 0.000000 0.000000
0.872780 0.000000 0.000000
0.896625 0.000000 0.000000
0.914513 0.000000 0.000000
0.928495 0.000000 0.000000
0.000000 0.381566 0.000000
0.368041 0.350437 0.000000
0.630617 0.315424 0.000000
0.752615 0.277020 0.000000
0.821619 0.235194 0.000000
0.862642 0.189475 0.000000
0.889304 0.138058 0.000000
0.908949 0.075835 0.000000
0.924105 0.000000 0.000000
0.000000 0.575231 0.000000
0.179413 0.559560 0.000000
0.561080 0.542213 0.000000
0.717024 0.523381 0.000000
0.800995 0.502981 0.000000
0.850439 0.480853 0.000000
0.880847 0.456714 0.000000
0.902625 0.430207 0.000000
0.919175 0.401005 0.000000
0.000000 0.685279 0.000000
0.000000 0.675719 0.000000
0.464121 0.665296 0.000000
0.672030 0.654170 0.000000
0.775708 0.642342 0.000000
0.835478 0.629775 0.000000
0.871211 0.616417 0.000000
0.895552 0.602199 0.000000
0.913735 0.587045 0.000000
0.000000 0.756579 0.000000
0.000000 0.750203 0.000000
0.317872 0.743301 0.000000
0.613963 0.735992 0.000000
0.744607 0.728290 0.000000
0.817246 0.720186 0.000000
0.860186 0.711662 0.000000
0.887632 0.702694 0.000000
0.907737 0.693255 0.000000
0.000000 0.805604 0.000000
0.000000 0.801171 0.000000
0.092257 0.796386 0.000000
0.536278 0.791339 0.000000
0.705953 0.786041 0.000000
0.795058 0.780491 0.000000
0.847089 0.774683 0.000000
0.878717 0.768606 0.000000
0.901101 0.762248 0.000000
0.000000 0.840151 0.000000
0.000000 0.837027 0.000000
0.000000 0.833657 0.000000
0.425793 0.830105 0.000000
0.657043 0.826380 0.000000
0.767964 0.822483 0.000000
0.831116 0.818411 0.000000
0.868612 0.814160 0.000000
0.893726 0.809722 0.000000
0.000000 0.864544 0.000000
0.000000 0.862326 0.000000
0.000000 0.859959 0.000000
0.257358 0.857472 0.000000
0.593411 0.854860 0.000000
0.734608 0.852124 0.000000
0.811694 0.849261 0.000000
0.857031 0.846271 0.000000
0.885481 0.843147 0.000000
0.000000 0.883018 0.000000
0.000000 0.881259 0.000000
0.000000 0.879388 0.000000
0.000000 0.877443 0.000000
0.506990 0.875434 0.000000
0.692985 0.873360 0.000000
0.788057 0.871223 0.000000
0.843094 0.869020 0.000000
0.876197 0.866751 0.000000
0.000000 0.000000 0.383935
0.477618 0.000000 0.378358
0.676094 0.000000 0.372477
0.777338 0.000000 0.366420
0.836188 0.000000 0.360216
0.871535 0.000000 0.353879
0.895718 0.000000 0.347414
0.913819 0.000000 0.340825
0.927945 0.000000 0.334114
0.000000 0.379539 0.354263
0.348241 0.348242 0.348242
0.622974 0.313048 0.341896
0.748570 0.274453 0.335363
0.819252 0.232417 0.328675
0.861235 0.186428 0.321847
0.888300 0.134530 0.314886
0.908192 0.071346 0.307796
0.923512 0.000000 0.300580
0.000000 0.574202 0.320982
0.149619 0.558466 0.314480
0.550867 0.541043 0.307632
0.712030 0.522126 0.300587
0.798142 0.501630 0.293379
0.848749 0.479393 0.286026
0.879723 0.455119 0.278533
0.901793 0.428457 0.270905
0.918531 0.399085 0.263144
0.000000 0.684647 0.284570
0.000000 0.675056 0.277566
0.449462 0.664599 0.270191
0.665723 0.653436 0.262605
0.772243 0.641567 0.254848
0.833434 0.628956 0.246932
0.869942 0.615548 0.238864
0.894631 0.601277 0.230646
0.913033 0.586063 0.222275
0.000000 0.756156 0.245032
0.000000 0.749762 0.237485
0.295615 0.742841 0.229532
0.605743 0.735512 0.221345
0.740354 0.727788 0.212957
0.814776 0.719660 0.204379
0.858732 0.711111 0.195609
0.886604 0.702116 0.186639
0.906966 0.692648 0.177456
0.000000 0.805310 0.202065
0.000000 0.800865 0.193850
0.050515 0.796068 0.185160
0.525040 0.791008 0.176166
0.700648 0.785696 0.166890
0.792063 0.780132 0.157324
0.845319 0.774309 0.147441
0.877562 0.768215 0.137197
0.900250 0.761840 0.126480
0.000000 0.839943 0.154516
0.000000 0.836811 0.145226
0.000000 0.833433 0.135267
0.409002 0.829872 0.124648
0.650268 0.826137 0.113498
0.764307 0.822231 0.102146
0.828970 0.818149 0.090304
0.867302 0.813887 0.077732
0.892781 0.809438 0.064197
0.000000 0.864396 0.098596
0.000000 0.862174 0.087401
0.000000 0.859803 0.075088
0.232275 0.857309 0.061691
0.584447 0.854690 0.047225
0.730091 0.851947 0.031819
0.809093 0.849077 0.016212
0.855500 0.846078 0.002650
0.884423 0.842947 0.000000
0.000000 0.882901 0.026793
0.000000 0.881138 0.012486
0.000000 0.879264 0.000334
0.000000 0.877317 0.000000
0.494464 0.875304 0.000000
0.687307 0.873227 0.000000
0.784894 0.871086 0.000000
0.841229 0.868880 0.000000
0.875004 0.866606 0.000000
0.000000 0.000000 0.577682
0.463124 0.000000 0.574862
0.669670 0.000000 0.571900
0.773780 0.000000 0.568861
0.834082 0.000000 0.565759
0.870222 0.000000 0.562602
0.894763 0.000000 0.559391
0.913090 0.000000 0.556129
0.927368 0.000000 0.552817
0.000000 0.377423 0.562793
0.326632 0.345951 0.559802
0.614759 0.310567 0.556659
0.744258 0.271773 0.553433
0.816735 0.229518 0.550139
0.859748 0.183242 0.546784
0.887242 0.130818 0.543372
0.907397 0.066564 0.539903
0.922889 0.000000 0.536379
0.000000 0.573128 0.546359
0.115055 0.557324 0.543173
0.539822 0.539823 0.539823
0.706696 0.520817 0.536382
0.795107 0.500220 0.532867
0.846951 0.477868 0.529286
0.878539 0.453454 0.525642
0.900918 0.426629 0.521935
0.917855 0.397080 0.518167
0.000000 0.683988 0.528578
0.000000 0.674366 0.525171
0.433394 0.663873 0.521588
0.658967 0.652671 0.517905
0.768554 0.640760 0.514142
0.831262 0.628101 0.510305
0.868603 0.614643 0.506398
0.893661 0.600315 0.502422
0.912295 0.585040 0.498378
0.000000 0.755716 0.509385
0.000000 0.749304 0.505730
0.271398 0.742362 0.501884
0.596896 0.735012 0.497929
0.735819 0.727265 0.493885
0.812150 0.719113 0.489760
0.857184 0.710537 0.485556
0.885522 0.701513 0.481276
0.906156 0.692015 0.476917
0.000000 0.805003 0.488649
0.000000 0.800546 0.484716
0.002407 0.795737 0.480573
0.512857 0.790663 0.476307
0.694979 0.785337 0.471937
0.788877 0.779758 0.467472
0.843437 0.773919 0.462913
0.876345 0.767808 0.458262
0.899356 0.761416 0.453520
0.000000 0.839727 0.466170
0.000000 0.836587 0.461900
0.000000 0.833200 0.457396
0.390607 0.829629 0.452753
0.643002 0.825885 0.447993
0.760412 0.821969 0.443125
0.826689 0.817876 0.438152
0.865919 0.813603 0.433074
0.891787 0.809143 0.427892
0.000000 0.864242 0.441619
0.000000 0.862016 0.436959
0.000000 0.859640 0.432038
0.204902 0.857139 0.426963
0.574781 0.854513 0.421756
0.725272 0.851762 0.416426
0.806328 0.848885 0.410977
0.853870 0.845879 0.405417
0.883310 0.842739 0.399749
0.000000 0.882778 0.414700
0.000000 0.881013 0.409593
0.000000 0.879136 0.404205
0.000000 0.877185 0.398654
0.480844 0.875169 0.392967
0.681233 0.873089 0.387156
0.781528 0.870944 0.381225
0.839247 0.868734 0.375178
0.873747 0.866456 0.369015
0.000000 0.000000 0.687561
0.447609 0.000000 0.685833
0.662947 0.000000 0.684024
0.770078 0.000000 0.682172
0.831895 0.000000 0.680287
0.868869 0.000000 0.678374
0.893782 0.000000 0.676435
0.912343 0.000000 0.674470
0.926777 0.000000 0.672481
0.000000 0.375264 0.678490
0.303603 0.343615 0.676683
0.606124 0.308038 0.674789
0.739766 0.269042 0.672851
0.814119 0.226563 0.670878
0.858204 0.179986 0.668875
0.886154 0.126971 0.666844
0.906581 0.061592 0.664786
0.922252 0.000000 0.662702
0.000000 0.572035 0.668622
0.075797 0.556161 0.666726
0.528132 0.538580 0.664738
0.701127 0.519483 0.662704
0.791952 0.498783 0.660632
0.845083 0.476313 0.658529
0.877320 0.451754 0.656396
0.900019 0.424764 0.654234
0.917162 0.395035 0.652044
0.000000 0.683318 0.658114
0.000000 0.673663 0.656121
0.416142 0.663134 0.654032
0.651891 0.651892 0.651892
0.764716 0.639937 0.649713
0.829004 0.627232 0.647500
0.867222 0.613721 0.645255
0.892665 0.599336 0.642979
0.911538 0.583997 0.640674
0.000000 0.755268 0.646971
0.000000 0.748837 0.644872
0.245648 0.741876 0.642672
0.587582 0.734504 0.640418
0.731093 0.726733 0.638123
0.809421 0.718556 0.635790
0.855574 0.709953 0.633423
0.884409 0.700901 0.631023
0.905324 0.691372 0.628591
0.000000 0.804691 0.635164
0.000000 0.800223 0.632951
0.000000 0.795401 0.630630
0.499929 0.790313 0.628251
0.689055 0.784972 0.625828
0.785564 0.779378 0.623365
0.841481 0.773522 0.620865
0.875091 0.767395 0.618329
0.898437 0.760984 0.615758
0.000000 0.839508 0.622650
0.000000 0.836359 0.620311
0.000000 0.832963 0.617858
0.370943 0.829383 0.615344
0.635382 0.825629 0.612781
0.756359 0.821702 0.610176
0.824319 0.817599 0.607530
0.864493 0.813314 0.604845
0.890764 0.808842 0.602123
0.000000 0.864085 0.609373
0.000000 0.861855 0.606897
0.000000 0.859474 0.604300
0.175455 0.856966 0.601636
0.564585 0.854333 0.598921
0.720248 0.851575 0.596159
0.803455 0.848690 0.593353
0.852176 0.845675 0.590506
0.882164 0.842527 0.587616
0.000000 0.882654 0.595268
0.000000 0.880886 0.592643
0.000000 0.879006 0.589887
0.000000 0.877052 0.587059
0.466318 0.875032 0.584176
0.674881 0.872948 0.581242
0.778027 0.870799 0.578260
0.837187 0.868585 0.575233
0.872451 0.866304 0.572160
0.000000 0.000000 0.758629
0.431061 0.000000 0.757476
0.655945 0.000000 0.756269
0.766249 0.000000 0.755036
0.829634 0.000000 0.753782
0.867481 0.000000 0.752512
0.892779 0.000000 0.751226
0.911580 0.000000 0.749924
0.926175 0.000000 0.748609
0.000000 0.373076 0.752589
0.279227 0.341246 0.751390
0.597090 0.305475 0.750135
0.735112 0.266274 0.748853
0.811417 0.223566 0.747550
0.856607 0.176678 0.746229
0.885042 0.122894 0.744891
0.905748 0.056453 0.743538
0.921602 0.000000 0.742169
0.000000 0.570928 0.746062
0.027235 0.554983 0.744813
0.515813 0.537321 0.743506
0.695344 0.518132 0.742171
0.788691 0.497327 0.740813
0.843152 0.474735 0.739436
0.876071 0.450031 0.738042
0.899101 0.422871 0.736631
0.916455 0.392961 0.735205
0.000000 0.682640 0.739164
0.000000 0.672952 0.737862
0.397722 0.662386 0.736500
0.644515 0.651104 0.735106
0.760744 0.639105 0.733690
0.826672 0.626352 0.732254
0.865807 0.612788 0.730799
0.891647 0.598345 0.729327
0.910765 0.582942 0.727839
0.000000 0.754815 0.731910
0.000000 0.748366 0.730551
0.218372 0.741383 0.729129
0.577821 0.733989 0.727674
0.726194 0.726195 0.726195
0.806601 0.717992 0.724695
0.853909 0.709363 0.723176
0.883270 0.700281 0.721639
0.904475 0.690721 0.720083
0.000000 0.804376 0.724293
0.000000 0.799896 0.722873
0.000000 0.795060 0.721387
0.486267 0.789959 0.719867
0.682898 0.784604 0.718321
0.782139 0.778994 0.716753
0.839459 0.773122 0.715165
0.873806 0.766977 0.713557
0.897498 0.760548 0.711931
0.000000 0.839286 0.716298
0.000000 0.836129 0.714814
0.000000 0.832723 0.713259
0.350044 0.829134 0.711669
0.627429 0.825370 0.710052
0.752162 0.821432 0.708412
0.821871 0.817318 0.706750
0.863031 0.813022 0.705068
0.889719 0.808538 0.703365
0.000000 0.863927 0.707907
0.000000 0.861693 0.706353
0.000000 0.859306 0.704726
0.143363 0.856792 0.703061
0.553877 0.854151 0.701368
0.715035 0.851385 0.699650
0.800485 0.848493 0.697909
0.850424 0.845470 0.696146
0.880990 0.842314 0.694363
0.000000 0.882528 0.699097
0.000000 0.880757 0.697469
0.000000 0.878874 0.695764
0.000000 0.876917 0.694019
0.450855 0.874894 0.692244
0.668272 0.872806 0.690443
0.774406 0.870654 0.688617
0.835058 0.868435 0.686769
0.871124 0.866150 0.684897
0.000000 0.000000 0.807396
0.413421 0.000000 0.806595
0.648666 0.000000 0.805758
0.762295 0.000000 0.804902
0.827305 0.000000 0.804033
0.866062 0.000000 0.803152
0.891756 0.000000 0.802261
0.910804 0.000000 0.801361
0.925563 0.000000 0.800451
0.000000 0.370862 0.803205
0.253501 0.338851 0.802375
0.587652 0.302884 0.801507
0.730300 0.263476 0.800619
0.808631 0.220534 0.799718
0.854960 0.173324 0.798805
0.883906 0.118827 0.797882
0.904899 0.051156 0.796948
0.920941 0.000000 0.796004
0.000000 0.569810 0.798690
0.000000 0.553793 0.797828
0.502844 0.536048 0.796926
0.689349 0.516766 0.796005
0.785327 0.495855 0.795069
0.841161 0.473140 0.794121
0.874795 0.448287 0.793162
0.898166 0.420956 0.792192
0.915737 0.390864 0.791212
0.000000 0.681956 0.793934
0.000000 0.672235 0.793039
0.378170 0.661632 0.792102
0.636841 0.650309 0.791144
0.756643 0.638266 0.790172
0.824269 0.625463 0.789187
0.864359 0.611846 0.788190
0.890608 0.597344 0.787182
0.909979 0.581876 0.786163
0.000000 0.754358 0.788951
0.000000 0.747890 0.788020
0.189386 0.740887 0.787046
0.567607 0.733470 0.786051
0.721125 0.725653 0.785040
0.803694 0.717424 0.784015
0.852192 0.708767 0.782978
0.882108 0.699656 0.781930
0.903610 0.690064 0.780871
0.000000 0.804058 0.783741
0.000000 0.799566 0.782772
0.000000 0.794717 0.781759
0.471830 0.789602 0.780723
0.676511 0.784232 0.779672
0.778605 0.778606 0.778606
0.837376 0.772717 0.777527
0.872494 0.766555 0.776437
0.896541 0.760108 0.775334
0.000000 0.839062 0.778297
0.000000 0.835896 0.777289
0.000000 0.832482 0.776234
0.327907 0.828883 0.775157
0.619143 0.825109 0.774062
0.747826 0.821161 0.772953
0.819347 0.817035 0.771830
0.861534 0.812728 0.770694
0.888652 0.808231 0.769547
0.000000 0.863768 0.772612
0.000000 0.861529 0.771562
0.000000 0.859137 0.770464
0.106990 0.856616 0.769342
0.542647 0.853968 0.768202
0.709638 0.851194 0.767047
0.797423 0.848294 0.765877
0.848618 0.845263 0.764695
0.879792 0.842098 0.763499
0.000000 0.882402 0.766675
0.000000 0.880628 0.765582
0.000000 0.878741 0.764438
0.000000 0.876781 0.763269
0.434403 0.874754 0.762082
0.661408 0.872663 0.760878
0.770669 0.870507 0.759659
0.832864 0.868284 0.758427
0.869766 0.865995 0.757181
0.000000 0.000000 0.841671
0.394660 0.000000 0.841108
0.641104 0.000000 0.840520
0.758218 0.000000 0.839918
0.824907 0.000000 0.839308
0.864612 0.000000 0.838690
0.890715 0.000000 0.838064
0.910015 0.000000 0.837431
0.924942 0.000000 0.836792
0.000000 0.368627 0.838727
0.226362 0.336432 0.838144
0.577796 0.300268 0.837534
0.725329 0.260651 0.836911
0.805763 0.217472 0.836278
0.853263 0.169926 0.835637
0.882748 0.114749 0.834988
0.904037 0.045710 0.834333
0.920270 0.000000 0.833670
0.000000 0.568682 0.835556
0.000000 0.552593 0.834951
0.489188 0.534764 0.834318
0.683139 0.515387 0.833671
0.781861 0.494369 0.833014
0.839112 0.471529 0.832349
0.873493 0.446524 0.831676
0.897214 0.419020 0.830996
0.915007 0.388745 0.830308
0.000000 0.681267 0.832218
0.000000 0.671512 0.831590
0.357455 0.660871 0.830932
0.628861 0.649508 0.830261
0.752412 0.637419 0.829579
0.821795 0.624568 0.828889
0.862879 0.610897 0.828190
0.889549 0.596335 0.827483
0.909180 0.580802 0.826770
0.000000 0.753898 0.828723
0.000000 0.747411 0.828071
0.158211 0.740387 0.827388
0.556920 0.732948 0.826691
0.715886 0.725106 0.825983
0.800701 0.716852 0.825266
0.850424 0.708167 0.824540
0.880922 0.699027 0.823806
0.902731 0.689403 0.823065
0.000000 0.803738 0.825073
0.000000 0.799233 0.824395
0.000000 0.794372 0.823686
0.456525 0.789242 0.822962
0.669888 0.783857 0.822227
0.774963 0.778216 0.821481
0.835231 0.772310 0.820728
0.871154 0.766131 0.819966
0.895566 0.759664 0.819196
0.000000 0.838836 0.821266
0.000000 0.835662 0.820561
0.000000 0.832239 0.819824
0.304516 0.828630 0.819072
0.610514 0.824846 0.818308
0.743352 0.820887 0.817534
0.816750 0.816751 0.816750
0.860004 0.812431 0.815959
0.887565 0.807923 0.815159
0.000000 0.863608 0.817296
0.000000 0.861364 0.816564
0.000000 0.858967 0.815798
0.065386 0.856438 0.815016
0.530868 0.853783 0.814222
0.704057 0.851002 0.813418
0.794270 0.848093 0.812604
0.846757 0.845054 0.811781
0.878571 0.841881 0.810950
0.000000 0.882275 0.813159
0.000000 0.880498 0.812398
0.000000 0.878608 0.811603
0.000000 0.876644 0.810790
0.416891 0.874614 0.809964
0.654284 0.872519 0.809128
0.766817 0.870359 0.808282
0.830606 0.868133 0.807427
0.868380 0.865839 0.806563
0.000000 0.000000 0.865817
0.374785 0.000000 0.865415
0.633249 0.000000 0.864994
0.754016 0.000000 0.864566
0.822440 0.000000 0.864132
0.863132 0.000000 0.863693
0.889654 0.000000 0.863250
0.909214 0.000000 0.862803
0.924313 0.000000 0.862353
0.000000 0.366370 0.863719
0.197633 0.333991 0.863306
0.567501 0.297629 0.862875
0.720195 0.257802 0.862436
0.802813 0.214381 0.861991
0.851516 0.166487 0.861541
0.881568 0.110641 0.861086
0.903159 0.040130 0.860628
0.919589 0.000000 0.860166
0.000000 0.567546 0.861484
0.000000 0.551383 0.861060
0.474793 0.533470 0.860618
0.676710 0.513997 0.860166
0.778292 0.492871 0.859709
0.837003 0.469902 0.859245
0.872165 0.444745 0.858775
0.896246 0.417065 0.858300
0.914266 0.386606 0.857820
0.000000 0.680573 0.859153
0.000000 0.670785 0.858715
0.335541 0.660106 0.858256
0.620563 0.648701 0.857787
0.748050 0.636567 0.857311
0.819250 0.623665 0.856828
0.861368 0.609940 0.856340
0.888472 0.595319 0.855846
0.908369 0.579718 0.855347
0.000000 0.753435 0.856713
0.000000 0.746929 0.856257
0.123573 0.739884 0.855780
0.545736 0.732422 0.855292
0.710474 0.724556 0.854797
0.797621 0.716276 0.854295
0.848603 0.707563 0.853787
0.879714 0.698393 0.853274
0.901837 0.688737 0.852755
0.000000 0.803417 0.854161
0.000000 0.798899 0.853686
0.000000 0.794024 0.853190
0.440280 0.788880 0.852683
0.663025 0.783480 0.852167
0.771212 0.777823 0.851645
0.833024 0.771901 0.851117
0.869786 0.765703 0.850583
0.894575 0.759218 0.850044
0.000000 0.838609 0.851494
0.000000 0.835427 0.851001
0.000000 0.831994 0.850484
0.279853 0.828375 0.849957
0.601527 0.824581 0.849421
0.738737 0.820612 0.848879
0.814077 0.816464 0.848330
0.858434 0.812133 0.847774
0.886459 0.807612 0.847213
0.000000 0.863447 0.848712
0.000000 0.861199 0.848199
0.000000 0.858795 0.847662
0.014612 0.856260 0.847113
0.518509 0.853597 0.846556
0.698286 0.850808 0.845992
0.791024 0.847892 0.845421
0.844843 0.844844 0.844844
0.877325 0.841662 0.844261
0.000000 0.882147 0.845811
0.000000 0.880367 0.845277
0.000000 0.878474 0.844719
0.000000 0.876507 0.844148
0.398263 0.874473 0.843569
0.646891 0.872374 0.842983
0.762849 0.870210 0.842389
0.828283 0.867980 0.841789
0.866966 0.865682 0.841183
0.000000 0.000000 0.884178
0.353753 0.000000 0.883858
0.625090 0.000000 0.883524
0.749686 0.000000 0.883184
0.819905 0.000000 0.882840
0.861622 0.000000 0.882493
0.888576 0.000000 0.882142
0.908400 0.000000 0.881788
0.923675 0.000000 0.881432
0.000000 0.364094 0.882514
0.166913 0.331530 0.882187
0.556744 0.294969 0.881845
0.714896 0.254930 0.881498
0.799778 0.211263 0.881146
0.849719 0.163006 0.880791
0.880366 0.106491 0.880432
0.902269 0.034439 0.880071
0.918899 0.000000 0.879707
0.000000 0.566401 0.880746
0.000000 0.550164 0.880411
0.459562 0.532166 0.880063
0.670053 0.512596 0.879707
0.774620 0.491360 0.879347
0.834836 0.468262 0.878983
0.870811 0.442950 0.878616
0.895261 0.415091 0.878246
0.913514 0.384449 0.877873
0.000000 0.679875 0.878912
0.000000 0.670052 0.878569
0.312402 0.659335 0.878212
0.611934 0.647888 0.877848
0.743554 0.635709 0.877479
0.816634 0.622757 0.877106
0.859826 0.608976 0.876731
0.887376 0.594295 0.876352
0.907545 0.578628 0.875970
0.000000 0.752970 0.877018
0.000000 0.746444 0.876667
0.084454 0.739377 0.876301
0.534023 0.731893 0.875928
0.704883 0.724002 0.875550
0.794453 0.715696 0.875168
0.846731 0.706955 0.874783
0.878483 0.697755 0.874395
0.900928 0.688066 0.874003
0.000000 0.803093 0.875066
0.000000 0.798563 0.874706
0.000000 0.793674 0.874331
0.423017 0.788516 0.873949
0.655912 0.783101 0.873562
0.767351 0.777428 0.873170
0.830756 0.771489 0.872775
0.868392 0.765274 0.872377
0.893567 0.758770 0.871976
0.000000 0.838381 0.873057
0.000000 0.835190 0.872688
0.000000 0.831748 0.872303
0.253886 0.828119 0.871911
0.592165 0.824315 0.871514
0.733977 0.820335 0.871113
0.811330 0.816176 0.870708
0.856817 0.811833 0.870299
0.885332 0.807300 0.869887
0.000000 0.863285 0.870990
0.000000 0.861033 0.870611
0.000000 0.858623 0.870216
0.000000 0.856081 0.869814
0.505532 0.853410 0.869407
0.692319 0.850614 0.868995
0.787686 0.847689 0.868579
0.842875 0.844633 0.868160
0.876056 0.841442 0.867737
0.000000 0.882018 0.868863
0.000000 0.880235 0.868474
0.000000 0.878339 0.868069
0.000000 0.876369 0.867656
0.378534 0.874331 0.867238
0.639220 0.872229 0.866815
0.758762 0.870061 0.866388
0.825895 0.867827 0.865958
0.865523 0.865524 0.865524
