tmnt2_acescg_to_rec709_shaper.cube
TITLE "TMNT2 ACEScg to Rec709 with Shaper"
DOMAIN_MIN 0.0 0.0 0.0
DOMAIN_MAX 50.0 50.0 50.0

LUT_1D_SIZE 4096
0.072906 0.072906 0.072906
0.192021 0.192021 0.192021
0.249099 0.249099 0.249099
0.282487 0.282487 0.282487
0.306176 0.306176 0.306176
0.324551 0.324551 0.324551
0.339565 0.339565 0.339565
0.352258 0.352258 0.352258
0.363254 0.363254 0.363254
0.372953 0.372953 0.372953
0.381629 0.381629 0.381629
0.389477 0.389477 0.389477
0.396642 0.396642 0.396642
0.403233 0.403233 0.403233
0.409336 0.409336 0.409336
0.415017 0.415017 0.415017
0.420331 0.420331 0.420331
0.425324 0.425324 0.425324
0.430030 0.430030 0.430030
0.434483 0.434483 0.434483
0.438706 0.438706 0.438706
0.442724 0.442724 0.442724
0.446555 0.446555 0.446555
0.450215 0.450215 0.450215
0.453720 0.453720 0.453720
0.457081 0.457081 0.457081
0.460311 0.460311 0.460311
0.463419 0.463419 0.463419
0.466413 0.466413 0.466413
0.469303 0.469303 0.469303
0.472095 0.472095 0.472095
0.474795 0.474795 0.474795
0.477409 0.477409 0.477409
0.479943 0.479943 0.479943
0.482401 0.482401 0.482401
0.484788 0.484788 0.484788
0.487108 0.487108 0.487108
0.489364 0.489364 0.489364
0.491560 0.491560 0.491560
0.493699 0.493699 0.493699
0.495784 0.495784 0.495784
0.497817 0.497817 0.497817
0.499802 0.499802 0.499802
0.501739 0.501739 0.501739
0.503632 0.503632 0.503632
0.505483 0.505483 0.505483
0.507293 0.507293 0.507293
0.509064 0.509064 0.509064
0.510797 0.510797 0.510797
0.512495 0.512495 0.512495
0.514159 0.514159 0.514159
0.515790 0.515790 0.515790
0.517389 0.517389 0.517389
0.518957 0.518957 0.518957
0.520496 0.520496 0.520496
0.522007 0.522007 0.522007
0.523491 0.523491 0.523491
0.524949 0.524949 0.524949
0.526380 0.526380 0.526380
0.527788 0.527788 0.527788
0.529172 0.529172 0.529172
0.530533 0.530533 0.530533
0.531872 0.531872 0.531872
0.533190 0.533190 0.533190
0.534487 0.534487 0.534487
0.535763 0.535763 0.535763
0.537021 0.537021 0.537021
0.538259 0.538259 0.538259
0.539479 0.539479 0.539479
0.540681 0.540681 0.540681
0.541866 0.541866 0.541866
0.543034 0.543034 0.543034
0.544186 0.544186 0.544186
0.545321 0.545321 0.545321
0.546442 0.546442 0.546442
0.547547 0.547547 0.547547
0.548638 0.548638 0.548638
0.549714 0.549714 0.549714
0.550777 0.550777 0.550777
0.551826 0.551826 0.551826
0.552862 0.552862 0.552862
0.553885 0.553885 0.553885
0.554895 0.554895 0.554895
0.555893 0.555893 0.555893
0.556879 0.556879 0.556879
0.557854 0.557854 0.557854
0.558817 0.558817 0.558817
0.559769 0.559769 0.559769
0.560710 0.560710 0.560710
0.561640 0.561640 0.561640
0.562560 0.562560 0.562560
0.563470 0.563470 0.563470
0.564371 0.564371 0.564371
0.565261 0.565261 0.565261
0.566141 0.566141 0.566141
0.567013 0.567013 0.567013
0.567875 0.567875 0.567875
0.568728 0.568728 0.568728
0.569573 0.569573 0.569573
0.570409 0.570409 0.570409
0.571236 0.571236 0.571236
0.572056 0.572056 0.572056
0.572867 0.572867 0.572867
0.573670 0.573670 0.573670
0.574466 0.574466 0.574466
0.575254 0.575254 0.575254
0.576035 0.576035 0.576035
0.576808 0.576808 0.576808
0.577574 0.577574 0.577574
0.578333 0.578333 0.578333
0.579085 0.579085 0.579085
0.579830 0.579830 0.579830
0.580568 0.580568 0.580568
0.581300 0.581300 0.581300
0.582026 0.582026 0.582026
0.582745 0.582745 0.582745
0.583458 0.583458 0.583458
0.584165 0.584165 0.584165
0.584866 0.584866 0.584866
0.585561 0.585561 0.585561
0.586250 0.586250 0.586250
0.586933 0.586933 0.586933
0.587611 0.587611 0.587611
0.588283 0.588283 0.588283
0.588950 0.588950 0.588950
0.589611 0.589611 0.589611
0.590268 0.590268 0.590268
0.590918 0.590918 0.590918
0.591564 0.591564 0.591564
0.592205 0.592205 0.592205
0.592841 0.592841 0.592841
0.593472 0.593472 0.593472
0.594098 0.594098 0.594098
0.594720 0.594720 0.594720
0.595337 0.595337 0.595337
0.595949 0.595949 0.595949
0.596556 0.596556 0.596556
0.597160 0.597160 0.597160
0.597759 0.597759 0.597759
0.598353 0.598353 0.598353
0.598943 0.598943 0.598943
0.599530 0.599530 0.599530
0.600112 0.600112 0.600112
0.600689 0.600689 0.600689
0.601263 0.601263 0.601263
0.601833 0.601833 0.601833
0.602399 0.602399 0.602399
0.602961 0.602961 0.602961
0.603519 0.603519 0.603519
0.604074 0.604074 0.604074
0.604625 0.604625 0.604625
0.605172 0.605172 0.605172
0.605715 0.605715 0.605715
0.606256 0.606256 0.606256
0.606792 0.606792 0.606792
0.607325 0.607325 0.607325
0.607854 0.607854 0.607854
0.608381 0.608381 0.608381
0.608903 0.608903 0.608903
0.609423 0.609423 0.609423
0.609939 0.609939 0.609939
0.610453 0.610453 0.610453
0.610962 0.610962 0.610962
0.611469 0.611469 0.611469
0.611973 0.611973 0.611973
0.612473 0.612473 0.612473
0.612971 0.612971 0.612971
0.613465 0.613465 0.613465
0.613957 0.613957 0.613957
0.614445 0.614445 0.614445
0.614931 0.614931 0.614931
0.615414 0.615414 0.615414
0.615894 0.615894 0.615894
0.616372 0.616372 0.616372
0.616846 0.616846 0.616846
0.617318 0.617318 0.617318
0.617788 0.617788 0.617788
0.618254 0.618254 0.618254
0.618718 0.618718 0.618718
0.619179 0.619179 0.619179
0.619638 0.619638 0.619638
0.620094 0.620094 0.620094
0.620548 0.620548 0.620548
0.620999 0.620999 0.620999
0.621448 0.621448 0.621448
0.621894 0.621894 0.621894
0.622338 0.622338 0.622338
0.622780 0.622780 0.622780
0.623219 0.623219 0.623219
0.623656 0.623656 0.623656
0.624090 0.624090 0.624090
0.624522 0.624522 0.624522
0.624953 0.624953 0.624953
0.625380 0.625380 0.625380
0.625806 0.625806 0.625806
0.626229 0.626229 0.626229
0.626651 0.626651 0.626651
0.627070 0.627070 0.627070
0.627486 0.627486 0.627486
0.627901 0.627901 0.627901
0.628314 0.628314 0.628314
0.628725 0.628725 0.628725
0.629133 0.629133 0.629133
0.629540 0.629540 0.629540
0.629945 0.629945 0.629945
0.630347 0.630347 0.630347
0.630748 0.630748 0.630748
0.631147 0.631147 0.631147
0.631544 0.631544 0.631544
0.631939 0.631939 0.631939
0.632332 0.632332 0.632332
0.632723 0.632723 0.632723
0.633112 0.633112 0.633112
0.633500 0.633500 0.633500
0.633886 0.633886 0.633886
0.634269 0.634269 0.634269
0.634652 0.634652 0.634652
0.635032 0.635032 0.635032
0.635410 0.635410 0.635410
0.635787 0.635787 0.635787
0.636162 0.636162 0.636162
0.636536 0.636536 0.636536
0.636908 0.636908 0.636908
0.637278 0.637278 0.637278
0.637646 0.637646 0.637646
0.638013 0.638013 0.638013
0.638378 0.638378 0.638378
0.638742 0.638742 0.638742
0.639104 0.639104 0.639104
0.639464 0.639464 0.639464
0.639823 0.639823 0.639823
0.640180 0.640180 0.640180
0.640536 0.640536 0.640536
0.640890 0.640890 0.640890
0.641243 0.641243 0.641243
0.641594 0.641594 0.641594
0.641944 0.641944 0.641944
0.642292 0.642292 0.642292
0.642638 0.642638 0.642638
0.642984 0.642984 0.642984
0.643327 0.643327 0.643327
0.643670 0.643670 0.643670
0.644011 0.644011 0.644011
0.644350 0.644350 0.644350
0.644689 0.644689 0.644689
0.645025 0.645025 0.645025
0.645361 0.645361 0.645361
0.645695 0.645695 0.645695
0.646028 0.646028 0.646028
0.646359 0.646359 0.646359
0.646689 0.646689 0.646689
0.647018 0.647018 0.647018
0.647345 0.647345 0.647345
0.647671 0.647671 0.647671
0.647996 0.647996 0.647996
0.648320 0.648320 0.648320
0.648642 0.648642 0.648642
0.648963 0.648963 0.648963
0.649283 0.649283 0.649283
0.649601 0.649601 0.649601
0.649919 0.649919 0.649919
0.650235 0.650235 0.650235
0.650550 0.650550 0.650550
0.650863 0.650863 0.650863
0.651176 0.651176 0.651176
0.651487 0.651487 0.651487
0.651797 0.651797 0.651797
0.652106 0.652106 0.652106
0.652414 0.652414 0.652414
0.652721 0.652721 0.652721
0.653026 0.653026 0.653026
0.653331 0.653331 0.653331
0.653634 0.653634 0.653634
0.653936 0.653936 0.653936
0.654237 0.654237 0.654237
0.654537 0.654537 0.654537
0.654836 0.654836 0.654836
0.655134 0.655134 0.655134
0.655431 0.655431 0.655431
0.655726 0.655726 0.655726
0.656021 0.656021 0.656021
0.656315 0.656315 0.656315
0.656607 0.656607 0.656607
0.656899 0.656899 0.656899
0.657189 0.657189 0.657189
0.657479 0.657479 0.657479
0.657767 0.657767 0.657767
0.658054 0.658054 0.658054
0.658341 0.658341 0.658341
0.658626 0.658626 0.658626
0.658911 0.658911 0.658911
0.659194 0.659194 0.659194
0.659477 0.659477 0.659477
0.659758 0.659758 0.659758
0.660039 0.660039 0.660039
0.660318 0.660318 0.660318
0.660597 0.660597 0.660597
0.660875 0.660875 0.660875
0.661152 0.661152 0.661152
0.661427 0.661427 0.661427
0.661702 0.661702 0.661702
0.661976 0.661976 0.661976
0.662249 0.662249 0.662249
0.662522 0.662522 0.662522
0.662793 0.662793 0.662793
0.663063 0.663063 0.663063
0.663333 0.663333 0.663333
0.663602 0.663602 0.663602
0.663869 0.663869 0.663869
0.664137 0.664137 0.664137
0.664402 0.664402 0.664402
0.664668 0.664668 0.664668
0.664932 0.664932 0.664932
0.665195 0.665195 0.665195
0.665458 0.665458 0.665458
0.665720 0.665720 0.665720
0.665981 0.665981 0.665981
0.666241 0.666241 0.666241
0.666501 0.666501 0.666501
0.666759 0.666759 0.666759
0.667017 0.667017 0.667017
0.667274 0.667274 0.667274
0.667530 0.667530 0.667530
0.667785 0.667785 0.667785
0.668040 0.668040 0.668040
0.668294 0.668294 0.668294
0.668546 0.668546 0.668546
0.668799 0.668799 0.668799
0.669050 0.669050 0.669050
0.669301 0.669301 0.669301
0.669551 0.669551 0.669551
0.669800 0.669800 0.669800
0.670048 0.670048 0.670048
0.670296 0.670296 0.670296
0.670543 0.670543 0.670543
0.670789 0.670789 0.670789
0.671034 0.671034 0.671034
0.671279 0.671279 0.671279
0.671523 0.671523 0.671523
0.671766 0.671766 0.671766
0.672009 0.672009 0.672009
0.672251 0.672251 0.672251
0.672492 0.672492 0.672492
0.672732 0.672732 0.672732
0.672972 0.672972 0.672972
0.673211 0.673211 0.673211
0.673450 0.673450 0.673450
0.673687 0.673687 0.673687
0.673924 0.673924 0.673924
0.674161 0.674161 0.674161
0.674396 0.674396 0.674396
0.674631 0.674631 0.674631
0.674865 0.674865 0.674865
0.675099 0.675099 0.675099
0.675332 0.675332 0.675332
0.675564 0.675564 0.675564
0.675796 0.675796 0.675796
0.676027 0.676027 0.676027
0.676257 0.676257 0.676257
0.676487 0.676487 0.676487
0.676716 0.676716 0.676716
0.676944 0.676944 0.676944
0.677172 0.677172 0.677172
0.677399 0.677399 0.677399
0.677626 0.677626 0.677626
0.677852 0.677852 0.677852
0.678077 0.678077 0.678077
0.678302 0.678302 0.678302
0.678526 0.678526 0.678526
0.678749 0.678749 0.678749
0.678972 0.678972 0.678972
0.679194 0.679194 0.679194
0.679416 0.679416 0.679416
0.679637 0.679637 0.679637
0.679857 0.679857 0.679857
0.680077 0.680077 0.680077
0.680297 0.680297 0.680297
0.680515 0.680515 0.680515
0.680733 0.680733 0.680733
0.680951 0.680951 0.680951
0.681168 0.681168 0.681168
0.681384 0.681384 0.681384
0.681600 0.681600 0.681600
0.681816 0.681816 0.681816
0.682030 0.682030 0.682030
0.682244 0.682244 0.682244
0.682458 0.682458 0.682458
0.682671 0.682671 0.682671
0.682884 0.682884 0.682884
0.683095 0.683095 0.683095
0.683307 0.683307 0.683307
0.683518 0.683518 0.683518
0.683728 0.683728 0.683728
0.683938 0.683938 0.683938
0.684147 0.684147 0.684147
0.684356 0.684356 0.684356
0.684564 0.684564 0.684564
0.684772 0.684772 0.684772
0.684979 0.684979 0.684979
0.685186 0.685186 0.685186
0.685392 0.685392 0.685392
0.685597 0.685597 0.685597
0.685802 0.685802 0.685802
0.686007 0.686007 0.686007
0.686211 0.686211 0.686211
0.686415 0.686415 0.686415
0.686618 0.686618 0.686618
0.686820 0.686820 0.686820
0.687022 0.687022 0.687022
0.687224 0.687224 0.687224
0.687425 0.687425 0.687425
0.687626 0.687626 0.687626
0.687826 0.687826 0.687826
0.688026 0.688026 0.688026
0.688224 0.688224 0.688224
0.688423 0.688423 0.688423
0.688621 0.688621 0.688621
0.688819 0.688819 0.688819
0.689016 0.689016 0.689016
0.689213 0.689213 0.689213
0.689409 0.689409 0.689409
0.689605 0.689605 0.689605
0.689801 0.689801 0.689801
0.689995 0.689995 0.689995
0.690190 0.690190 0.690190
0.690384 0.690384 0.690384
0.690577 0.690577 0.690577
0.690770 0.690770 0.690770
0.690963 0.690963 0.690963
0.691155 0.691155 0.691155
0.691347 0.691347 0.691347
0.691538 0.691538 0.691538
0.691729 0.691729 0.691729
0.691920 0.691920 0.691920
0.692109 0.692109 0.692109
0.692299 0.692299 0.692299
0.692488 0.692488 0.692488
0.692677 0.692677 0.692677
0.692865 0.692865 0.692865
0.693053 0.693053 0.693053
0.693240 0.693240 0.693240
0.693427 0.693427 0.693427
0.693614 0.693614 0.693614
0.693800 0.693800 0.693800
0.693985 0.693985 0.693985
0.694171 0.694171 0.694171
0.694355 0.694355 0.694355
0.694540 0.694540 0.694540
0.694724 0.694724 0.694724
0.694907 0.694907 0.694907
0.695091 0.695091 0.695091
0.695273 0.695273 0.695273
0.695456 0.695456 0.695456
0.695638 0.695638 0.695638
0.695819 0.695819 0.695819
0.696001 0.696001 0.696001
0.696181 0.696181 0.696181
0.696362 0.696362 0.696362
0.696542 0.696542 0.696542
0.696721 0.696721 0.696721
0.696901 0.696901 0.696901
0.697079 0.697079 0.697079
0.697258 0.697258 0.697258
0.697436 0.697436 0.697436
0.697614 0.697614 0.697614
0.697791 0.697791 0.697791
0.697968 0.697968 0.697968
0.698144 0.698144 0.698144
0.698320 0.698320 0.698320
0.698496 0.698496 0.698496
0.698671 0.698671 0.698671
0.698846 0.698846 0.698846
0.699021 0.699021 0.699021
0.699195 0.699195 0.699195
0.699369 0.699369 0.699369
0.699543 0.699543 0.699543
0.699716 0.699716 0.699716
0.699889 0.699889 0.699889
0.700061 0.700061 0.700061
0.700234 0.700234 0.700234
0.700405 0.700405 0.700405
0.700577 0.700577 0.700577
0.700747 0.700747 0.700747
0.700918 0.700918 0.700918
0.701089 0.701089 0.701089
0.701258 0.701258 0.701258
0.701428 0.701428 0.701428
0.701597 0.701597 0.701597
0.701766 0.701766 0.701766
0.701935 0.701935 0.701935
0.702103 0.702103 0.702103
0.702271 0.702271 0.702271
0.702438 0.702438 0.702438
0.702606 0.702606 0.702606
0.702773 0.702773 0.702773
0.702939 0.702939 0.702939
0.703105 0.703105 0.703105
0.703271 0.703271 0.703271
0.703437 0.703437 0.703437
0.703602 0.703602 0.703602
0.703767 0.703767 0.703767
0.703931 0.703931 0.703931
0.704095 0.704095 0.704095
0.704259 0.704259 0.704259
0.704423 0.704423 0.704423
0.704586 0.704586 0.704586
0.704749 0.704749 0.704749
0.704911 0.704911 0.704911
0.705074 0.705074 0.705074
0.705236 0.705236 0.705236
0.705397 0.705397 0.705397
0.705559 0.705559 0.705559
0.705720 0.705720 0.705720
0.705880 0.705880 0.705880
0.706041 0.706041 0.706041
0.706201 0.706201 0.706201
0.706360 0.706360 0.706360
0.706520 0.706520 0.706520
0.706679 0.706679 0.706679
0.706838 0.706838 0.706838
0.706996 0.706996 0.706996
0.707154 0.707154 0.707154
0.707313 0.707313 0.707313
0.707470 0.707470 0.707470
0.707627 0.707627 0.707627
0.707784 0.707784 0.707784
0.707941 0.707941 0.707941
0.708097 0.708097 0.708097
0.708254 0.708254 0.708254
0.708409 0.708409 0.708409
0.708565 0.708565 0.708565
0.708720 0.708720 0.708720
0.708875 0.708875 0.708875
0.709030 0.709030 0.709030
0.709184 0.709184 0.709184
0.709338 0.709338 0.709338
0.709492 0.709492 0.709492
0.709645 0.709645 0.709645
0.709798 0.709798 0.709798
0.709951 0.709951 0.709951
0.710104 0.710104 0.710104
0.710256 0.710256 0.710256
0.710408 0.710408 0.710408
0.710560 0.710560 0.710560
0.710712 0.710712 0.710712
0.710863 0.710863 0.710863
0.711014 0.711014 0.711014
0.711165 0.711165 0.711165
0.711315 0.711315 0.711315
0.711465 0.711465 0.711465
0.711615 0.711615 0.711615
0.711765 0.711765 0.711765
0.711914 0.711914 0.711914
0.712063 0.712063 0.712063
0.712212 0.712212 0.712212
0.712360 0.712360 0.712360
0.712508 0.712508 0.712508
0.712656 0.712656 0.712656
0.712804 0.712804 0.712804
0.712952 0.712952 0.712952
0.713099 0.713099 0.713099
0.713246 0.713246 0.713246
0.713392 0.713392 0.713392
0.713539 0.713539 0.713539
0.713685 0.713685 0.713685
0.713831 0.713831 0.713831
0.713976 0.713976 0.713976
0.714122 0.714122 0.714122
0.714267 0.714267 0.714267
0.714412 0.714412 0.714412
0.714556 0.714556 0.714556
0.714700 0.714700 0.714700
0.714845 0.714845 0.714845
0.714988 0.714988 0.714988
0.715132 0.715132 0.715132
0.715276 0.715276 0.715276
0.715418 0.715418 0.715418
0.715561 0.715561 0.715561
0.715704 0.715704 0.715704
0.715846 0.715846 0.715846
0.715988 0.715988 0.715988
0.716130 0.716130 0.716130
0.716272 0.716272 0.716272
0.716413 0.716413 0.716413
0.716555 0.716555 0.716555
0.716695 0.716695 0.716695
0.716836 0.716836 0.716836
0.716976 0.716976 0.716976
0.717116 0.717116 0.717116
0.717256 0.717256 0.717256
0.717396 0.717396 0.717396
0.717535 0.717535 0.717535
0.717675 0.717675 0.717675
0.717814 0.717814 0.717814
0.717952 0.717952 0.717952
0.718091 0.718091 0.718091
0.718229 0.718229 0.718229
0.718367 0.718367 0.718367
0.718505 0.718505 0.718505
0.718643 0.718643 0.718643
0.718780 0.718780 0.718780
0.718917 0.718917 0.718917
0.719054 0.719054 0.719054
0.719191 0.719191 0.719191
0.719327 0.719327 0.719327
0.719463 0.719463 0.719463
0.719599 0.719599 0.719599
0.719735 0.719735 0.719735
0.719871 0.719871 0.719871
0.720006 0.720006 0.720006
0.720141 0.720141 0.720141
0.720276 0.720276 0.720276
0.720411 0.720411 0.720411
0.720545 0.720545 0.720545
0.720679 0.720679 0.720679
0.720813 0.720813 0.720813
0.720947 0.720947 0.720947
0.721081 0.721081 0.721081
0.721214 0.721214 0.721214
0.721347 0.721347 0.721347
0.721480 0.721480 0.721480
0.721613 0.721613 0.721613
0.721745 0.721745 0.721745
0.721878 0.721878 0.721878
0.722010 0.722010 0.722010
0.722141 0.722141 0.722141
0.722273 0.722273 0.722273
0.722405 0.722405 0.722405
0.722536 0.722536 0.722536
0.722667 0.722667 0.722667
0.722798 0.722798 0.722798
0.722928 0.722928 0.722928
0.723059 0.723059 0.723059
0.723189 0.723189 0.723189
0.723319 0.723319 0.723319
0.723449 0.723449 0.723449
0.723578 0.723578 0.723578
0.723708 0.723708 0.723708
0.723837 0.723837 0.723837
0.723966 0.723966 0.723966
0.724095 0.724095 0.724095
0.724223 0.724223 0.724223
0.724351 0.724351 0.724351
0.724480 0.724480 0.724480
0.724608 0.724608 0.724608
0.724735 0.724735 0.724735
0.724863 0.724863 0.724863
0.724990 0.724990 0.724990
0.725117 0.725117 0.725117
0.725244 0.725244 0.725244
0.725371 0.725371 0.725371
0.725498 0.725498 0.725498
0.725624 0.725624 0.725624
0.725750 0.725750 0.725750
0.725876 0.725876 0.725876
0.726002 0.726002 0.726002
0.726128 0.726128 0.726128
0.726253 0.726253 0.726253
0.726378 0.726378 0.726378
0.726503 0.726503 0.726503
0.726628 0.726628 0.726628
0.726753 0.726753 0.726753
0.726878 0.726878 0.726878
0.727002 0.727002 0.727002
0.727126 0.727126 0.727126
0.727250 0.727250 0.727250
0.727374 0.727374 0.727374
0.727497 0.727497 0.727497
0.727620 0.727620 0.727620
0.727744 0.727744 0.727744
0.727867 0.727867 0.727867
0.727989 0.727989 0.727989
0.728112 0.728112 0.728112
0.728235 0.728235 0.728235
0.728357 0.728357 0.728357
0.728479 0.728479 0.728479
0.728601 0.728601 0.728601
0.728723 0.728723 0.728723
0.728844 0.728844 0.728844
0.728965 0.728965 0.728965
0.729087 0.729087 0.729087
0.729208 0.729208 0.729208
0.729328 0.729328 0.729328
0.729449 0.729449 0.729449
0.729570 0.729570 0.729570
0.729690 0.729690 0.729690
0.729810 0.729810 0.729810
0.729930 0.729930 0.729930
0.730050 0.730050 0.730050
0.730169 0.730169 0.730169
0.730289 0.730289 0.730289
0.730408 0.730408 0.730408
0.730527 0.730527 0.730527
0.730646 0.730646 0.730646
0.730765 0.730765 0.730765
0.730883 0.730883 0.730883
0.731002 0.731002 0.731002
0.731120 0.731120 0.731120
0.731238 0.731238 0.731238
0.731356 0.731356 0.731356
0.731474 0.731474 0.731474
0.731591 0.731591 0.731591
0.731709 0.731709 0.731709
0.731826 0.731826 0.731826
0.731943 0.731943 0.731943
0.732060 0.732060 0.732060
0.732176 0.732176 0.732176
0.732293 0.732293 0.732293
0.732409 0.732409 0.732409
0.732526 0.732526 0.732526
0.732642 0.732642 0.732642
0.732758 0.732758 0.732758
0.732873 0.732873 0.732873
0.732989 0.732989 0.732989
0.733104 0.733104 0.733104
0.733219 0.733219 0.733219
0.733335 0.733335 0.733335
0.733449 0.733449 0.733449
0.733564 0.733564 0.733564
0.733679 0.733679 0.733679
0.733793 0.733793 0.733793
0.733908 0.733908 0.733908
0.734022 0.734022 0.734022
0.734136 0.734136 0.734136
0.734250 0.734250 0.734250
0.734363 0.734363 0.734363
0.734477 0.734477 0.734477
0.734590 0.734590 0.734590
0.734703 0.734703 0.734703
0.734816 0.734816 0.734816
0.734929 0.734929 0.734929
0.735042 0.735042 0.735042
0.735154 0.735154 0.735154
0.735267 0.735267 0.735267
0.735379 0.735379 0.735379
0.735491 0.735491 0.735491
0.735603 0.735603 0.735603
0.735715 0.735715 0.735715
0.735827 0.735827 0.735827
0.735938 0.735938 0.735938
0.736050 0.736050 0.736050
0.736161 0.736161 0.736161
0.736272 0.736272 0.736272
0.736383 0.736383 0.736383
0.736493 0.736493 0.736493
0.736604 0.736604 0.736604
0.736715 0.736715 0.736715
0.736825 0.736825 0.736825
0.736935 0.736935 0.736935
0.737045 0.737045 0.737045
0.737155 0.737155 0.737155
0.737265 0.737265 0.737265
0.737374 0.737374 0.737374
0.737484 0.737484 0.737484
0.737593 0.737593 0.737593
0.737702 0.737702 0.737702
0.737811 0.737811 0.737811
0.737920 0.737920 0.737920
0.738029 0.738029 0.738029
0.738137 0.738137 0.738137
0.738246 0.738246 0.738246
0.738354 0.738354 0.738354
0.738462 0.738462 0.738462
0.738570 0.738570 0.738570
0.738678 0.738678 0.738678
0.738786 0.738786 0.738786
0.738893 0.738893 0.738893
0.739001 0.739001 0.739001
0.739108 0.739108 0.739108
0.739215 0.739215 0.739215
0.739322 0.739322 0.739322
0.739429 0.739429 0.739429
0.739536 0.739536 0.739536
0.739642 0.739642 0.739642
0.739749 0.739749 0.739749
0.739855 0.739855 0.739855
0.739961 0.739961 0.739961
0.740067 0.740067 0.740067
0.740173 0.740173 0.740173
0.740279 0.740279 0.740279
0.740385 0.740385 0.740385
0.740490 0.740490 0.740490
0.740595 0.740595 0.740595
0.740701 0.740701 0.740701
0.740806 0.740806 0.740806
0.740911 0.740911 0.740911
0.741015 0.741015 0.741015
0.741120 0.741120 0.741120
0.741225 0.741225 0.741225
0.741329 0.741329 0.741329
0.741433 0.741433 0.741433
0.741538 0.741538 0.741538
0.741642 0.741642 0.741642
0.741746 0.741746 0.741746
0.741849 0.741849 0.741849
0.741953 0.741953 0.741953
0.742057 0.742057 0.742057
0.742160 0.742160 0.742160
0.742263 0.742263 0.742263
0.742366 0.742366 0.742366
0.742469 0.742469 0.742469
0.742572 0.742572 0.742572
0.742675 0.742675 0.742675
0.742778 0.742778 0.742778
0.742880 0.742880 0.742880
0.742983 0.742983 0.742983
0.743085 0.743085 0.743085
0.743187 0.743187 0.743187
0.743289 0.743289 0.743289
0.743391 0.743391 0.743391
0.743492 0.743492 0.743492
0.743594 0.743594 0.743594
0.743695 0.743695 0.743695
0.743797 0.743797 0.743797
0.743898 0.743898 0.743898
0.743999 0.743999 0.743999
0.744100 0.744100 0.744100
0.744201 0.744201 0.744201
0.744302 0.744302 0.744302
0.744402 0.744402 0.744402
0.744503 0.744503 0.744503
0.744603 0.744603 0.744603
0.744703 0.744703 0.744703
0.744803 0.744803 0.744803
0.744903 0.744903 0.744903
0.745003 0.745003 0.745003
0.745103 0.745103 0.745103
0.745203 0.745203 0.745203
0.745302 0.745302 0.745302
0.745402 0.745402 0.745402
0.745501 0.745501 0.745501
0.745600 0.745600 0.745600
0.745699 0.745699 0.745699
0.745798 0.745798 0.745798
0.745897 0.745897 0.745897
0.745995 0.745995 0.745995
0.746094 0.746094 0.746094
0.746192 0.746192 0.746192
0.746291 0.746291 0.746291
0.746389 0.746389 0.746389
0.746487 0.746487 0.746487
0.746585 0.746585 0.746585
0.746683 0.746683 0.746683
0.746781 0.746781 0.746781
0.746878 0.746878 0.746878
0.746976 0.746976 0.746976
0.747073 0.747073 0.747073
0.747171 0.747171 0.747171
0.747267 0.747267 0.747267
0.747365 0.747365 0.747365
0.747461 0.747461 0.747461
0.747558 0.747558 0.747558
0.747655 0.747655 0.747655
0.747752 0.747752 0.747752
0.747848 0.747848 0.747848
0.747945 0.747945 0.747945
0.748041 0.748041 0.748041
0.748137 0.748137 0.748137
0.748233 0.748233 0.748233
0.748329 0.748329 0.748329
0.748425 0.748425 0.748425
0.748520 0.748520 0.748520
0.748616 0.748616 0.748616
0.748711 0.748711 0.748711
0.748807 0.748807 0.748807
0.748902 0.748902 0.748902
0.748997 0.748997 0.748997
0.749092 0.749092 0.749092
0.749187 0.749187 0.749187
0.749282 0.749282 0.749282
0.749377 0.749377 0.749377
0.749471 0.749471 0.749471
0.749566 0.749566 0.749566
0.749660 0.749660 0.749660
0.749754 0.749754 0.749754
0.749848 0.749848 0.749848
0.749943 0.749943 0.749943
0.750036 0.750036 0.750036
0.750131 0.750131 0.750131
0.750224 0.750224 0.750224
0.750318 0.750318 0.750318
0.750411 0.750411 0.750411
0.750505 0.750505 0.750505
0.750598 0.750598 0.750598
