tmnt2_acescct_to_rec709.cube
LUT_3D_SIZE 9
0.000000 0.000000 0.000000
0.032740 0.000000 0.000000
0.154863 0.000000 0.000000
0.468102 0.000000 0.000000
0.843793 0.000000 0.000000
0.992142 0.000000 0.000000
1.000000 0.000000 0.000000
1.000000 0.000000 0.000000
1.000000 0.000000 0.000000
0.000000 0.003183 0.000000
0.000938 0.000000 0.000000
0.132284 0.000000 0.000000
0.457902 0.000000 0.000000
0.842482 0.000000 0.000000
0.992053 0.000000 0.000000
1.000000 0.000000 0.000000
1.000000 0.000000 0.000000
1.000000 0.000000 0.000000
0.000000 0.097002 0.000000
0.000000 0.091497 0.000000
0.090500 0.082080 0.000000
0.440190 0.031476 0.000000
0.840269 0.000000 0.000000
0.991906 0.000000 0.000000
1.000000 0.000000 0.000000
1.000000 0.000000 0.000000
1.000000 0.000000 0.000000
0.000000 0.355781 0.000000
0.000000 0.352825 0.000000
0.000000 0.347894 0.000000
0.342066 0.324266 0.000000
0.829185 0.192283 0.000000
0.991217 0.000000 0.000000
1.000000 0.000000 0.000000
1.000000 0.000000 0.000000
1.000000 0.000000 0.000000
0.000000 0.763341 0.000000
0.000000 0.762789 0.000000
0.000000 0.761873 0.000000
0.000000 0.757553 0.000000
0.751403 0.735094 0.000000
0.987697 0.566673 0.000000
1.000000 0.000000 0.000000
1.000000 0.000000 0.000000
1.000000 0.000000 0.000000
0.000000 0.967361 0.000000
0.000000 0.967324 0.000000
0.000000 0.967264 0.000000
0.000000 0.966982 0.000000
0.000000 0.965606 0.000000
0.963629 0.958453 0.000000
1.000000 0.896669 0.000000
1.000000 0.000000 0.000000
1.000000 0.000000 0.000000
0.000000 1.000000 0.000000
0.000000 1.000000 0.000000
0.000000 1.000000 0.000000
0.000000 1.000000 0.000000
0.000000 1.000000 0.000000
0.000000 1.000000 0.000000
1.000000 1.000000 0.000000
1.000000 1.000000 0.000000
1.000000 0.000000 0.000000
0.000000 1.000000 0.000000
0.000000 1.000000 0.000000
0.000000 1.000000 0.000000
0.000000 1.000000 0.000000
0.000000 1.000000 0.000000
0.000000 1.000000 0.000000
0.000000 1.000000 0.000000
1.000000 1.000000 0.000000
1.000000 1.000000 0.000000
0.000000 1.000000 0.000000
0.000000 1.000000 0.000000
0.000000 1.000000 0.000000
0.000000 1.000000 0.000000
0.000000 1.000000 0.000000
0.000000 1.000000 0.000000
0.000000 1.000000 0.000000
0.000000 1.000000 0.000000
1.000000 1.000000 0.000000
0.000000 0.000000 0.003609
0.028208 0.000000 0.002622
0.152030 0.000000 0.001081
0.466802 0.000000 0.000000
0.843624 0.000000 0.000000
0.992130 0.000000 0.000000
1.000000 0.000000 0.000000
1.000000 0.000000 0.000000
1.000000 0.000000 0.000000
0.000000 0.002826 0.000000
0.000000 0.000000 0.000000
0.129223 0.000000 0.000000
0.456553 0.000000 0.000000
0.842311 0.000000 0.000000
0.992042 0.000000 0.000000
1.000000 0.000000 0.000000
1.000000 0.000000 0.000000
1.000000 0.000000 0.000000
0.000000 0.096634 0.000000
0.000000 0.091120 0.000000
0.086982 0.081685 0.000000
0.438754 0.030984 0.000000
0.840093 0.000000 0.000000
0.991895 0.000000 0.000000
1.000000 0.000000 0.000000
1.000000 0.000000 0.000000
1.000000 0.000000 0.000000
0.000000 0.355582 0.000000
0.000000 0.352625 0.000000
0.000000 0.347691 0.000000
0.340164 0.324052 0.000000
0.828985 0.192005 0.000000
0.991205 0.000000 0.000000
1.000000 0.000000 0.000000
1.000000 0.000000 0.000000
1.000000 0.000000 0.000000
0.000000 0.763304 0.000000
0.000000 0.762752 0.000000
0.000000 0.761836 0.000000
0.000000 0.757515 0.000000
0.751032 0.735049 0.000000
0.987683 0.566575 0.000000
1.000000 0.000000 0.000000
1.000000 0.000000 0.000000
1.000000 0.000000 0.000000
0.000000 0.967359 0.000000
0.000000 0.967322 0.000000
0.000000 0.967261 0.000000
0.000000 0.966979 0.000000
0.000000 0.965603 0.000000
0.963604 0.958450 0.000000
1.000000 0.896661 0.000000
1.000000 0.000000 0.000000
1.000000 0.000000 0.000000
0.000000 1.000000 0.000000
0.000000 1.000000 0.000000
0.000000 1.000000 0.000000
0.000000 1.000000 0.000000
0.000000 1.000000 0.000000
0.000000 1.000000 0.000000
1.000000 1.000000 0.000000
1.000000 1.000000 0.000000
1.000000 0.000000 0.000000
0.000000 1.000000 0.000000
0.000000 1.000000 0.000000
0.000000 1.000000 0.000000
0.000000 1.000000 0.000000
0.000000 1.000000 0.000000
0.000000 1.000000 0.000000
0.000000 1.000000 0.000000
1.000000 1.000000 0.000000
1.000000 1.000000 0.000000
0.000000 1.000000 0.000000
0.000000 1.000000 0.000000
0.000000 1.000000 0.000000
0.000000 1.000000 0.000000
0.000000 1.000000 0.000000
0.000000 1.000000 0.000000
0.000000 1.000000 0.000000
0.000000 1.000000 0.000000
1.000000 1.000000 0.000000
0.000000 0.000000 0.098147
0.020751 0.000000 0.097135
0.147295 0.000000 0.095455
0.464640 0.000000 0.087504
0.843345 0.000000 0.044223
0.992111 0.000000 0.000000
1.000000 0.000000 0.000000
1.000000 0.000000 0.000000
1.000000 0.000000 0.000000
0.000000 0.002249 0.092886
0.000000 0.000000 0.091852
0.123924 0.000000 0.090132
0.454310 0.000000 0.081973
0.842027 0.000000 0.037382
0.992023 0.000000 0.000000
1.000000 0.000000 0.000000
1.000000 0.000000 0.000000
1.000000 0.000000 0.000000
0.000000 0.096024 0.083909
0.000000 0.090495 0.082829
0.081030 0.081031 0.081031
0.436366 0.030172 0.072456
0.839801 0.000000 0.025865
0.991876 0.000000 0.000000
1.000000 0.000000 0.000000
1.000000 0.000000 0.000000
1.000000 0.000000 0.000000
0.000000 0.355253 0.035932
0.000000 0.352293 0.034586
0.000000 0.347356 0.032354
0.337003 0.323698 0.021997
0.828654 0.191545 0.000000
0.991186 0.000000 0.000000
1.000000 0.000000 0.000000
1.000000 0.000000 0.000000
1.000000 0.000000 0.000000
0.000000 0.763243 0.000000
0.000000 0.762690 0.000000
0.000000 0.761773 0.000000
0.000000 0.757451 0.000000
0.750416 0.734976 0.000000
0.987662 0.566414 0.000000
1.000000 0.000000 0.000000
1.000000 0.000000 0.000000
1.000000 0.000000 0.000000
0.000000 0.967355 0.000000
0.000000 0.967318 0.000000
0.000000 0.967257 0.000000
0.000000 0.966975 0.000000
0.000000 0.965599 0.000000
0.963562 0.958445 0.000000
1.000000 0.896646 0.000000
1.000000 0.000000 0.000000
1.000000 0.000000 0.000000
0.000000 1.000000 0.000000
0.000000 1.000000 0.000000
0.000000 1.000000 0.000000
0.000000 1.000000 0.000000
0.000000 1.000000 0.000000
0.000000 1.000000 0.000000
1.000000 1.000000 0.000000
1.000000 1.000000 0.000000
1.000000 0.000000 0.000000
0.000000 1.000000 0.000000
0.000000 1.000000 0.000000
0.000000 1.000000 0.000000
0.000000 1.000000 0.000000
0.000000 1.000000 0.000000
0.000000 1.000000 0.000000
0.000000 1.000000 0.000000
1.000000 1.000000 0.000000
1.000000 1.000000 0.000000
0.000000 1.000000 0.000000
0.000000 1.000000 0.000000
0.000000 1.000000 0.000000
0.000000 1.000000 0.000000
0.000000 1.000000 0.000000
0.000000 1.000000 0.000000
0.000000 1.000000 0.000000
0.000000 1.000000 0.000000
1.000000 1.000000 0.000000
0.000000 0.000000 0.358188
0.000000 0.000000 0.357642
0.124131 0.000000 0.356739
0.454397 0.000000 0.352525
0.842038 0.000000 0.331766
0.992023 0.000000 0.219686
1.000000 0.000000 0.000000
1.000000 0.000000 0.000000
1.000000 0.000000 0.000000
0.000000 0.000000 0.355365
0.000000 0.000000 0.354816
0.098888 0.000000 0.353906
0.443676 0.000000 0.349663
0.840698 0.000000 0.328761
0.991935 0.000000 0.215936
1.000000 0.000000 0.000000
1.000000 0.000000 0.000000
1.000000 0.000000 0.000000
0.000000 0.093179 0.350658
0.000000 0.087578 0.350102
0.050672 0.077967 0.349182
0.425035 0.026406 0.344890
0.838436 0.000000 0.323751
0.991787 0.000000 0.209680
1.000000 0.000000 0.000000
1.000000 0.000000 0.000000
1.000000 0.000000 0.000000
0.000000 0.353724 0.328130
0.000000 0.350753 0.327544
0.000000 0.345797 0.326574
0.322051 0.322052 0.322052
0.827105 0.189408 0.299799
0.991095 0.000000 0.179565
1.000000 0.000000 0.000000
1.000000 0.000000 0.000000
1.000000 0.000000 0.000000
0.000000 0.762957 0.203096
0.000000 0.762404 0.202346
0.000000 0.761485 0.201105
0.000000 0.757154 0.195312
0.747533 0.734635 0.166497
0.987561 0.565662 0.000000
1.000000 0.000000 0.000000
1.000000 0.000000 0.000000
1.000000 0.000000 0.000000
0.000000 0.967336 0.000000
0.000000 0.967299 0.000000
0.000000 0.967238 0.000000
0.000000 0.966956 0.000000
0.000000 0.965579 0.000000
0.963371 0.958421 0.000000
1.000000 0.896577 0.000000
1.000000 0.000000 0.000000
1.000000 0.000000 0.000000
0.000000 1.000000 0.000000
0.000000 1.000000 0.000000
0.000000 1.000000 0.000000
0.000000 1.000000 0.000000
0.000000 1.000000 0.000000
0.000000 1.000000 0.000000
1.000000 1.000000 0.000000
1.000000 1.000000 0.000000
1.000000 0.000000 0.000000
0.000000 1.000000 0.000000
0.000000 1.000000 0.000000
0.000000 1.000000 0.000000
0.000000 1.000000 0.000000
0.000000 1.000000 0.000000
0.000000 1.000000 0.000000
0.000000 1.000000 0.000000
1.000000 1.000000 0.000000
1.000000 1.000000 0.000000
0.000000 1.000000 0.000000
0.000000 1.000000 0.000000
0.000000 1.000000 0.000000
0.000000 1.000000 0.000000
0.000000 1.000000 0.000000
0.000000 1.000000 0.000000
0.000000 1.000000 0.000000
0.000000 1.000000 0.000000
1.000000 1.000000 0.000000
0.000000 0.000000 0.765383
0.000000 0.000000 0.765281
0.000000 0.000000 0.765114
0.399673 0.000000 0.764335
0.835483 0.000000 0.760555
0.991600 0.000000 0.741394
1.000000 0.000000 0.609682
1.000000 0.000000 0.000000
1.000000 0.000000 0.000000
0.000000 0.000000 0.764860
0.000000 0.000000 0.764758
0.000000 0.000000 0.764590
0.386832 0.000000 0.763808
0.834034 0.000000 0.760015
0.991510 0.000000 0.740785
1.000000 0.000000 0.608510
1.000000 0.000000 0.000000
1.000000 0.000000 0.000000
0.000000 0.079022 0.763991
0.000000 0.072987 0.763889
0.000000 0.062552 0.763720
0.364582 0.009179 0.762934
0.831587 0.000000 0.759118
0.991361 0.000000 0.739773
1.000000 0.000000 0.606562
1.000000 0.000000 0.000000
1.000000 0.000000 0.000000
0.000000 0.346331 0.759901
0.000000 0.343307 0.759796
0.000000 0.338262 0.759623
0.243396 0.314099 0.758815
0.819337 0.179039 0.754894
0.990659 0.000000 0.735004
1.000000 0.000000 0.597320
1.000000 0.000000 0.000000
1.000000 0.000000 0.000000
0.000000 0.761584 0.738716
0.000000 0.761025 0.738596
0.000000 0.760098 0.738397
0.000000 0.755728 0.737476
0.732995 0.732997 0.732996
0.987073 0.562037 0.710196
1.000000 0.000000 0.547624
1.000000 0.000000 0.000000
1.000000 0.000000 0.000000
0.000000 0.967245 0.583938
0.000000 0.967208 0.583686
0.000000 0.967147 0.583269
0.000000 0.966864 0.581327
0.000000 0.965485 0.571824
0.962442 0.958310 0.521647
1.000000 0.896246 0.038979
1.000000 0.000000 0.000000
1.000000 0.000000 0.000000
0.000000 1.000000 0.000000
0.000000 1.000000 0.000000
0.000000 1.000000 0.000000
0.000000 1.000000 0.000000
0.000000 1.000000 0.000000
0.000000 1.000000 0.000000
1.000000 1.000000 0.000000
1.000000 1.000000 0.000000
1.000000 0.000000 0.000000
0.000000 1.000000 0.000000
0.000000 1.000000 0.000000
0.000000 1.000000 0.000000
0.000000 1.000000 0.000000
0.000000 1.000000 0.000000
0.000000 1.000000 0.000000
0.000000 1.000000 0.000000
1.000000 1.000000 0.000000
1.000000 1.000000 0.000000
0.000000 1.000000 0.000000
0.000000 1.000000 0.000000
0.000000 1.000000 0.000000
0.000000 1.000000 0.000000
0.000000 1.000000 0.000000
0.000000 1.000000 0.000000
0.000000 1.000000 0.000000
0.000000 1.000000 0.000000
1.000000 1.000000 0.000000
0.000000 0.000000 0.967995
0.000000 0.000000 0.967989
0.000000 0.000000 0.967977
0.000000 0.000000 0.967926
0.796661 0.000000 0.967679
0.989524 0.000000 0.966494
1.000000 0.000000 0.960483
1.000000 0.000000 0.914835
1.000000 0.000000 0.000000
0.000000 0.000000 0.967961
0.000000 0.000000 0.967954
0.000000 0.000000 0.967943
0.000000 0.000000 0.967891
0.794565 0.000000 0.967644
0.989428 0.000000 0.966458
1.000000 0.000000 0.960441
1.000000 0.000000 0.914737
1.000000 0.000000 0.000000
0.000000 0.001492 0.967903
0.000000 0.000000 0.967897
0.000000 0.000000 0.967885
0.000000 0.000000 0.967834
0.791022 0.000000 0.967586
0.989268 0.000000 0.966398
1.000000 0.000000 0.960373
1.000000 0.000000 0.914576
1.000000 0.000000 0.000000
0.000000 0.309694 0.967636
0.000000 0.306412 0.967630
0.000000 0.300940 0.967618
0.000000 0.274766 0.967566
0.773242 0.125651 0.967317
0.988519 0.000000 0.966122
1.000000 0.000000 0.960054
1.000000 0.000000 0.913821
1.000000 0.000000 0.000000
0.000000 0.754942 0.966336
0.000000 0.754360 0.966329
0.000000 0.753392 0.966318
0.000000 0.748827 0.966264
0.642934 0.725059 0.966007
0.984676 0.544239 0.964773
1.000000 0.000000 0.958500
1.000000 0.000000 0.910085
1.000000 0.000000 0.000000
0.000000 0.966814 0.959611
0.000000 0.966777 0.959602
0.000000 0.966716 0.959589
0.000000 0.966430 0.959526
0.000000 0.965035 0.959225
0.957780 0.957780 0.957780
1.000000 0.894666 0.950369
1.000000 0.000000 0.889010
1.000000 0.000000 0.000000
0.000000 1.000000 0.903947
0.000000 1.000000 0.903925
0.000000 1.000000 0.903888
0.000000 1.000000 0.903716
0.000000 1.000000 0.902890
0.000000 1.000000 0.898860
1.000000 1.000000 0.876371
1.000000 1.000000 0.307282
1.000000 0.000000 0.000000
0.000000 1.000000 0.000000
0.000000 1.000000 0.000000
0.000000 1.000000 0.000000
0.000000 1.000000 0.000000
0.000000 1.000000 0.000000
0.000000 1.000000 0.000000
0.000000 1.000000 0.000000
1.000000 1.000000 0.000000
1.000000 1.000000 0.000000
0.000000 1.000000 0.000000
0.000000 1.000000 0.000000
0.000000 1.000000 0.000000
0.000000 1.000000 0.000000
0.000000 1.000000 0.000000
0.000000 1.000000 0.000000
0.000000 1.000000 0.000000
0.000000 1.000000 0.000000
1.000000 1.000000 0.000000
0.000000 0.000000 1.000000
0.000000 0.000000 1.000000
0.000000 0.000000 1.000000
0.000000 0.000000 1.000000
0.000000 0.000000 1.000000
0.977648 0.000000 1.000000
1.000000 0.000000 1.000000
1.000000 0.000000 1.000000
1.000000 0.000000 1.000000
0.000000 0.000000 1.000000
0.000000 0.000000 1.000000
0.000000 0.000000 1.000000
0.000000 0.000000 1.000000
0.000000 0.000000 1.000000
0.977512 0.000000 1.000000
1.000000 0.000000 1.000000
1.000000 0.000000 1.000000
1.000000 0.000000 1.000000
0.000000 0.000000 1.000000
0.000000 0.000000 1.000000
0.000000 0.000000 1.000000
0.000000 0.000000 1.000000
0.000000 0.000000 1.000000
0.977287 0.000000 1.000000
1.000000 0.000000 1.000000
1.000000 0.000000 1.000000
1.000000 0.000000 1.000000
0.000000 0.085842 1.000000
0.000000 0.080031 1.000000
0.000000 0.070002 1.000000
0.000000 0.017045 1.000000
0.000000 0.000000 1.000000
0.976224 0.000000 1.000000
1.000000 0.000000 1.000000
1.000000 0.000000 1.000000
1.000000 0.000000 1.000000
0.000000 0.719792 1.000000
0.000000 0.719073 1.000000
0.000000 0.717879 1.000000
0.000000 0.712242 1.000000
0.000000 0.682679 1.000000
0.970687 0.441273 1.000000
1.000000 0.000000 1.000000
1.000000 0.000000 1.000000
1.000000 0.000000 1.000000
0.000000 0.964746 1.000000
0.000000 0.964707 1.000000
0.000000 0.964642 1.000000
0.000000 0.964342 1.000000
0.000000 0.962876 1.000000
0.926947 0.955225 1.000000
1.000000 0.886807 1.000000
1.000000 0.000000 1.000000
1.000000 0.000000 1.000000
0.000000 1.000000 1.000000
0.000000 1.000000 1.000000
0.000000 1.000000 1.000000
0.000000 1.000000 1.000000
0.000000 1.000000 1.000000
0.000000 1.000000 1.000000
1.000000 1.000000 1.000000
1.000000 1.000000 1.000000
1.000000 0.000000 1.000000
0.000000 1.000000 1.000000
0.000000 1.000000 1.000000
0.000000 1.000000 1.000000
0.000000 1.000000 1.000000
0.000000 1.000000 1.000000
0.000000 1.000000 1.000000
0.000000 1.000000 1.000000
1.000000 1.000000 1.000000
1.000000 1.000000 0.763863
0.000000 1.000000 0.000000
0.000000 1.000000 0.000000
0.000000 1.000000 0.000000
0.000000 1.000000 0.000000
0.000000 1.000000 0.000000
0.000000 1.000000 0.000000
0.000000 1.000000 0.000000
0.000000 1.000000 0.000000
1.000000 1.000000 0.000000
0.000000 0.000000 1.000000
0.000000 0.000000 1.000000
0.000000 0.000000 1.000000
0.000000 0.000000 1.000000
0.000000 0.000000 1.000000
0.000000 0.000000 1.000000
1.000000 0.000000 1.000000
1.000000 0.000000 1.000000
1.000000 0.000000 1.000000
0.000000 0.000000 1.000000
0.000000 0.000000 1.000000
0.000000 0.000000 1.000000
0.000000 0.000000 1.000000
0.000000 0.000000 1.000000
0.000000 0.000000 1.000000
1.000000 0.000000 1.000000
1.000000 0.000000 1.000000
1.000000 0.000000 1.000000
0.000000 0.000000 1.000000
0.000000 0.000000 1.000000
0.000000 0.000000 1.000000
0.000000 0.000000 1.000000
0.000000 0.000000 1.000000
0.000000 0.000000 1.000000
1.000000 0.000000 1.000000
1.000000 0.000000 1.000000
1.000000 0.000000 1.000000
0.000000 0.000000 1.000000
0.000000 0.000000 1.000000
0.000000 0.000000 1.000000
0.000000 0.000000 1.000000
0.000000 0.000000 1.000000
0.000000 0.000000 1.000000
1.000000 0.000000 1.000000
1.000000 0.000000 1.000000
1.000000 0.000000 1.000000
0.000000 0.356697 1.000000
0.000000 0.353748 1.000000
0.000000 0.348828 1.000000
0.000000 0.325253 1.000000
0.000000 0.193563 1.000000
0.000000 0.000000 1.000000
1.000000 0.000000 1.000000
1.000000 0.000000 1.000000
1.000000 0.000000 1.000000
0.000000 0.953632 1.000000
0.000000 0.953582 1.000000
0.000000 0.953499 1.000000
0.000000 0.953113 1.000000
0.000000 0.951226 1.000000
0.000000 0.941204 1.000000
1.000000 0.833562 1.000000
1.000000 0.000000 1.000000
1.000000 0.000000 1.000000
0.000000 1.000000 1.000000
0.000000 1.000000 1.000000
0.000000 1.000000 1.000000
0.000000 1.000000 1.000000
0.000000 1.000000 1.000000
0.000000 1.000000 1.000000
1.000000 1.000000 1.000000
1.000000 1.000000 1.000000
1.000000 0.000000 1.000000
0.000000 1.000000 1.000000
0.000000 1.000000 1.000000
0.000000 1.000000 1.000000
0.000000 1.000000 1.000000
0.000000 1.000000 1.000000
0.000000 1.000000 1.000000
0.000000 1.000000 1.000000
1.000000 1.000000 1.000000
1.000000 1.000000 1.000000
0.000000 1.000000 1.000000
0.000000 1.000000 1.000000
0.000000 1.000000 1.000000
0.000000 1.000000 1.000000
0.000000 1.000000 1.000000
0.000000 1.000000 1.000000
0.000000 1.000000 1.000000
0.000000 1.000000 1.000000
1.000000 1.000000 1.000000
0.000000 0.000000 1.000000
0.000000 0.000000 1.000000
0.000000 0.000000 1.000000
0.000000 0.000000 1.000000
0.000000 0.000000 1.000000
0.000000 0.000000 1.000000
0.000000 0.000000 1.000000
1.000000 0.000000 1.000000
1.000000 0.000000 1.000000
0.000000 0.000000 1.000000
0.000000 0.000000 1.000000
0.000000 0.000000 1.000000
0.000000 0.000000 1.000000
0.000000 0.000000 1.000000
0.000000 0.000000 1.000000
0.000000 0.000000 1.000000
1.000000 0.000000 1.000000
1.000000 0.000000 1.000000
0.000000 0.000000 1.000000
0.000000 0.000000 1.000000
0.000000 0.000000 1.000000
0.000000 0.000000 1.000000
0.000000 0.000000 1.000000
0.000000 0.000000 1.000000
0.000000 0.000000 1.000000
1.000000 0.000000 1.000000
1.000000 0.000000 1.000000
0.000000 0.000000 1.000000
0.000000 0.000000 1.000000
0.000000 0.000000 1.000000
0.000000 0.000000 1.000000
0.000000 0.000000 1.000000
0.000000 0.000000 1.000000
0.000000 0.000000 1.000000
1.000000 0.000000 1.000000
1.000000 0.000000 1.000000
0.000000 0.000000 1.000000
0.000000 0.000000 1.000000
0.000000 0.000000 1.000000
0.000000 0.000000 1.000000
0.000000 0.000000 1.000000
0.000000 0.000000 1.000000
0.000000 0.000000 1.000000
1.000000 0.000000 1.000000
1.000000 0.000000 1.000000
0.000000 0.778879 1.000000
0.000000 0.778383 1.000000
0.000000 0.777561 1.000000
0.000000 0.773684 1.000000
0.000000 0.753578 1.000000
0.000000 0.606434 1.000000
0.000000 0.000000 1.000000
1.000000 0.000000 1.000000
1.000000 0.000000 1.000000
0.000000 1.000000 1.000000
0.000000 1.000000 1.000000
0.000000 1.000000 1.000000
0.000000 1.000000 1.000000
0.000000 1.000000 1.000000
0.000000 1.000000 1.000000
0.000000 1.000000 1.000000
1.000000 0.989614 1.000000
1.000000 0.000000 1.000000
0.000000 1.000000 1.000000
0.000000 1.000000 1.000000
0.000000 1.000000 1.000000
0.000000 1.000000 1.000000
0.000000 1.000000 1.000000
0.000000 1.000000 1.000000
0.000000 1.000000 1.000000
1.000000 1.000000 1.000000
1.000000 1.000000 1.000000
0.000000 1.000000 1.000000
0.000000 1.000000 1.000000
0.000000 1.000000 1.000000
0.000000 1.000000 1.000000
0.000000 1.000000 1.000000
0.000000 1.000000 1.000000
0.000000 1.000000 1.000000
0.000000 1.000000 1.000000
1.000000 1.000000 1.000000
