tmnt2_acescg_to_rec709.cube
LUT_3D_SIZE 65
0.000000 0.000000 0.000000
0.090277 0.000000 0.000000
0.173441 0.000000 0.000000
0.243298 0.000000 0.000000
0.305673 0.000000 0.000000
0.361352 0.000000 0.000000
0.410523 0.000000 0.000000
0.453457 0.000000 0.000000
0.490891 0.000000 0.000000
0.524031 0.000000 0.000000
0.553670 0.000000 0.000000
0.580356 0.000000 0.000000
0.604524 0.000000 0.000000
0.626523 0.000000 0.000000
0.646635 0.000000 0.000000
0.665094 0.000000 0.000000
0.682095 0.000000 0.000000
0.697795 0.000000 0.000000
0.712336 0.000000 0.000000
0.725829 0.000000 0.000000
0.738377 0.000000 0.000000
0.750066 0.000000 0.000000
0.760971 0.000000 0.000000
0.771157 0.000000 0.000000
0.780681 0.000000 0.000000
0.789595 0.000000 0.000000
0.797944 0.000000 0.000000
0.805770 0.000000 0.000000
0.813105 0.000000 0.000000
0.819986 0.000000 0.000000
0.826438 0.000000 0.000000
0.832492 0.000000 0.000000
0.838168 0.000000 0.000000
0.843490 0.000000 0.000000
0.848477 0.000000 0.000000
0.853147 0.000000 0.000000
0.857518 0.000000 0.000000
0.861610 0.000000 0.000000
0.865500 0.000000 0.000000
0.869220 0.000000 0.000000
0.872780 0.000000 0.000000
0.876192 0.000000 0.000000
0.879465 0.000000 0.000000
0.882608 0.000000 0.000000
0.885628 0.000000 0.000000
0.888534 0.000000 0.000000
0.891331 0.000000 0.000000
0.894026 0.000000 0.000000
0.896625 0.000000 0.000000
0.899133 0.000000 0.000000
0.901554 0.000000 0.000000
0.903895 0.000000 0.000000
0.906158 0.000000 0.000000
0.908348 0.000000 0.000000
0.910468 0.000000 0.000000
0.912522 0.000000 0.000000
0.914513 0.000000 0.000000
0.916444 0.000000 0.000000
0.918318 0.000000 0.000000
0.920137 0.000000 0.000000
0.921904 0.000000 0.000000
0.923621 0.000000 0.000000
0.925291 0.000000 0.000000
0.926915 0.000000 0.000000
0.928495 0.000000 0.000000
0.000000 0.053941 0.000000
0.049843 0.044615 0.000000
0.144323 0.035376 0.000000
0.218533 0.025678 0.000000
0.283729 0.016001 0.000000
0.341998 0.007038 0.000000
0.393592 0.000000 0.000000
0.438815 0.000000 0.000000
0.478134 0.000000 0.000000
0.512722 0.000000 0.000000
0.543565 0.000000 0.000000
0.571266 0.000000 0.000000
0.596297 0.000000 0.000000
0.619040 0.000000 0.000000
0.639799 0.000000 0.000000
0.658825 0.000000 0.000000
0.676325 0.000000 0.000000
0.692470 0.000000 0.000000
0.707408 0.000000 0.000000
0.721259 0.000000 0.000000
0.734130 0.000000 0.000000
0.746113 0.000000 0.000000
0.757286 0.000000 0.000000
0.767717 0.000000 0.000000
0.777466 0.000000 0.000000
0.786589 0.000000 0.000000
0.795131 0.000000 0.000000
0.803135 0.000000 0.000000
0.810637 0.000000 0.000000
0.817672 0.000000 0.000000
0.824270 0.000000 0.000000
0.830460 0.000000 0.000000
0.836264 0.000000 0.000000
0.841706 0.000000 0.000000
0.846807 0.000000 0.000000
0.851585 0.000000 0.000000
0.856057 0.000000 0.000000
0.860239 0.000000 0.000000
0.864191 0.000000 0.000000
0.867969 0.000000 0.000000
0.871583 0.000000 0.000000
0.875045 0.000000 0.000000
0.878365 0.000000 0.000000
0.881552 0.000000 0.000000
0.884614 0.000000 0.000000
0.887558 0.000000 0.000000
0.890392 0.000000 0.000000
0.893121 0.000000 0.000000
0.895752 0.000000 0.000000
0.898291 0.000000 0.000000
0.900742 0.000000 0.000000
0.903110 0.000000 0.000000
0.905399 0.000000 0.000000
0.907614 0.000000 0.000000
0.909757 0.000000 0.000000
0.911833 0.000000 0.000000
0.913846 0.000000 0.000000
0.915797 0.000000 0.000000
0.917690 0.000000 0.000000
0.919527 0.000000 0.000000
0.921312 0.000000 0.000000
0.923045 0.000000 0.000000
0.924732 0.000000 0.000000
0.926371 0.000000 0.000000
0.927966 0.000000 0.000000
0.000000 0.119344 0.000000
0.006261 0.112327 0.000000
0.113243 0.105540 0.000000
0.193638 0.098403 0.000000
0.261798 0.090962 0.000000
0.322601 0.083187 0.000000
0.376589 0.075025 0.000000
0.424061 0.066422 0.000000
0.465340 0.057380 0.000000
0.501441 0.047895 0.000000
0.533512 0.038000 0.000000
0.562243 0.027824 0.000000
0.588149 0.017690 0.000000
0.611642 0.008243 0.000000
0.633051 0.000477 0.000000
0.652643 0.000000 0.000000
0.670643 0.000000 0.000000
0.687231 0.000000 0.000000
0.702564 0.000000 0.000000
0.716770 0.000000 0.000000
0.729962 0.000000 0.000000
0.742235 0.000000 0.000000
0.753672 0.000000 0.000000
0.764346 0.000000 0.000000
0.774318 0.000000 0.000000
0.783645 0.000000 0.000000
0.792376 0.000000 0.000000
0.800555 0.000000 0.000000
0.808221 0.000000 0.000000
0.815408 0.000000 0.000000
0.822148 0.000000 0.000000
0.828471 0.000000 0.000000
0.834400 0.000000 0.000000
0.839960 0.000000 0.000000
0.845172 0.000000 0.000000
0.850054 0.000000 0.000000
0.854626 0.000000 0.000000
0.858902 0.000000 0.000000
0.862919 0.000000 0.000000
0.866753 0.000000 0.000000
0.870420 0.000000 0.000000
0.873931 0.000000 0.000000
0.877297 0.000000 0.000000
0.880527 0.000000 0.000000
0.883629 0.000000 0.000000
0.886611 0.000000 0.000000
0.889481 0.000000 0.000000
0.892244 0.000000 0.000000
0.894907 0.000000 0.000000
0.897475 0.000000 0.000000
0.899954 0.000000 0.000000
0.902349 0.000000 0.000000
0.904664 0.000000 0.000000
0.906902 0.000000 0.000000
0.909069 0.000000 0.000000
0.911167 0.000000 0.000000
0.913200 0.000000 0.000000
0.915170 0.000000 0.000000
0.917082 0.000000 0.000000
0.918938 0.000000 0.000000
0.920739 0.000000 0.000000
0.922489 0.000000 0.000000
0.924191 0.000000 0.000000
0.925845 0.000000 0.000000
0.927454 0.000000 0.000000
0.000000 0.174113 0.000000
0.000000 0.168266 0.000000
0.077893 0.162581 0.000000
0.166444 0.156623 0.000000
0.238199 0.150472 0.000000
0.301696 0.144143 0.000000
0.358216 0.137631 0.000000
0.408040 0.130928 0.000000
0.451497 0.123852 0.000000
0.489314 0.116606 0.000000
0.522736 0.109319 0.000000
0.552595 0.101896 0.000000
0.579455 0.094264 0.000000
0.603763 0.086357 0.000000
0.625874 0.078108 0.000000
0.646079 0.069447 0.000000
0.664617 0.060350 0.000000
0.681680 0.050816 0.000000
0.697437 0.040856 0.000000
0.712022 0.030572 0.000000
0.725556 0.020229 0.000000
0.738139 0.010400 0.000000
0.749858 0.002049 0.000000
0.760788 0.000000 0.000000
0.770996 0.000000 0.000000
0.780540 0.000000 0.000000
0.789471 0.000000 0.000000
0.797836 0.000000 0.000000
0.805674 0.000000 0.000000
0.813022 0.000000 0.000000
0.819912 0.000000 0.000000
0.826376 0.000000 0.000000
0.832436 0.000000 0.000000
0.838120 0.000000 0.000000
0.843449 0.000000 0.000000
0.848441 0.000000 0.000000
0.853117 0.000000 0.000000
0.857492 0.000000 0.000000
0.861587 0.000000 0.000000
0.865481 0.000000 0.000000
0.869203 0.000000 0.000000
0.872766 0.000000 0.000000
0.876180 0.000000 0.000000
0.879456 0.000000 0.000000
0.882600 0.000000 0.000000
0.885622 0.000000 0.000000
0.888529 0.000000 0.000000
0.891328 0.000000 0.000000
0.894024 0.000000 0.000000
0.896624 0.000000 0.000000
0.899133 0.000000 0.000000
0.901556 0.000000 0.000000
0.903897 0.000000 0.000000
0.906161 0.000000 0.000000
0.908352 0.000000 0.000000
0.910472 0.000000 0.000000
0.912527 0.000000 0.000000
0.914518 0.000000 0.000000
0.916450 0.000000 0.000000
0.918324 0.000000 0.000000
0.920143 0.000000 0.000000
0.921910 0.000000 0.000000
0.923629 0.000000 0.000000
0.925298 0.000000 0.000000
0.926922 0.000000 0.000000
0.000000 0.222402 0.000000
0.000000 0.217146 0.000000
0.034605 0.212062 0.000000
0.136637 0.206765 0.000000
0.213151 0.201334 0.000000
0.279542 0.195789 0.000000
0.338683 0.190138 0.000000
0.390960 0.184383 0.000000
0.436729 0.178522 0.000000
0.476466 0.172554 0.000000
0.511355 0.166473 0.000000
0.542433 0.160272 0.000000
0.570317 0.153944 0.000000
0.595498 0.147477 0.000000
0.618359 0.140859 0.000000
0.639216 0.134073 0.000000
0.658324 0.127078 0.000000
0.675890 0.119660 0.000000
0.692094 0.112269 0.000000
0.707079 0.104786 0.000000
0.720972 0.097127 0.000000
0.733880 0.089219 0.000000
0.745894 0.080993 0.000000
0.757093 0.072378 0.000000
0.767547 0.063323 0.000000
0.777318 0.053830 0.000000
0.786458 0.043900 0.000000
0.795016 0.033600 0.000000
0.803033 0.023142 0.000000
0.810548 0.013007 0.000000
0.817594 0.004074 0.000000
0.824203 0.000000 0.000000
0.830400 0.000000 0.000000
0.836212 0.000000 0.000000
0.841662 0.000000 0.000000
0.846768 0.000000 0.000000
0.851551 0.000000 0.000000
0.856028 0.000000 0.000000
0.860215 0.000000 0.000000
0.864170 0.000000 0.000000
0.867950 0.000000 0.000000
0.871567 0.000000 0.000000
0.875031 0.000000 0.000000
0.878354 0.000000 0.000000
0.881543 0.000000 0.000000
0.884606 0.000000 0.000000
0.887552 0.000000 0.000000
0.890387 0.000000 0.000000
0.893118 0.000000 0.000000
0.895750 0.000000 0.000000
0.898290 0.000000 0.000000
0.900742 0.000000 0.000000
0.903111 0.000000 0.000000
0.905401 0.000000 0.000000
0.907616 0.000000 0.000000
0.909760 0.000000 0.000000
0.911837 0.000000 0.000000
0.913850 0.000000 0.000000
0.915801 0.000000 0.000000
0.917695 0.000000 0.000000
0.919533 0.000000 0.000000
0.921318 0.000000 0.000000
0.923052 0.000000 0.000000
0.924738 0.000000 0.000000
0.926378 0.000000 0.000000
0.000000 0.266885 0.000000
0.000000 0.262052 0.000000
0.000000 0.257381 0.000000
0.102906 0.252522 0.000000
0.186532 0.247550 0.000000
0.256181 0.242484 0.000000
0.318029 0.237335 0.000000
0.372860 0.232107 0.000000
0.421021 0.226802 0.000000
0.462861 0.221423 0.000000
0.499376 0.215969 0.000000
0.531766 0.210439 0.000000
0.560750 0.204833 0.000000
0.586861 0.199148 0.000000
0.610521 0.193382 0.000000
0.632068 0.187530 0.000000
0.651779 0.181588 0.000000
0.669876 0.175552 0.000000
0.686550 0.169414 0.000000
0.701955 0.163168 0.000000
0.716224 0.156803 0.000000
0.729471 0.150308 0.000000
0.741793 0.143671 0.000000
0.753273 0.136876 0.000000
0.763983 0.129903 0.000000
0.773989 0.122527 0.000000
0.783346 0.115071 0.000000
0.792104 0.107564 0.000000
0.800307 0.099911 0.000000
0.807995 0.092035 0.000000
0.815201 0.083865 0.000000
0.821961 0.075326 0.000000
0.828299 0.066355 0.000000
0.834243 0.056942 0.000000
0.839817 0.047084 0.000000
0.845040 0.036824 0.000000
0.849934 0.026316 0.000000
0.854516 0.015953 0.000000
0.858802 0.006497 0.000000
0.862827 0.000000 0.000000
0.866666 0.000000 0.000000
0.870338 0.000000 0.000000
0.873855 0.000000 0.000000
0.877226 0.000000 0.000000
0.880460 0.000000 0.000000
0.883567 0.000000 0.000000
0.886552 0.000000 0.000000
0.889425 0.000000 0.000000
0.892191 0.000000 0.000000
0.894857 0.000000 0.000000
0.897429 0.000000 0.000000
0.899910 0.000000 0.000000
0.902307 0.000000 0.000000
0.904625 0.000000 0.000000
0.906865 0.000000 0.000000
0.909034 0.000000 0.000000
0.911134 0.000000 0.000000
0.913168 0.000000 0.000000
0.915140 0.000000 0.000000
0.917054 0.000000 0.000000
0.918911 0.000000 0.000000
0.920713 0.000000 0.000000
0.922465 0.000000 0.000000
0.924168 0.000000 0.000000
0.925823 0.000000 0.000000
0.000000 0.308179 0.000000
0.000000 0.303722 0.000000
0.000000 0.299415 0.000000
0.064482 0.294934 0.000000
0.157957 0.290349 0.000000
0.231582 0.285678 0.000000
0.296257 0.280932 0.000000
0.353725 0.276115 0.000000
0.404331 0.271231 0.000000
0.448452 0.266282 0.000000
0.486777 0.261270 0.000000
0.520580 0.256195 0.000000
0.550742 0.251059 0.000000
0.577849 0.245861 0.000000
0.602357 0.240601 0.000000
0.624636 0.235279 0.000000
0.644983 0.229894 0.000000
0.663639 0.224445 0.000000
0.680807 0.218929 0.000000
0.696651 0.213346 0.000000
0.711314 0.207693 0.000000
0.724916 0.201968 0.000000
0.737558 0.196166 0.000000
0.749330 0.190284 0.000000
0.760306 0.184319 0.000000
0.770556 0.178262 0.000000
0.780138 0.172110 0.000000
0.789104 0.165853 0.000000
0.797498 0.159483 0.000000
0.805364 0.152990 0.000000
0.812737 0.146361 0.000000
0.819651 0.139579 0.000000
0.826134 0.132629 0.000000
0.832215 0.125382 0.000000
0.837916 0.117861 0.000000
0.843260 0.110340 0.000000
0.848268 0.102704 0.000000
0.852958 0.094871 0.000000
0.857346 0.086768 0.000000
0.861452 0.078321 0.000000
0.865353 0.069457 0.000000
0.869083 0.060149 0.000000
0.872653 0.050392 0.000000
0.876074 0.040205 0.000000
0.879355 0.029703 0.000000
0.882505 0.019186 0.000000
0.885532 0.009294 0.000000
0.888444 0.001078 0.000000
0.891247 0.000000 0.000000
0.893947 0.000000 0.000000
0.896551 0.000000 0.000000
0.899063 0.000000 0.000000
0.901489 0.000000 0.000000
0.903834 0.000000 0.000000
0.906101 0.000000 0.000000
0.908294 0.000000 0.000000
0.910417 0.000000 0.000000
0.912474 0.000000 0.000000
0.914468 0.000000 0.000000
0.916401 0.000000 0.000000
0.918277 0.000000 0.000000
0.920099 0.000000 0.000000
0.921869 0.000000 0.000000
0.923588 0.000000 0.000000
0.925259 0.000000 0.000000
0.000000 0.346392 0.000000
0.000000 0.342298 0.000000
0.000000 0.338341 0.000000
0.017934 0.334222 0.000000
0.126511 0.330005 0.000000
0.205633 0.325708 0.000000
0.273357 0.321339 0.000000
0.333533 0.316903 0.000000
0.386679 0.312404 0.000000
0.433187 0.307844 0.000000
0.473518 0.303225 0.000000
0.508851 0.298548 0.000000
0.540278 0.293813 0.000000
0.568447 0.289022 0.000000
0.593858 0.284175 0.000000
0.616912 0.279272 0.000000
0.637932 0.274314 0.000000
0.657176 0.269300 0.000000
0.674863 0.264231 0.000000
0.691167 0.259106 0.000000
0.706242 0.253925 0.000000
0.720213 0.248686 0.000000
0.733190 0.243390 0.000000
0.745264 0.238036 0.000000
0.756517 0.232622 0.000000
0.767021 0.227147 0.000000
0.776834 0.221609 0.000000
0.786015 0.216006 0.000000
0.794608 0.210337 0.000000
0.802657 0.204597 0.000000
0.810201 0.198785 0.000000
0.817275 0.192894 0.000000
0.823908 0.186923 0.000000
0.830128 0.180865 0.000000
0.835961 0.174713 0.000000
0.841429 0.168462 0.000000
0.846554 0.162102 0.000000
0.851353 0.155623 0.000000
0.855846 0.149013 0.000000
0.860047 0.142258 0.000000
0.864012 0.135341 0.000000
0.867800 0.128240 0.000000
0.871426 0.120691 0.000000
0.874898 0.113150 0.000000
0.878227 0.105533 0.000000
0.881423 0.097747 0.000000
0.884492 0.089716 0.000000
0.887444 0.081367 0.000000
0.890284 0.072625 0.000000
0.893020 0.063434 0.000000
0.895657 0.053798 0.000000
0.898201 0.043716 0.000000
0.900657 0.033262 0.000000
0.903030 0.022660 0.000000
0.905323 0.012429 0.000000
0.907541 0.003504 0.000000
0.909689 0.000000 0.000000
0.911769 0.000000 0.000000
0.913784 0.000000 0.000000
0.915739 0.000000 0.000000
0.917634 0.000000 0.000000
0.919474 0.000000 0.000000
0.921262 0.000000 0.000000
0.922998 0.000000 0.000000
0.924686 0.000000 0.000000
0.000000 0.381566 0.000000
0.000000 0.377822 0.000000
0.000000 0.374201 0.000000
0.000000 0.370431 0.000000
0.091078 0.366570 0.000000
0.178083 0.362634 0.000000
0.249300 0.358630 0.000000
0.312268 0.354564 0.000000
0.368041 0.350437 0.000000
0.417003 0.346252 0.000000
0.459519 0.342011 0.000000
0.496549 0.337715 0.000000
0.529334 0.333364 0.000000
0.558638 0.328959 0.000000
0.585010 0.324500 0.000000
0.608887 0.319989 0.000000
0.630617 0.315424 0.000000
0.650481 0.310807 0.000000
0.668713 0.306138 0.000000
0.685500 0.301416 0.000000
0.701004 0.296642 0.000000
0.715361 0.291815 0.000000
0.728686 0.286936 0.000000
0.741076 0.282004 0.000000
0.752615 0.277020 0.000000
0.763381 0.271983 0.000000
0.773436 0.266892 0.000000
0.782838 0.261747 0.000000
0.791635 0.256548 0.000000
0.799875 0.251295 0.000000
0.807595 0.245985 0.000000
0.814834 0.240618 0.000000
0.821619 0.235194 0.000000
0.827984 0.229710 0.000000
0.833952 0.224164 0.000000
0.839547 0.218557 0.000000
0.844791 0.212883 0.000000
0.849704 0.207142 0.000000
0.854303 0.201329 0.000000
0.858606 0.195441 0.000000
0.862642 0.189475 0.000000
0.866492 0.183424 0.000000
0.870174 0.177284 0.000000
0.873700 0.171044 0.000000
0.877078 0.164702 0.000000
0.880320 0.158244 0.000000
0.883433 0.151660 0.000000
0.886425 0.144937 0.000000
0.889304 0.138058 0.000000
0.892076 0.131004 0.000000
0.894747 0.123579 0.000000
0.897323 0.116008 0.000000
0.899810 0.108405 0.000000
0.902212 0.100664 0.000000
0.904533 0.092705 0.000000
0.906777 0.084455 0.000000
0.908949 0.075835 0.000000
0.911052 0.066779 0.000000
0.913090 0.057274 0.000000
0.915065 0.047316 0.000000
0.916981 0.036948 0.000000
0.918841 0.026330 0.000000
0.920647 0.015856 0.000000
0.922401 0.006328 0.000000
0.924105 0.000000 0.000000
0.000000 0.413817 0.000000
0.000000 0.410401 0.000000
0.000000 0.407096 0.000000
0.000000 0.403655 0.000000
0.049392 0.400130 0.000000
0.148399 0.396536 0.000000
0.224016 0.392879 0.000000
0.289911 0.389165 0.000000
0.348387 0.385394 0.000000
0.399854 0.381569 0.000000
0.444723 0.377691 0.000000
0.483639 0.373762 0.000000
0.517883 0.369780 0.000000
0.548402 0.365748 0.000000
0.575798 0.361665 0.000000
0.600547 0.357532 0.000000
0.623029 0.353348 0.000000
0.643546 0.349114 0.000000
0.662351 0.344829 0.000000
0.679643 0.340495 0.000000
0.695598 0.336110 0.000000
0.710357 0.331675 0.000000
0.724044 0.327190 0.000000
0.736762 0.322654 0.000000
0.748599 0.318068 0.000000
0.759637 0.313431 0.000000
0.769940 0.308745 0.000000
0.779571 0.304006 0.000000
0.788580 0.299218 0.000000
0.797016 0.294378 0.000000
0.804918 0.289488 0.000000
0.812325 0.284546 0.000000
0.819269 0.279552 0.000000
0.825781 0.274506 0.000000
0.831888 0.269408 0.000000
0.837613 0.264258 0.000000
0.842980 0.259054 0.000000
0.848008 0.253796 0.000000
0.852717 0.248483 0.000000
0.857123 0.243113 0.000000
0.861245 0.237688 0.000000
0.865157 0.232204 0.000000
0.868898 0.226660 0.000000
0.872478 0.221053 0.000000
0.875907 0.215384 0.000000
0.879197 0.209647 0.000000
0.882355 0.203841 0.000000
0.885389 0.197962 0.000000
0.888307 0.192006 0.000000
0.891116 0.185968 0.000000
0.893822 0.179843 0.000000
0.896432 0.173623 0.000000
0.898949 0.167301 0.000000
0.901381 0.160867 0.000000
0.903730 0.154313 0.000000
0.906000 0.147626 0.000000
0.908198 0.140788 0.000000
0.910325 0.133784 0.000000
0.912385 0.126540 0.000000
0.914382 0.118918 0.000000
0.916319 0.111321 0.000000
0.918198 0.103622 0.000000
0.920023 0.095730 0.000000
0.921795 0.087576 0.000000
0.923516 0.079082 0.000000
0.000000 0.443192 0.000000
0.000000 0.440101 0.000000
0.000000 0.437110 0.000000
0.000000 0.433992 0.000000
0.003049 0.430797 0.000000
0.115168 0.427536 0.000000
0.197345 0.424215 0.000000
0.266441 0.420838 0.000000
0.327687 0.417407 0.000000
0.381755 0.413922 0.000000
0.429065 0.410385 0.000000
0.470061 0.406800 0.000000
0.505893 0.403167 0.000000
0.537715 0.399486 0.000000
0.566204 0.395759 0.000000
0.591880 0.391985 0.000000
0.615157 0.388164 0.000000
0.636363 0.384296 0.000000
0.655769 0.380381 0.000000
0.673592 0.376418 0.000000
0.690017 0.372408 0.000000
0.705197 0.368351 0.000000
0.719261 0.364246 0.000000
0.732320 0.360092 0.000000
0.744466 0.355891 0.000000
0.755785 0.351642 0.000000
0.766347 0.347344 0.000000
0.776215 0.342997 0.000000
0.785442 0.338601 0.000000
0.794079 0.334157 0.000000
0.802168 0.329664 0.000000
0.809750 0.325120 0.000000
0.816856 0.320528 0.000000
0.823520 0.315886 0.000000
0.829769 0.311194 0.000000
0.835627 0.306453 0.000000
0.841120 0.301661 0.000000
0.846267 0.296819 0.000000
0.851088 0.291926 0.000000
0.855600 0.286983 0.000000
0.859819 0.281989 0.000000
0.863797 0.276943 0.000000
0.867597 0.271846 0.000000
0.871233 0.266695 0.000000
0.874715 0.261493 0.000000
0.878054 0.256237 0.000000
0.881257 0.250926 0.000000
0.884335 0.245561 0.000000
0.887293 0.240140 0.000000
0.890140 0.234661 0.000000
0.892882 0.229123 0.000000
0.895525 0.223524 0.000000
0.898075 0.217862 0.000000
0.900537 0.212134 0.000000
0.902914 0.206338 0.000000
0.905212 0.200472 0.000000
0.907435 0.194529 0.000000
0.909587 0.188507 0.000000
0.911670 0.182400 0.000000
0.913690 0.176201 0.000000
0.915647 0.169905 0.000000
0.917546 0.163501 0.000000
0.919390 0.156978 0.000000
0.921180 0.150328 0.000000
0.922919 0.143535 0.000000
0.000000 0.469914 0.000000
0.000000 0.467105 0.000000
0.000000 0.464388 0.000000
0.000000 0.461558 0.000000
0.000000 0.458658 0.000000
0.078119 0.455700 0.000000
0.168953 0.452690 0.000000
0.241810 0.449631 0.000000
0.305917 0.446524 0.000000
0.362671 0.443370 0.000000
0.412476 0.440171 0.000000
0.455733 0.436926 0.000000
0.493328 0.433636 0.000000
0.526548 0.430300 0.000000
0.556204 0.426919 0.000000
0.582866 0.423492 0.000000
0.606987 0.420018 0.000000
0.628919 0.416498 0.000000
0.648960 0.412931 0.000000
0.667340 0.409317 0.000000
0.684257 0.405659 0.000000
0.699876 0.401957 0.000000
0.714333 0.398211 0.000000
0.727746 0.394421 0.000000
0.740213 0.390586 0.000000
0.751825 0.386705 0.000000
0.762653 0.382779 0.000000
0.772765 0.378807 0.000000
0.782218 0.374790 0.000000
0.791063 0.370726 0.000000
0.799345 0.366615 0.000000
0.807106 0.362457 0.000000
0.814379 0.358252 0.000000
0.821199 0.354000 0.000000
0.827594 0.349700 0.000000
0.833589 0.345352 0.000000
0.839211 0.340956 0.000000
0.844479 0.336511 0.000000
0.849415 0.332018 0.000000
0.854036 0.327476 0.000000
0.858357 0.322886 0.000000
0.862410 0.318246 0.000000
0.866272 0.313556 0.000000
0.869966 0.308817 0.000000
0.873501 0.304028 0.000000
0.876890 0.299189 0.000000
0.880141 0.294300 0.000000
0.883262 0.289361 0.000000
0.886262 0.284371 0.000000
0.889148 0.279330 0.000000
0.891927 0.274238 0.000000
0.894605 0.269094 0.000000
0.897187 0.263897 0.000000
0.899680 0.258646 0.000000
0.902086 0.253343 0.000000
0.904412 0.247985 0.000000
0.906662 0.242571 0.000000
0.908838 0.237101 0.000000
0.910945 0.231572 0.000000
0.912987 0.225983 0.000000
0.914966 0.220332 0.000000
0.916886 0.214618 0.000000
0.918749 0.208834 0.000000
0.920558 0.202983 0.000000
0.922315 0.197058 0.000000
0.000000 0.494347 0.000000
0.000000 0.491774 0.000000
0.000000 0.489289 0.000000
0.000000 0.486703 0.000000
0.000000 0.484057 0.000000
0.032999 0.481361 0.000000
0.138148 0.478620 0.000000
0.215922 0.475836 0.000000
0.283058 0.473010 0.000000
0.342565 0.470143 0.000000
0.394929 0.467236 0.000000
0.440594 0.464289 0.000000
0.480149 0.461303 0.000000
0.514871 0.458277 0.000000
0.545776 0.455211 0.000000
0.573489 0.452106 0.000000
0.598503 0.448960 0.000000
0.621205 0.445774 0.000000
0.641913 0.442547 0.000000
0.660877 0.439279 0.000000
0.678311 0.435969 0.000000
0.694388 0.432616 0.000000
0.709255 0.429220 0.000000
0.723037 0.425781 0.000000
0.735838 0.422298 0.000000
0.747752 0.418770 0.000000
0.758856 0.415197 0.000000
0.769222 0.411578 0.000000
0.778907 0.407914 0.000000
0.787967 0.404207 0.000000
0.796447 0.400458 0.000000
0.804393 0.396664 0.000000
0.811837 0.392827 0.000000
0.818817 0.388945 0.000000
0.825362 0.385019 0.000000
0.831498 0.381048 0.000000
0.837252 0.377032 0.000000
0.842644 0.372969 0.000000
0.847697 0.368861 0.000000
0.852429 0.364706 0.000000
0.856856 0.360505 0.000000
0.860996 0.356257 0.000000
0.864922 0.351961 0.000000
0.868675 0.347617 0.000000
0.872266 0.343226 0.000000
0.875706 0.338786 0.000000
0.879005 0.334299 0.000000
0.882172 0.329762 0.000000
0.885214 0.325178 0.000000
0.888140 0.320544 0.000000
0.890957 0.315862 0.000000
0.893670 0.311129 0.000000
0.896286 0.306347 0.000000
0.898810 0.301515 0.000000
0.901246 0.296633 0.000000
0.903600 0.291702 0.000000
0.905877 0.286719 0.000000
0.908078 0.281686 0.000000
0.910210 0.276602 0.000000
0.912275 0.271466 0.000000
0.914276 0.266279 0.000000
0.916216 0.261038 0.000000
0.918100 0.255743 0.000000
0.919927 0.250395 0.000000
0.921702 0.244993 0.000000
0.000000 0.516884 0.000000
0.000000 0.514511 0.000000
0.000000 0.512219 0.000000
0.000000 0.509836 0.000000
0.000000 0.507398 0.000000
0.000000 0.504916 0.000000
0.103438 0.502394 0.000000
0.188569 0.499835 0.000000
0.259077 0.497241 0.000000
0.321407 0.494613 0.000000
0.376427 0.491951 0.000000
0.424575 0.489256 0.000000
0.466279 0.486528 0.000000
0.502649 0.483767 0.000000
0.534892 0.480974 0.000000
0.563726 0.478147 0.000000
0.589690 0.475285 0.000000
0.613205 0.472389 0.000000
0.634617 0.469456 0.000000
0.654196 0.466487 0.000000
0.672170 0.463482 0.000000
0.688727 0.460441 0.000000
0.704022 0.457362 0.000000
0.718187 0.454245 0.000000
0.731335 0.451090 0.000000
0.743563 0.447897 0.000000
0.754954 0.444664 0.000000
0.765581 0.441391 0.000000
0.775507 0.438078 0.000000
0.784788 0.434723 0.000000
0.793473 0.431327 0.000000
0.801608 0.427888 0.000000
0.809230 0.424406 0.000000
0.816374 0.420881 0.000000
0.823073 0.417310 0.000000
0.829353 0.413695 0.000000
0.835242 0.410034 0.000000
0.840762 0.406330 0.000000
0.845935 0.402584 0.000000
0.850780 0.398794 0.000000
0.855314 0.394961 0.000000
0.859554 0.391085 0.000000
0.863546 0.387164 0.000000
